( Made using CamBam - http://www.cambam.co.uk )
( ParametricStandingDeskHutch_back 12/26/2015 9:11:26 PM )
( T6 : 6.0 )
G21 G90 G64 G40
G0 Z15.0
( T6 : 6.0 )
T6 M6
( Profile1 )
G17
M3 S1000
G0 X431.48 Y683.4
G0 Z1.0
G1 F300.0 Z-1.0
G1 F800.0 X361.28
G1 Y728.2
G1 X431.48
G1 Y683.4
G1 F300.0 Z-2.0
G1 F800.0 X361.28
G1 Y728.2
G1 X431.48
G1 Y683.4
G1 F300.0 Z-3.0
G1 F800.0 X361.28
G1 Y728.2
G1 X431.48
G1 Y683.4
G1 F300.0 Z-4.0
G1 F800.0 X361.28
G1 Y728.2
G1 X431.48
G1 Y683.4
G1 F300.0 Z-5.0
G1 F800.0 X361.28
G1 Y728.2
G1 X431.48
G1 Y683.4
G1 F300.0 Z-6.0
G1 F800.0 X361.28
G1 Y728.2
G1 X431.48
G1 Y683.4
G1 F300.0 Z-7.0
G1 F800.0 X361.28
G1 Y728.2
G1 X431.48
G1 Y683.4
G1 F300.0 Z-8.0
G1 F800.0 X361.28
G1 Y728.2
G1 X431.48
G1 Y683.4
G1 F300.0 Z-9.0
G1 F800.0 X361.28
G1 Y728.2
G1 X431.48
G1 Y683.4
G1 F300.0 Z-10.0
G1 F800.0 X361.28
G1 Y728.2
G1 X431.48
G1 Y683.4
G1 F300.0 Z-11.0
G1 F800.0 X361.28
G1 Y728.2
G1 X431.48
G1 Y683.4
G1 F300.0 Z-12.0
G1 F800.0 X361.28
G1 Y728.2
G1 X431.48
G1 Y683.4
G1 F300.0 Z-13.0
G1 F800.0 X361.28
G1 Y728.2
G1 X431.48
G1 Y683.4
G1 F300.0 Z-14.0
G1 F800.0 X361.28
G1 Y728.2
G1 X431.48
G1 Y683.4
G1 F300.0 Z-15.0
G1 F800.0 X361.28
G1 Y728.2
G1 X431.48
G1 Y683.4
G1 F300.0 Z-16.0
G1 F800.0 X361.28
G1 Y728.2
G1 X431.48
G1 Y683.4
G1 F300.0 Z-17.0
G1 F800.0 X378.98
G0 Z-16.0
G1 X362.98
G1 F300.0 Z-17.0
G1 F800.0 X361.28
G1 Y728.2
G1 X413.78
G0 Z-16.0
G1 X429.78
G1 F300.0 Z-17.0
G1 F800.0 X431.48
G1 Y683.4
G1 F300.0 Z-18.0
G1 F800.0 X378.98
G0 Z-16.0
G1 X362.98
G1 F300.0 Z-18.0
G1 F800.0 X361.28
G1 Y728.2
G1 X413.78
G0 Z-16.0
G1 X429.78
G1 F300.0 Z-18.0
G1 F800.0 X431.48
G1 Y683.4
G1 F300.0 Z-19.0
G1 F800.0 X378.98
G0 Z-16.0
G1 X362.98
G0 Z-17.0
G1 F300.0 Z-19.0
G1 F800.0 X361.28
G1 Y728.2
G1 X413.78
G0 Z-16.0
G1 X429.78
G0 Z-17.0
G1 F300.0 Z-19.0
G1 F800.0 X431.48
G1 Y683.4
G1 F300.0 Z-20.0
G1 F800.0 X378.98
G0 Z-16.0
G1 X362.98
G0 Z-18.0
G1 F300.0 Z-20.0
G1 F800.0 X361.28
G1 Y728.2
G1 X413.78
G0 Z-16.0
G1 X429.78
G0 Z-18.0
G1 F300.0 Z-20.0
G1 F800.0 X431.48
G1 Y683.4
G1 F300.0 Z-21.0
G1 F800.0 X378.98
G0 Z-16.0
G1 X362.98
G0 Z-19.0
G1 F300.0 Z-21.0
G1 F800.0 X361.28
G1 Y728.2
G1 X413.78
G0 Z-16.0
G1 X429.78
G0 Z-19.0
G1 F300.0 Z-21.0
G1 F800.0 X431.48
G1 Y683.4
G0 Z15.0
G0 Y626.6
G0 Z1.0
G1 F300.0 Z-1.0
G1 F800.0 Y581.8
G1 X361.28
G1 Y626.6
G1 X431.48
G1 F300.0 Z-2.0
G1 F800.0 Y581.8
G1 X361.28
G1 Y626.6
G1 X431.48
G1 F300.0 Z-3.0
G1 F800.0 Y581.8
G1 X361.28
G1 Y626.6
G1 X431.48
G1 F300.0 Z-4.0
G1 F800.0 Y581.8
G1 X361.28
G1 Y626.6
G1 X431.48
G1 F300.0 Z-5.0
G1 F800.0 Y581.8
G1 X361.28
G1 Y626.6
G1 X431.48
G1 F300.0 Z-6.0
G1 F800.0 Y581.8
G1 X361.28
G1 Y626.6
G1 X431.48
G1 F300.0 Z-7.0
G1 F800.0 Y581.8
G1 X361.28
G1 Y626.6
G1 X431.48
G1 F300.0 Z-8.0
G1 F800.0 Y581.8
G1 X361.28
G1 Y626.6
G1 X431.48
G1 F300.0 Z-9.0
G1 F800.0 Y581.8
G1 X361.28
G1 Y626.6
G1 X431.48
G1 F300.0 Z-10.0
G1 F800.0 Y581.8
G1 X361.28
G1 Y626.6
G1 X431.48
G1 F300.0 Z-11.0
G1 F800.0 Y581.8
G1 X361.28
G1 Y626.6
G1 X431.48
G1 F300.0 Z-12.0
G1 F800.0 Y581.8
G1 X361.28
G1 Y626.6
G1 X431.48
G1 F300.0 Z-13.0
G1 F800.0 Y581.8
G1 X361.28
G1 Y626.6
G1 X431.48
G1 F300.0 Z-14.0
G1 F800.0 Y581.8
G1 X361.28
G1 Y626.6
G1 X431.48
G1 F300.0 Z-15.0
G1 F800.0 Y581.8
G1 X361.28
G1 Y626.6
G1 X431.48
G1 F300.0 Z-16.0
G1 F800.0 Y581.8
G1 X361.28
G1 Y626.6
G1 X431.48
G1 F300.0 Z-17.0
G1 F800.0 Y581.8
G1 X378.98
G0 Z-16.0
G1 X362.98
G1 F300.0 Z-17.0
G1 F800.0 X361.28
G1 Y626.6
G1 X413.78
G0 Z-16.0
G1 X429.78
G1 F300.0 Z-17.0
G1 F800.0 X431.48
G1 F300.0 Z-18.0
G1 F800.0 Y581.8
G1 X378.98
G0 Z-16.0
G1 X362.98
G1 F300.0 Z-18.0
G1 F800.0 X361.28
G1 Y626.6
G1 X413.78
G0 Z-16.0
G1 X429.78
G1 F300.0 Z-18.0
G1 F800.0 X431.48
G1 F300.0 Z-19.0
G1 F800.0 Y581.8
G1 X378.98
G0 Z-16.0
G1 X362.98
G0 Z-17.0
G1 F300.0 Z-19.0
G1 F800.0 X361.28
G1 Y626.6
G1 X413.78
G0 Z-16.0
G1 X429.78
G0 Z-17.0
G1 F300.0 Z-19.0
G1 F800.0 X431.48
G1 F300.0 Z-20.0
G1 F800.0 Y581.8
G1 X378.98
G0 Z-16.0
G1 X362.98
G0 Z-18.0
G1 F300.0 Z-20.0
G1 F800.0 X361.28
G1 Y626.6
G1 X413.78
G0 Z-16.0
G1 X429.78
G0 Z-18.0
G1 F300.0 Z-20.0
G1 F800.0 X431.48
G1 F300.0 Z-21.0
G1 F800.0 Y581.8
G1 X378.98
G0 Z-16.0
G1 X362.98
G0 Z-19.0
G1 F300.0 Z-21.0
G1 F800.0 X361.28
G1 Y626.6
G1 X413.78
G0 Z-16.0
G1 X429.78
G0 Z-19.0
G1 F300.0 Z-21.0
G1 F800.0 X431.48
G0 Z15.0
G0 Y525.0
G0 Z1.0
G1 F300.0 Z-1.0
G1 F800.0 Y480.2
G1 X361.28
G1 Y525.0
G1 X431.48
G1 F300.0 Z-2.0
G1 F800.0 Y480.2
G1 X361.28
G1 Y525.0
G1 X431.48
G1 F300.0 Z-3.0
G1 F800.0 Y480.2
G1 X361.28
G1 Y525.0
G1 X431.48
G1 F300.0 Z-4.0
G1 F800.0 Y480.2
G1 X361.28
G1 Y525.0
G1 X431.48
G1 F300.0 Z-5.0
G1 F800.0 Y480.2
G1 X361.28
G1 Y525.0
G1 X431.48
G1 F300.0 Z-6.0
G1 F800.0 Y480.2
G1 X361.28
G1 Y525.0
G1 X431.48
G1 F300.0 Z-7.0
G1 F800.0 Y480.2
G1 X361.28
G1 Y525.0
G1 X431.48
G1 F300.0 Z-8.0
G1 F800.0 Y480.2
G1 X361.28
G1 Y525.0
G1 X431.48
G1 F300.0 Z-9.0
G1 F800.0 Y480.2
G1 X361.28
G1 Y525.0
G1 X431.48
G1 F300.0 Z-10.0
G1 F800.0 Y480.2
G1 X361.28
G1 Y525.0
G1 X431.48
G1 F300.0 Z-11.0
G1 F800.0 Y480.2
G1 X361.28
G1 Y525.0
G1 X431.48
G1 F300.0 Z-12.0
G1 F800.0 Y480.2
G1 X361.28
G1 Y525.0
G1 X431.48
G1 F300.0 Z-13.0
G1 F800.0 Y480.2
G1 X361.28
G1 Y525.0
G1 X431.48
G1 F300.0 Z-14.0
G1 F800.0 Y480.2
G1 X361.28
G1 Y525.0
G1 X431.48
G1 F300.0 Z-15.0
G1 F800.0 Y480.2
G1 X361.28
G1 Y525.0
G1 X431.48
G1 F300.0 Z-16.0
G1 F800.0 Y480.2
G1 X361.28
G1 Y525.0
G1 X431.48
G1 F300.0 Z-17.0
G1 F800.0 Y480.2
G1 X378.98
G0 Z-16.0
G1 X362.98
G1 F300.0 Z-17.0
G1 F800.0 X361.28
G1 Y525.0
G1 X413.78
G0 Z-16.0
G1 X429.78
G1 F300.0 Z-17.0
G1 F800.0 X431.48
G1 F300.0 Z-18.0
G1 F800.0 Y480.2
G1 X378.98
G0 Z-16.0
G1 X362.98
G1 F300.0 Z-18.0
G1 F800.0 X361.28
G1 Y525.0
G1 X413.78
G0 Z-16.0
G1 X429.78
G1 F300.0 Z-18.0
G1 F800.0 X431.48
G1 F300.0 Z-19.0
G1 F800.0 Y480.2
G1 X378.98
G0 Z-16.0
G1 X362.98
G0 Z-17.0
G1 F300.0 Z-19.0
G1 F800.0 X361.28
G1 Y525.0
G1 X413.78
G0 Z-16.0
G1 X429.78
G0 Z-17.0
G1 F300.0 Z-19.0
G1 F800.0 X431.48
G1 F300.0 Z-20.0
G1 F800.0 Y480.2
G1 X378.98
G0 Z-16.0
G1 X362.98
G0 Z-18.0
G1 F300.0 Z-20.0
G1 F800.0 X361.28
G1 Y525.0
G1 X413.78
G0 Z-16.0
G1 X429.78
G0 Z-18.0
G1 F300.0 Z-20.0
G1 F800.0 X431.48
G1 F300.0 Z-21.0
G1 F800.0 Y480.2
G1 X378.98
G0 Z-16.0
G1 X362.98
G0 Z-19.0
G1 F300.0 Z-21.0
G1 F800.0 X361.28
G1 Y525.0
G1 X413.78
G0 Z-16.0
G1 X429.78
G0 Z-19.0
G1 F300.0 Z-21.0
G1 F800.0 X431.48
G0 Z15.0
G0 Y423.4
G0 Z1.0
G1 F300.0 Z-1.0
G1 F800.0 Y378.6
G1 X361.28
G1 Y423.4
G1 X431.48
G1 F300.0 Z-2.0
G1 F800.0 Y378.6
G1 X361.28
G1 Y423.4
G1 X431.48
G1 F300.0 Z-3.0
G1 F800.0 Y378.6
G1 X361.28
G1 Y423.4
G1 X431.48
G1 F300.0 Z-4.0
G1 F800.0 Y378.6
G1 X361.28
G1 Y423.4
G1 X431.48
G1 F300.0 Z-5.0
G1 F800.0 Y378.6
G1 X361.28
G1 Y423.4
G1 X431.48
G1 F300.0 Z-6.0
G1 F800.0 Y378.6
G1 X361.28
G1 Y423.4
G1 X431.48
G1 F300.0 Z-7.0
G1 F800.0 Y378.6
G1 X361.28
G1 Y423.4
G1 X431.48
G1 F300.0 Z-8.0
G1 F800.0 Y378.6
G1 X361.28
G1 Y423.4
G1 X431.48
G1 F300.0 Z-9.0
G1 F800.0 Y378.6
G1 X361.28
G1 Y423.4
G1 X431.48
G1 F300.0 Z-10.0
G1 F800.0 Y378.6
G1 X361.28
G1 Y423.4
G1 X431.48
G1 F300.0 Z-11.0
G1 F800.0 Y378.6
G1 X361.28
G1 Y423.4
G1 X431.48
G1 F300.0 Z-12.0
G1 F800.0 Y378.6
G1 X361.28
G1 Y423.4
G1 X431.48
G1 F300.0 Z-13.0
G1 F800.0 Y378.6
G1 X361.28
G1 Y423.4
G1 X431.48
G1 F300.0 Z-14.0
G1 F800.0 Y378.6
G1 X361.28
G1 Y423.4
G1 X431.48
G1 F300.0 Z-15.0
G1 F800.0 Y378.6
G1 X361.28
G1 Y423.4
G1 X431.48
G1 F300.0 Z-16.0
G1 F800.0 Y378.6
G1 X361.28
G1 Y423.4
G1 X431.48
G1 F300.0 Z-17.0
G1 F800.0 Y378.6
G1 X378.98
G0 Z-16.0
G1 X362.98
G1 F300.0 Z-17.0
G1 F800.0 X361.28
G1 Y423.4
G1 X413.78
G0 Z-16.0
G1 X429.78
G1 F300.0 Z-17.0
G1 F800.0 X431.48
G1 F300.0 Z-18.0
G1 F800.0 Y378.6
G1 X378.98
G0 Z-16.0
G1 X362.98
G1 F300.0 Z-18.0
G1 F800.0 X361.28
G1 Y423.4
G1 X413.78
G0 Z-16.0
G1 X429.78
G1 F300.0 Z-18.0
G1 F800.0 X431.48
G1 F300.0 Z-19.0
G1 F800.0 Y378.6
G1 X378.98
G0 Z-16.0
G1 X362.98
G0 Z-17.0
G1 F300.0 Z-19.0
G1 F800.0 X361.28
G1 Y423.4
G1 X413.78
G0 Z-16.0
G1 X429.78
G0 Z-17.0
G1 F300.0 Z-19.0
G1 F800.0 X431.48
G1 F300.0 Z-20.0
G1 F800.0 Y378.6
G1 X378.98
G0 Z-16.0
G1 X362.98
G0 Z-18.0
G1 F300.0 Z-20.0
G1 F800.0 X361.28
G1 Y423.4
G1 X413.78
G0 Z-16.0
G1 X429.78
G0 Z-18.0
G1 F300.0 Z-20.0
G1 F800.0 X431.48
G1 F300.0 Z-21.0
G1 F800.0 Y378.6
G1 X378.98
G0 Z-16.0
G1 X362.98
G0 Z-19.0
G1 F300.0 Z-21.0
G1 F800.0 X361.28
G1 Y423.4
G1 X413.78
G0 Z-16.0
G1 X429.78
G0 Z-19.0
G1 F300.0 Z-21.0
G1 F800.0 X431.48
G0 Z15.0
G0 Y321.8
G0 Z1.0
G1 F300.0 Z-1.0
G1 F800.0 Y277.0
G1 X361.28
G1 Y321.8
G1 X431.48
G1 F300.0 Z-2.0
G1 F800.0 Y277.0
G1 X361.28
G1 Y321.8
G1 X431.48
G1 F300.0 Z-3.0
G1 F800.0 Y277.0
G1 X361.28
G1 Y321.8
G1 X431.48
G1 F300.0 Z-4.0
G1 F800.0 Y277.0
G1 X361.28
G1 Y321.8
G1 X431.48
G1 F300.0 Z-5.0
G1 F800.0 Y277.0
G1 X361.28
G1 Y321.8
G1 X431.48
G1 F300.0 Z-6.0
G1 F800.0 Y277.0
G1 X361.28
G1 Y321.8
G1 X431.48
G1 F300.0 Z-7.0
G1 F800.0 Y277.0
G1 X361.28
G1 Y321.8
G1 X431.48
G1 F300.0 Z-8.0
G1 F800.0 Y277.0
G1 X361.28
G1 Y321.8
G1 X431.48
G1 F300.0 Z-9.0
G1 F800.0 Y277.0
G1 X361.28
G1 Y321.8
G1 X431.48
G1 F300.0 Z-10.0
G1 F800.0 Y277.0
G1 X361.28
G1 Y321.8
G1 X431.48
G1 F300.0 Z-11.0
G1 F800.0 Y277.0
G1 X361.28
G1 Y321.8
G1 X431.48
G1 F300.0 Z-12.0
G1 F800.0 Y277.0
G1 X361.28
G1 Y321.8
G1 X431.48
G1 F300.0 Z-13.0
G1 F800.0 Y277.0
G1 X361.28
G1 Y321.8
G1 X431.48
G1 F300.0 Z-14.0
G1 F800.0 Y277.0
G1 X361.28
G1 Y321.8
G1 X431.48
G1 F300.0 Z-15.0
G1 F800.0 Y277.0
G1 X361.28
G1 Y321.8
G1 X431.48
G1 F300.0 Z-16.0
G1 F800.0 Y277.0
G1 X361.28
G1 Y321.8
G1 X431.48
G1 F300.0 Z-17.0
G1 F800.0 Y277.0
G1 X378.98
G0 Z-16.0
G1 X362.98
G1 F300.0 Z-17.0
G1 F800.0 X361.28
G1 Y321.8
G1 X413.78
G0 Z-16.0
G1 X429.78
G1 F300.0 Z-17.0
G1 F800.0 X431.48
G1 F300.0 Z-18.0
G1 F800.0 Y277.0
G1 X378.98
G0 Z-16.0
G1 X362.98
G1 F300.0 Z-18.0
G1 F800.0 X361.28
G1 Y321.8
G1 X413.78
G0 Z-16.0
G1 X429.78
G1 F300.0 Z-18.0
G1 F800.0 X431.48
G1 F300.0 Z-19.0
G1 F800.0 Y277.0
G1 X378.98
G0 Z-16.0
G1 X362.98
G0 Z-17.0
G1 F300.0 Z-19.0
G1 F800.0 X361.28
G1 Y321.8
G1 X413.78
G0 Z-16.0
G1 X429.78
G0 Z-17.0
G1 F300.0 Z-19.0
G1 F800.0 X431.48
G1 F300.0 Z-20.0
G1 F800.0 Y277.0
G1 X378.98
G0 Z-16.0
G1 X362.98
G0 Z-18.0
G1 F300.0 Z-20.0
G1 F800.0 X361.28
G1 Y321.8
G1 X413.78
G0 Z-16.0
G1 X429.78
G0 Z-18.0
G1 F300.0 Z-20.0
G1 F800.0 X431.48
G1 F300.0 Z-21.0
G1 F800.0 Y277.0
G1 X378.98
G0 Z-16.0
G1 X362.98
G0 Z-19.0
G1 F300.0 Z-21.0
G1 F800.0 X361.28
G1 Y321.8
G1 X413.78
G0 Z-16.0
G1 X429.78
G0 Z-19.0
G1 F300.0 Z-21.0
G1 F800.0 X431.48
G0 Z15.0
G0 Y220.2
G0 Z1.0
G1 F300.0 Z-1.0
G1 F800.0 Y175.4
G1 X361.28
G1 Y220.2
G1 X431.48
G1 F300.0 Z-2.0
G1 F800.0 Y175.4
G1 X361.28
G1 Y220.2
G1 X431.48
G1 F300.0 Z-3.0
G1 F800.0 Y175.4
G1 X361.28
G1 Y220.2
G1 X431.48
G1 F300.0 Z-4.0
G1 F800.0 Y175.4
G1 X361.28
G1 Y220.2
G1 X431.48
G1 F300.0 Z-5.0
G1 F800.0 Y175.4
G1 X361.28
G1 Y220.2
G1 X431.48
G1 F300.0 Z-6.0
G1 F800.0 Y175.4
G1 X361.28
G1 Y220.2
G1 X431.48
G1 F300.0 Z-7.0
G1 F800.0 Y175.4
G1 X361.28
G1 Y220.2
G1 X431.48
G1 F300.0 Z-8.0
G1 F800.0 Y175.4
G1 X361.28
G1 Y220.2
G1 X431.48
G1 F300.0 Z-9.0
G1 F800.0 Y175.4
G1 X361.28
G1 Y220.2
G1 X431.48
G1 F300.0 Z-10.0
G1 F800.0 Y175.4
G1 X361.28
G1 Y220.2
G1 X431.48
G1 F300.0 Z-11.0
G1 F800.0 Y175.4
G1 X361.28
G1 Y220.2
G1 X431.48
G1 F300.0 Z-12.0
G1 F800.0 Y175.4
G1 X361.28
G1 Y220.2
G1 X431.48
G1 F300.0 Z-13.0
G1 F800.0 Y175.4
G1 X361.28
G1 Y220.2
G1 X431.48
G1 F300.0 Z-14.0
G1 F800.0 Y175.4
G1 X361.28
G1 Y220.2
G1 X431.48
G1 F300.0 Z-15.0
G1 F800.0 Y175.4
G1 X361.28
G1 Y220.2
G1 X431.48
G1 F300.0 Z-16.0
G1 F800.0 Y175.4
G1 X361.28
G1 Y220.2
G1 X431.48
G1 F300.0 Z-17.0
G1 F800.0 Y175.4
G1 X378.98
G0 Z-16.0
G1 X362.98
G1 F300.0 Z-17.0
G1 F800.0 X361.28
G1 Y220.2
G1 X413.78
G0 Z-16.0
G1 X429.78
G1 F300.0 Z-17.0
G1 F800.0 X431.48
G1 F300.0 Z-18.0
G1 F800.0 Y175.4
G1 X378.98
G0 Z-16.0
G1 X362.98
G1 F300.0 Z-18.0
G1 F800.0 X361.28
G1 Y220.2
G1 X413.78
G0 Z-16.0
G1 X429.78
G1 F300.0 Z-18.0
G1 F800.0 X431.48
G1 F300.0 Z-19.0
G1 F800.0 Y175.4
G1 X378.98
G0 Z-16.0
G1 X362.98
G0 Z-17.0
G1 F300.0 Z-19.0
G1 F800.0 X361.28
G1 Y220.2
G1 X413.78
G0 Z-16.0
G1 X429.78
G0 Z-17.0
G1 F300.0 Z-19.0
G1 F800.0 X431.48
G1 F300.0 Z-20.0
G1 F800.0 Y175.4
G1 X378.98
G0 Z-16.0
G1 X362.98
G0 Z-18.0
G1 F300.0 Z-20.0
G1 F800.0 X361.28
G1 Y220.2
G1 X413.78
G0 Z-16.0
G1 X429.78
G0 Z-18.0
G1 F300.0 Z-20.0
G1 F800.0 X431.48
G1 F300.0 Z-21.0
G1 F800.0 Y175.4
G1 X378.98
G0 Z-16.0
G1 X362.98
G0 Z-19.0
G1 F300.0 Z-21.0
G1 F800.0 X361.28
G1 Y220.2
G1 X413.78
G0 Z-16.0
G1 X429.78
G0 Z-19.0
G1 F300.0 Z-21.0
G1 F800.0 X431.48
G0 Z15.0
G0 Y118.6
G0 Z1.0
G1 F300.0 Z-1.0
G1 F800.0 Y73.8
G1 X361.28
G1 Y118.6
G1 X431.48
G1 F300.0 Z-2.0
G1 F800.0 Y73.8
G1 X361.28
G1 Y118.6
G1 X431.48
G1 F300.0 Z-3.0
G1 F800.0 Y73.8
G1 X361.28
G1 Y118.6
G1 X431.48
G1 F300.0 Z-4.0
G1 F800.0 Y73.8
G1 X361.28
G1 Y118.6
G1 X431.48
G1 F300.0 Z-5.0
G1 F800.0 Y73.8
G1 X361.28
G1 Y118.6
G1 X431.48
G1 F300.0 Z-6.0
G1 F800.0 Y73.8
G1 X361.28
G1 Y118.6
G1 X431.48
G1 F300.0 Z-7.0
G1 F800.0 Y73.8
G1 X361.28
G1 Y118.6
G1 X431.48
G1 F300.0 Z-8.0
G1 F800.0 Y73.8
G1 X361.28
G1 Y118.6
G1 X431.48
G1 F300.0 Z-9.0
G1 F800.0 Y73.8
G1 X361.28
G1 Y118.6
G1 X431.48
G1 F300.0 Z-10.0
G1 F800.0 Y73.8
G1 X361.28
G1 Y118.6
G1 X431.48
G1 F300.0 Z-11.0
G1 F800.0 Y73.8
G1 X361.28
G1 Y118.6
G1 X431.48
G1 F300.0 Z-12.0
G1 F800.0 Y73.8
G1 X361.28
G1 Y118.6
G1 X431.48
G1 F300.0 Z-13.0
G1 F800.0 Y73.8
G1 X361.28
G1 Y118.6
G1 X431.48
G1 F300.0 Z-14.0
G1 F800.0 Y73.8
G1 X361.28
G1 Y118.6
G1 X431.48
G1 F300.0 Z-15.0
G1 F800.0 Y73.8
G1 X361.28
G1 Y118.6
G1 X431.48
G1 F300.0 Z-16.0
G1 F800.0 Y73.8
G1 X361.28
G1 Y118.6
G1 X431.48
G1 F300.0 Z-17.0
G1 F800.0 Y73.8
G1 X378.98
G0 Z-16.0
G1 X362.98
G1 F300.0 Z-17.0
G1 F800.0 X361.28
G1 Y118.6
G1 X413.78
G0 Z-16.0
G1 X429.78
G1 F300.0 Z-17.0
G1 F800.0 X431.48
G1 F300.0 Z-18.0
G1 F800.0 Y73.8
G1 X378.98
G0 Z-16.0
G1 X362.98
G1 F300.0 Z-18.0
G1 F800.0 X361.28
G1 Y118.6
G1 X413.78
G0 Z-16.0
G1 X429.78
G1 F300.0 Z-18.0
G1 F800.0 X431.48
G1 F300.0 Z-19.0
G1 F800.0 Y73.8
G1 X378.98
G0 Z-16.0
G1 X362.98
G0 Z-17.0
G1 F300.0 Z-19.0
G1 F800.0 X361.28
G1 Y118.6
G1 X413.78
G0 Z-16.0
G1 X429.78
G0 Z-17.0
G1 F300.0 Z-19.0
G1 F800.0 X431.48
G1 F300.0 Z-20.0
G1 F800.0 Y73.8
G1 X378.98
G0 Z-16.0
G1 X362.98
G0 Z-18.0
G1 F300.0 Z-20.0
G1 F800.0 X361.28
G1 Y118.6
G1 X413.78
G0 Z-16.0
G1 X429.78
G0 Z-18.0
G1 F300.0 Z-20.0
G1 F800.0 X431.48
G1 F300.0 Z-21.0
G1 F800.0 Y73.8
G1 X378.98
G0 Z-16.0
G1 X362.98
G0 Z-19.0
G1 F300.0 Z-21.0
G1 F800.0 X361.28
G1 Y118.6
G1 X413.78
G0 Z-16.0
G1 X429.78
G0 Z-19.0
G1 F300.0 Z-21.0
G1 F800.0 X431.48
G0 Z15.0
G0 X630.52
G0 Z1.0
G1 F300.0 Z-1.0
G1 F800.0 X700.72
G1 Y73.8
G1 X630.52
G1 Y118.6
G1 F300.0 Z-2.0
G1 F800.0 X700.72
G1 Y73.8
G1 X630.52
G1 Y118.6
G1 F300.0 Z-3.0
G1 F800.0 X700.72
G1 Y73.8
G1 X630.52
G1 Y118.6
G1 F300.0 Z-4.0
G1 F800.0 X700.72
G1 Y73.8
G1 X630.52
G1 Y118.6
G1 F300.0 Z-5.0
G1 F800.0 X700.72
G1 Y73.8
G1 X630.52
G1 Y118.6
G1 F300.0 Z-6.0
G1 F800.0 X700.72
G1 Y73.8
G1 X630.52
G1 Y118.6
G1 F300.0 Z-7.0
G1 F800.0 X700.72
G1 Y73.8
G1 X630.52
G1 Y118.6
G1 F300.0 Z-8.0
G1 F800.0 X700.72
G1 Y73.8
G1 X630.52
G1 Y118.6
G1 F300.0 Z-9.0
G1 F800.0 X700.72
G1 Y73.8
G1 X630.52
G1 Y118.6
G1 F300.0 Z-10.0
G1 F800.0 X700.72
G1 Y73.8
G1 X630.52
G1 Y118.6
G1 F300.0 Z-11.0
G1 F800.0 X700.72
G1 Y73.8
G1 X630.52
G1 Y118.6
G1 F300.0 Z-12.0
G1 F800.0 X700.72
G1 Y73.8
G1 X630.52
G1 Y118.6
G1 F300.0 Z-13.0
G1 F800.0 X700.72
G1 Y73.8
G1 X630.52
G1 Y118.6
G1 F300.0 Z-14.0
G1 F800.0 X700.72
G1 Y73.8
G1 X630.52
G1 Y118.6
G1 F300.0 Z-15.0
G1 F800.0 X700.72
G1 Y73.8
G1 X630.52
G1 Y118.6
G1 F300.0 Z-16.0
G1 F800.0 X700.72
G1 Y73.8
G1 X630.52
G1 Y118.6
G1 F300.0 Z-17.0
G1 F800.0 X683.02
G0 Z-16.0
G1 X699.02
G1 F300.0 Z-17.0
G1 F800.0 X700.72
G1 Y73.8
G1 X648.22
G0 Z-16.0
G1 X632.22
G1 F300.0 Z-17.0
G1 F800.0 X630.52
G1 Y118.6
G1 F300.0 Z-18.0
G1 F800.0 X683.02
G0 Z-16.0
G1 X699.02
G1 F300.0 Z-18.0
G1 F800.0 X700.72
G1 Y73.8
G1 X648.22
G0 Z-16.0
G1 X632.22
G1 F300.0 Z-18.0
G1 F800.0 X630.52
G1 Y118.6
G1 F300.0 Z-19.0
G1 F800.0 X683.02
G0 Z-16.0
G1 X699.02
G0 Z-17.0
G1 F300.0 Z-19.0
G1 F800.0 X700.72
G1 Y73.8
G1 X648.22
G0 Z-16.0
G1 X632.22
G0 Z-17.0
G1 F300.0 Z-19.0
G1 F800.0 X630.52
G1 Y118.6
G1 F300.0 Z-20.0
G1 F800.0 X683.02
G0 Z-16.0
G1 X699.02
G0 Z-18.0
G1 F300.0 Z-20.0
G1 F800.0 X700.72
G1 Y73.8
G1 X648.22
G0 Z-16.0
G1 X632.22
G0 Z-18.0
G1 F300.0 Z-20.0
G1 F800.0 X630.52
G1 Y118.6
G1 F300.0 Z-21.0
G1 F800.0 X683.02
G0 Z-16.0
G1 X699.02
G0 Z-19.0
G1 F300.0 Z-21.0
G1 F800.0 X700.72
G1 Y73.8
G1 X648.22
G0 Z-16.0
G1 X632.22
G0 Z-19.0
G1 F300.0 Z-21.0
G1 F800.0 X630.52
G1 Y118.6
G0 Z15.0
G0 Y175.4
G0 Z1.0
G1 F300.0 Z-1.0
G1 F800.0 Y220.2
G1 X700.72
G1 Y175.4
G1 X630.52
G1 F300.0 Z-2.0
G1 F800.0 Y220.2
G1 X700.72
G1 Y175.4
G1 X630.52
G1 F300.0 Z-3.0
G1 F800.0 Y220.2
G1 X700.72
G1 Y175.4
G1 X630.52
G1 F300.0 Z-4.0
G1 F800.0 Y220.2
G1 X700.72
G1 Y175.4
G1 X630.52
G1 F300.0 Z-5.0
G1 F800.0 Y220.2
G1 X700.72
G1 Y175.4
G1 X630.52
G1 F300.0 Z-6.0
G1 F800.0 Y220.2
G1 X700.72
G1 Y175.4
G1 X630.52
G1 F300.0 Z-7.0
G1 F800.0 Y220.2
G1 X700.72
G1 Y175.4
G1 X630.52
G1 F300.0 Z-8.0
G1 F800.0 Y220.2
G1 X700.72
G1 Y175.4
G1 X630.52
G1 F300.0 Z-9.0
G1 F800.0 Y220.2
G1 X700.72
G1 Y175.4
G1 X630.52
G1 F300.0 Z-10.0
G1 F800.0 Y220.2
G1 X700.72
G1 Y175.4
G1 X630.52
G1 F300.0 Z-11.0
G1 F800.0 Y220.2
G1 X700.72
G1 Y175.4
G1 X630.52
G1 F300.0 Z-12.0
G1 F800.0 Y220.2
G1 X700.72
G1 Y175.4
G1 X630.52
G1 F300.0 Z-13.0
G1 F800.0 Y220.2
G1 X700.72
G1 Y175.4
G1 X630.52
G1 F300.0 Z-14.0
G1 F800.0 Y220.2
G1 X700.72
G1 Y175.4
G1 X630.52
G1 F300.0 Z-15.0
G1 F800.0 Y220.2
G1 X700.72
G1 Y175.4
G1 X630.52
G1 F300.0 Z-16.0
G1 F800.0 Y220.2
G1 X700.72
G1 Y175.4
G1 X630.52
G1 F300.0 Z-17.0
G1 F800.0 Y220.2
G1 X683.02
G0 Z-16.0
G1 X699.02
G1 F300.0 Z-17.0
G1 F800.0 X700.72
G1 Y175.4
G1 X648.22
G0 Z-16.0
G1 X632.22
G1 F300.0 Z-17.0
G1 F800.0 X630.52
G1 F300.0 Z-18.0
G1 F800.0 Y220.2
G1 X683.02
G0 Z-16.0
G1 X699.02
G1 F300.0 Z-18.0
G1 F800.0 X700.72
G1 Y175.4
G1 X648.22
G0 Z-16.0
G1 X632.22
G1 F300.0 Z-18.0
G1 F800.0 X630.52
G1 F300.0 Z-19.0
G1 F800.0 Y220.2
G1 X683.02
G0 Z-16.0
G1 X699.02
G0 Z-17.0
G1 F300.0 Z-19.0
G1 F800.0 X700.72
G1 Y175.4
G1 X648.22
G0 Z-16.0
G1 X632.22
G0 Z-17.0
G1 F300.0 Z-19.0
G1 F800.0 X630.52
G1 F300.0 Z-20.0
G1 F800.0 Y220.2
G1 X683.02
G0 Z-16.0
G1 X699.02
G0 Z-18.0
G1 F300.0 Z-20.0
G1 F800.0 X700.72
G1 Y175.4
G1 X648.22
G0 Z-16.0
G1 X632.22
G0 Z-18.0
G1 F300.0 Z-20.0
G1 F800.0 X630.52
G1 F300.0 Z-21.0
G1 F800.0 Y220.2
G1 X683.02
G0 Z-16.0
G1 X699.02
G0 Z-19.0
G1 F300.0 Z-21.0
G1 F800.0 X700.72
G1 Y175.4
G1 X648.22
G0 Z-16.0
G1 X632.22
G0 Z-19.0
G1 F300.0 Z-21.0
G1 F800.0 X630.52
G0 Z15.0
G0 Y277.0
G0 Z1.0
G1 F300.0 Z-1.0
G1 F800.0 Y321.8
G1 X700.72
G1 Y277.0
G1 X630.52
G1 F300.0 Z-2.0
G1 F800.0 Y321.8
G1 X700.72
G1 Y277.0
G1 X630.52
G1 F300.0 Z-3.0
G1 F800.0 Y321.8
G1 X700.72
G1 Y277.0
G1 X630.52
G1 F300.0 Z-4.0
G1 F800.0 Y321.8
G1 X700.72
G1 Y277.0
G1 X630.52
G1 F300.0 Z-5.0
G1 F800.0 Y321.8
G1 X700.72
G1 Y277.0
G1 X630.52
G1 F300.0 Z-6.0
G1 F800.0 Y321.8
G1 X700.72
G1 Y277.0
G1 X630.52
G1 F300.0 Z-7.0
G1 F800.0 Y321.8
G1 X700.72
G1 Y277.0
G1 X630.52
G1 F300.0 Z-8.0
G1 F800.0 Y321.8
G1 X700.72
G1 Y277.0
G1 X630.52
G1 F300.0 Z-9.0
G1 F800.0 Y321.8
G1 X700.72
G1 Y277.0
G1 X630.52
G1 F300.0 Z-10.0
G1 F800.0 Y321.8
G1 X700.72
G1 Y277.0
G1 X630.52
G1 F300.0 Z-11.0
G1 F800.0 Y321.8
G1 X700.72
G1 Y277.0
G1 X630.52
G1 F300.0 Z-12.0
G1 F800.0 Y321.8
G1 X700.72
G1 Y277.0
G1 X630.52
G1 F300.0 Z-13.0
G1 F800.0 Y321.8
G1 X700.72
G1 Y277.0
G1 X630.52
G1 F300.0 Z-14.0
G1 F800.0 Y321.8
G1 X700.72
G1 Y277.0
G1 X630.52
G1 F300.0 Z-15.0
G1 F800.0 Y321.8
G1 X700.72
G1 Y277.0
G1 X630.52
G1 F300.0 Z-16.0
G1 F800.0 Y321.8
G1 X700.72
G1 Y277.0
G1 X630.52
G1 F300.0 Z-17.0
G1 F800.0 Y321.8
G1 X683.02
G0 Z-16.0
G1 X699.02
G1 F300.0 Z-17.0
G1 F800.0 X700.72
G1 Y277.0
G1 X648.22
G0 Z-16.0
G1 X632.22
G1 F300.0 Z-17.0
G1 F800.0 X630.52
G1 F300.0 Z-18.0
G1 F800.0 Y321.8
G1 X683.02
G0 Z-16.0
G1 X699.02
G1 F300.0 Z-18.0
G1 F800.0 X700.72
G1 Y277.0
G1 X648.22
G0 Z-16.0
G1 X632.22
G1 F300.0 Z-18.0
G1 F800.0 X630.52
G1 F300.0 Z-19.0
G1 F800.0 Y321.8
G1 X683.02
G0 Z-16.0
G1 X699.02
G0 Z-17.0
G1 F300.0 Z-19.0
G1 F800.0 X700.72
G1 Y277.0
G1 X648.22
G0 Z-16.0
G1 X632.22
G0 Z-17.0
G1 F300.0 Z-19.0
G1 F800.0 X630.52
G1 F300.0 Z-20.0
G1 F800.0 Y321.8
G1 X683.02
G0 Z-16.0
G1 X699.02
G0 Z-18.0
G1 F300.0 Z-20.0
G1 F800.0 X700.72
G1 Y277.0
G1 X648.22
G0 Z-16.0
G1 X632.22
G0 Z-18.0
G1 F300.0 Z-20.0
G1 F800.0 X630.52
G1 F300.0 Z-21.0
G1 F800.0 Y321.8
G1 X683.02
G0 Z-16.0
G1 X699.02
G0 Z-19.0
G1 F300.0 Z-21.0
G1 F800.0 X700.72
G1 Y277.0
G1 X648.22
G0 Z-16.0
G1 X632.22
G0 Z-19.0
G1 F300.0 Z-21.0
G1 F800.0 X630.52
G0 Z15.0
G0 Y378.6
G0 Z1.0
G1 F300.0 Z-1.0
G1 F800.0 Y423.4
G1 X700.72
G1 Y378.6
G1 X630.52
G1 F300.0 Z-2.0
G1 F800.0 Y423.4
G1 X700.72
G1 Y378.6
G1 X630.52
G1 F300.0 Z-3.0
G1 F800.0 Y423.4
G1 X700.72
G1 Y378.6
G1 X630.52
G1 F300.0 Z-4.0
G1 F800.0 Y423.4
G1 X700.72
G1 Y378.6
G1 X630.52
G1 F300.0 Z-5.0
G1 F800.0 Y423.4
G1 X700.72
G1 Y378.6
G1 X630.52
G1 F300.0 Z-6.0
G1 F800.0 Y423.4
G1 X700.72
G1 Y378.6
G1 X630.52
G1 F300.0 Z-7.0
G1 F800.0 Y423.4
G1 X700.72
G1 Y378.6
G1 X630.52
G1 F300.0 Z-8.0
G1 F800.0 Y423.4
G1 X700.72
G1 Y378.6
G1 X630.52
G1 F300.0 Z-9.0
G1 F800.0 Y423.4
G1 X700.72
G1 Y378.6
G1 X630.52
G1 F300.0 Z-10.0
G1 F800.0 Y423.4
G1 X700.72
G1 Y378.6
G1 X630.52
G1 F300.0 Z-11.0
G1 F800.0 Y423.4
G1 X700.72
G1 Y378.6
G1 X630.52
G1 F300.0 Z-12.0
G1 F800.0 Y423.4
G1 X700.72
G1 Y378.6
G1 X630.52
G1 F300.0 Z-13.0
G1 F800.0 Y423.4
G1 X700.72
G1 Y378.6
G1 X630.52
G1 F300.0 Z-14.0
G1 F800.0 Y423.4
G1 X700.72
G1 Y378.6
G1 X630.52
G1 F300.0 Z-15.0
G1 F800.0 Y423.4
G1 X700.72
G1 Y378.6
G1 X630.52
G1 F300.0 Z-16.0
G1 F800.0 Y423.4
G1 X700.72
G1 Y378.6
G1 X630.52
G1 F300.0 Z-17.0
G1 F800.0 Y423.4
G1 X683.02
G0 Z-16.0
G1 X699.02
G1 F300.0 Z-17.0
G1 F800.0 X700.72
G1 Y378.6
G1 X648.22
G0 Z-16.0
G1 X632.22
G1 F300.0 Z-17.0
G1 F800.0 X630.52
G1 F300.0 Z-18.0
G1 F800.0 Y423.4
G1 X683.02
G0 Z-16.0
G1 X699.02
G1 F300.0 Z-18.0
G1 F800.0 X700.72
G1 Y378.6
G1 X648.22
G0 Z-16.0
G1 X632.22
G1 F300.0 Z-18.0
G1 F800.0 X630.52
G1 F300.0 Z-19.0
G1 F800.0 Y423.4
G1 X683.02
G0 Z-16.0
G1 X699.02
G0 Z-17.0
G1 F300.0 Z-19.0
G1 F800.0 X700.72
G1 Y378.6
G1 X648.22
G0 Z-16.0
G1 X632.22
G0 Z-17.0
G1 F300.0 Z-19.0
G1 F800.0 X630.52
G1 F300.0 Z-20.0
G1 F800.0 Y423.4
G1 X683.02
G0 Z-16.0
G1 X699.02
G0 Z-18.0
G1 F300.0 Z-20.0
G1 F800.0 X700.72
G1 Y378.6
G1 X648.22
G0 Z-16.0
G1 X632.22
G0 Z-18.0
G1 F300.0 Z-20.0
G1 F800.0 X630.52
G1 F300.0 Z-21.0
G1 F800.0 Y423.4
G1 X683.02
G0 Z-16.0
G1 X699.02
G0 Z-19.0
G1 F300.0 Z-21.0
G1 F800.0 X700.72
G1 Y378.6
G1 X648.22
G0 Z-16.0
G1 X632.22
G0 Z-19.0
G1 F300.0 Z-21.0
G1 F800.0 X630.52
G0 Z15.0
G0 Y480.2
G0 Z1.0
G1 F300.0 Z-1.0
G1 F800.0 Y525.0
G1 X700.72
G1 Y480.2
G1 X630.52
G1 F300.0 Z-2.0
G1 F800.0 Y525.0
G1 X700.72
G1 Y480.2
G1 X630.52
G1 F300.0 Z-3.0
G1 F800.0 Y525.0
G1 X700.72
G1 Y480.2
G1 X630.52
G1 F300.0 Z-4.0
G1 F800.0 Y525.0
G1 X700.72
G1 Y480.2
G1 X630.52
G1 F300.0 Z-5.0
G1 F800.0 Y525.0
G1 X700.72
G1 Y480.2
G1 X630.52
G1 F300.0 Z-6.0
G1 F800.0 Y525.0
G1 X700.72
G1 Y480.2
G1 X630.52
G1 F300.0 Z-7.0
G1 F800.0 Y525.0
G1 X700.72
G1 Y480.2
G1 X630.52
G1 F300.0 Z-8.0
G1 F800.0 Y525.0
G1 X700.72
G1 Y480.2
G1 X630.52
G1 F300.0 Z-9.0
G1 F800.0 Y525.0
G1 X700.72
G1 Y480.2
G1 X630.52
G1 F300.0 Z-10.0
G1 F800.0 Y525.0
G1 X700.72
G1 Y480.2
G1 X630.52
G1 F300.0 Z-11.0
G1 F800.0 Y525.0
G1 X700.72
G1 Y480.2
G1 X630.52
G1 F300.0 Z-12.0
G1 F800.0 Y525.0
G1 X700.72
G1 Y480.2
G1 X630.52
G1 F300.0 Z-13.0
G1 F800.0 Y525.0
G1 X700.72
G1 Y480.2
G1 X630.52
G1 F300.0 Z-14.0
G1 F800.0 Y525.0
G1 X700.72
G1 Y480.2
G1 X630.52
G1 F300.0 Z-15.0
G1 F800.0 Y525.0
G1 X700.72
G1 Y480.2
G1 X630.52
G1 F300.0 Z-16.0
G1 F800.0 Y525.0
G1 X700.72
G1 Y480.2
G1 X630.52
G1 F300.0 Z-17.0
G1 F800.0 Y525.0
G1 X683.02
G0 Z-16.0
G1 X699.02
G1 F300.0 Z-17.0
G1 F800.0 X700.72
G1 Y480.2
G1 X648.22
G0 Z-16.0
G1 X632.22
G1 F300.0 Z-17.0
G1 F800.0 X630.52
G1 F300.0 Z-18.0
G1 F800.0 Y525.0
G1 X683.02
G0 Z-16.0
G1 X699.02
G1 F300.0 Z-18.0
G1 F800.0 X700.72
G1 Y480.2
G1 X648.22
G0 Z-16.0
G1 X632.22
G1 F300.0 Z-18.0
G1 F800.0 X630.52
G1 F300.0 Z-19.0
G1 F800.0 Y525.0
G1 X683.02
G0 Z-16.0
G1 X699.02
G0 Z-17.0
G1 F300.0 Z-19.0
G1 F800.0 X700.72
G1 Y480.2
G1 X648.22
G0 Z-16.0
G1 X632.22
G0 Z-17.0
G1 F300.0 Z-19.0
G1 F800.0 X630.52
G1 F300.0 Z-20.0
G1 F800.0 Y525.0
G1 X683.02
G0 Z-16.0
G1 X699.02
G0 Z-18.0
G1 F300.0 Z-20.0
G1 F800.0 X700.72
G1 Y480.2
G1 X648.22
G0 Z-16.0
G1 X632.22
G0 Z-18.0
G1 F300.0 Z-20.0
G1 F800.0 X630.52
G1 F300.0 Z-21.0
G1 F800.0 Y525.0
G1 X683.02
G0 Z-16.0
G1 X699.02
G0 Z-19.0
G1 F300.0 Z-21.0
G1 F800.0 X700.72
G1 Y480.2
G1 X648.22
G0 Z-16.0
G1 X632.22
G0 Z-19.0
G1 F300.0 Z-21.0
G1 F800.0 X630.52
G0 Z15.0
G0 Y581.8
G0 Z1.0
G1 F300.0 Z-1.0
G1 F800.0 Y626.6
G1 X700.72
G1 Y581.8
G1 X630.52
G1 F300.0 Z-2.0
G1 F800.0 Y626.6
G1 X700.72
G1 Y581.8
G1 X630.52
G1 F300.0 Z-3.0
G1 F800.0 Y626.6
G1 X700.72
G1 Y581.8
G1 X630.52
G1 F300.0 Z-4.0
G1 F800.0 Y626.6
G1 X700.72
G1 Y581.8
G1 X630.52
G1 F300.0 Z-5.0
G1 F800.0 Y626.6
G1 X700.72
G1 Y581.8
G1 X630.52
G1 F300.0 Z-6.0
G1 F800.0 Y626.6
G1 X700.72
G1 Y581.8
G1 X630.52
G1 F300.0 Z-7.0
G1 F800.0 Y626.6
G1 X700.72
G1 Y581.8
G1 X630.52
G1 F300.0 Z-8.0
G1 F800.0 Y626.6
G1 X700.72
G1 Y581.8
G1 X630.52
G1 F300.0 Z-9.0
G1 F800.0 Y626.6
G1 X700.72
G1 Y581.8
G1 X630.52
G1 F300.0 Z-10.0
G1 F800.0 Y626.6
G1 X700.72
G1 Y581.8
G1 X630.52
G1 F300.0 Z-11.0
G1 F800.0 Y626.6
G1 X700.72
G1 Y581.8
G1 X630.52
G1 F300.0 Z-12.0
G1 F800.0 Y626.6
G1 X700.72
G1 Y581.8
G1 X630.52
G1 F300.0 Z-13.0
G1 F800.0 Y626.6
G1 X700.72
G1 Y581.8
G1 X630.52
G1 F300.0 Z-14.0
G1 F800.0 Y626.6
G1 X700.72
G1 Y581.8
G1 X630.52
G1 F300.0 Z-15.0
G1 F800.0 Y626.6
G1 X700.72
G1 Y581.8
G1 X630.52
G1 F300.0 Z-16.0
G1 F800.0 Y626.6
G1 X700.72
G1 Y581.8
G1 X630.52
G1 F300.0 Z-17.0
G1 F800.0 Y626.6
G1 X683.02
G0 Z-16.0
G1 X699.02
G1 F300.0 Z-17.0
G1 F800.0 X700.72
G1 Y581.8
G1 X648.22
G0 Z-16.0
G1 X632.22
G1 F300.0 Z-17.0
G1 F800.0 X630.52
G1 F300.0 Z-18.0
G1 F800.0 Y626.6
G1 X683.02
G0 Z-16.0
G1 X699.02
G1 F300.0 Z-18.0
G1 F800.0 X700.72
G1 Y581.8
G1 X648.22
G0 Z-16.0
G1 X632.22
G1 F300.0 Z-18.0
G1 F800.0 X630.52
G1 F300.0 Z-19.0
G1 F800.0 Y626.6
G1 X683.02
G0 Z-16.0
G1 X699.02
G0 Z-17.0
G1 F300.0 Z-19.0
G1 F800.0 X700.72
G1 Y581.8
G1 X648.22
G0 Z-16.0
G1 X632.22
G0 Z-17.0
G1 F300.0 Z-19.0
G1 F800.0 X630.52
G1 F300.0 Z-20.0
G1 F800.0 Y626.6
G1 X683.02
G0 Z-16.0
G1 X699.02
G0 Z-18.0
G1 F300.0 Z-20.0
G1 F800.0 X700.72
G1 Y581.8
G1 X648.22
G0 Z-16.0
G1 X632.22
G0 Z-18.0
G1 F300.0 Z-20.0
G1 F800.0 X630.52
G1 F300.0 Z-21.0
G1 F800.0 Y626.6
G1 X683.02
G0 Z-16.0
G1 X699.02
G0 Z-19.0
G1 F300.0 Z-21.0
G1 F800.0 X700.72
G1 Y581.8
G1 X648.22
G0 Z-16.0
G1 X632.22
G0 Z-19.0
G1 F300.0 Z-21.0
G1 F800.0 X630.52
G0 Z15.0
G0 Y683.4
G0 Z1.0
G1 F300.0 Z-1.0
G1 F800.0 Y728.2
G1 X700.72
G1 Y683.4
G1 X630.52
G1 F300.0 Z-2.0
G1 F800.0 Y728.2
G1 X700.72
G1 Y683.4
G1 X630.52
G1 F300.0 Z-3.0
G1 F800.0 Y728.2
G1 X700.72
G1 Y683.4
G1 X630.52
G1 F300.0 Z-4.0
G1 F800.0 Y728.2
G1 X700.72
G1 Y683.4
G1 X630.52
G1 F300.0 Z-5.0
G1 F800.0 Y728.2
G1 X700.72
G1 Y683.4
G1 X630.52
G1 F300.0 Z-6.0
G1 F800.0 Y728.2
G1 X700.72
G1 Y683.4
G1 X630.52
G1 F300.0 Z-7.0
G1 F800.0 Y728.2
G1 X700.72
G1 Y683.4
G1 X630.52
G1 F300.0 Z-8.0
G1 F800.0 Y728.2
G1 X700.72
G1 Y683.4
G1 X630.52
G1 F300.0 Z-9.0
G1 F800.0 Y728.2
G1 X700.72
G1 Y683.4
G1 X630.52
G1 F300.0 Z-10.0
G1 F800.0 Y728.2
G1 X700.72
G1 Y683.4
G1 X630.52
G1 F300.0 Z-11.0
G1 F800.0 Y728.2
G1 X700.72
G1 Y683.4
G1 X630.52
G1 F300.0 Z-12.0
G1 F800.0 Y728.2
G1 X700.72
G1 Y683.4
G1 X630.52
G1 F300.0 Z-13.0
G1 F800.0 Y728.2
G1 X700.72
G1 Y683.4
G1 X630.52
G1 F300.0 Z-14.0
G1 F800.0 Y728.2
G1 X700.72
G1 Y683.4
G1 X630.52
G1 F300.0 Z-15.0
G1 F800.0 Y728.2
G1 X700.72
G1 Y683.4
G1 X630.52
G1 F300.0 Z-16.0
G1 F800.0 Y728.2
G1 X700.72
G1 Y683.4
G1 X630.52
G1 F300.0 Z-17.0
G1 F800.0 Y728.2
G1 X683.02
G0 Z-16.0
G1 X699.02
G1 F300.0 Z-17.0
G1 F800.0 X700.72
G1 Y683.4
G1 X648.22
G0 Z-16.0
G1 X632.22
G1 F300.0 Z-17.0
G1 F800.0 X630.52
G1 F300.0 Z-18.0
G1 F800.0 Y728.2
G1 X683.02
G0 Z-16.0
G1 X699.02
G1 F300.0 Z-18.0
G1 F800.0 X700.72
G1 Y683.4
G1 X648.22
G0 Z-16.0
G1 X632.22
G1 F300.0 Z-18.0
G1 F800.0 X630.52
G1 F300.0 Z-19.0
G1 F800.0 Y728.2
G1 X683.02
G0 Z-16.0
G1 X699.02
G0 Z-17.0
G1 F300.0 Z-19.0
G1 F800.0 X700.72
G1 Y683.4
G1 X648.22
G0 Z-16.0
G1 X632.22
G0 Z-17.0
G1 F300.0 Z-19.0
G1 F800.0 X630.52
G1 F300.0 Z-20.0
G1 F800.0 Y728.2
G1 X683.02
G0 Z-16.0
G1 X699.02
G0 Z-18.0
G1 F300.0 Z-20.0
G1 F800.0 X700.72
G1 Y683.4
G1 X648.22
G0 Z-16.0
G1 X632.22
G0 Z-18.0
G1 F300.0 Z-20.0
G1 F800.0 X630.52
G1 F300.0 Z-21.0
G1 F800.0 Y728.2
G1 X683.02
G0 Z-16.0
G1 X699.02
G0 Z-19.0
G1 F300.0 Z-21.0
G1 F800.0 X700.72
G1 Y683.4
G1 X648.22
G0 Z-16.0
G1 X632.22
G0 Z-19.0
G1 F300.0 Z-21.0
G1 F800.0 X630.52
( Profile2 )
S1000
G0 Z15.0
G0 X51.4 Y55.1
G0 Z1.0
G1 F300.0 Z-1.0
G1 F800.0 X64.45
G1 X65.3287 Y55.9787
G1 X64.45 Y55.1
G1 Y20.0
G3 X67.45 Y17.0 I3.0 J0.0
G1 X480.2
G3 X483.2 Y20.0 I0.0 J3.0
G1 Y20.8514
G1 X496.0922 Y150.6654
G1 X496.1617 Y151.2773
G1 X496.2419 Y151.8847
G1 X496.3322 Y152.4909
G1 X496.4335 Y153.095
G1 X496.5449 Y153.6968
G1 X496.6678 Y154.2984
G1 X496.7994 Y154.8965
G1 X496.9428 Y155.4904
G1 X497.0961 Y156.0852
G1 X497.2596 Y156.6739
G1 X497.434 Y157.2616
G1 X497.6183 Y157.8469
G1 X497.8125 Y158.4269
G1 X498.0172 Y159.0048
G1 X498.2324 Y159.5804
G1 X498.4558 Y160.1494
G1 X498.6902 Y160.7139
G1 X498.9347 Y161.2766
G1 X499.1889 Y161.8339
G1 X499.4524 Y162.3865
G1 X499.7259 Y162.9346
G1 X500.0092 Y163.4789
G1 X500.3016 Y164.0177
G1 X500.6023 Y164.5501
G1 X500.9136 Y165.0778
G1 X501.2331 Y165.5999
G1 X501.5622 Y166.1156
G1 X501.9015 Y166.6278
G1 X502.2489 Y167.1341
G1 X502.6029 Y167.6312
G1 X502.9672 Y168.1225
G1 X503.3409 Y168.6096
G1 X503.722 Y169.0883
G1 X504.1123 Y169.5616
G1 X504.5111 Y170.0287
G1 X504.9162 Y170.4873
G1 X505.3285 Y170.9372
G1 X505.7513 Y171.3822
G1 X506.1804 Y171.8196
G1 X506.6178 Y172.2487
G1 X507.0628 Y172.6715
G1 X507.5127 Y173.0838
G1 X507.9713 Y173.4889
G1 X508.4384 Y173.8877
G1 X508.9117 Y174.278
G1 X509.3904 Y174.6591
G1 X509.8775 Y175.0328
G1 X510.3688 Y175.3971
G1 X510.8659 Y175.7511
G1 X511.3722 Y176.0985
G1 X511.8844 Y176.4378
G1 X512.4001 Y176.7669
G1 X512.9222 Y177.0864
G1 X513.4499 Y177.3977
G1 X513.9823 Y177.6984
G1 X514.5211 Y177.9908
G1 X515.0654 Y178.2741
G1 X515.6135 Y178.5476
G1 X516.1661 Y178.8111
G1 X516.7234 Y179.0653
G1 X517.2861 Y179.3098
G1 X517.8506 Y179.5442
G1 X518.4196 Y179.7676
G1 X518.9952 Y179.9828
G1 X519.5731 Y180.1875
G1 X520.1531 Y180.3817
G1 X520.7384 Y180.566
G1 X521.3261 Y180.7404
G1 X521.9148 Y180.9039
G1 X522.5096 Y181.0572
G1 X523.1035 Y181.2006
G1 X523.7016 Y181.3322
G1 X524.3032 Y181.4551
G1 X524.905 Y181.5665
G1 X525.5091 Y181.6678
G1 X526.1153 Y181.7581
G1 X526.7227 Y181.8383
G1 X527.3307 Y181.9073
G1 X527.9407 Y181.9663
G1 X528.5517 Y182.0142
G1 X529.1639 Y182.052
G1 X529.7738 Y182.0787
G1 X530.3869 Y182.0943
G1 X531.0 Y182.0999
G1 X531.6131 Y182.0943
G1 X532.2262 Y182.0787
G1 X532.8361 Y182.052
G1 X533.4483 Y182.0142
G1 X534.0593 Y181.9663
G1 X534.6693 Y181.9073
G1 X535.2773 Y181.8383
G1 X535.8847 Y181.7581
G1 X536.4909 Y181.6678
G1 X537.095 Y181.5665
G1 X537.6968 Y181.4551
G1 X538.2984 Y181.3322
G1 X538.8965 Y181.2006
G1 X539.4904 Y181.0572
G1 X540.0852 Y180.9039
G1 X540.6739 Y180.7404
G1 X541.2616 Y180.566
G1 X541.8469 Y180.3817
G1 X542.4269 Y180.1875
G1 X543.0048 Y179.9828
G1 X543.5804 Y179.7676
G1 X544.1494 Y179.5442
G1 X544.7139 Y179.3098
G1 X545.2766 Y179.0653
G1 X545.8339 Y178.8111
G1 X546.3865 Y178.5476
G1 X546.9346 Y178.2741
G1 X547.4789 Y177.9908
G1 X548.0177 Y177.6984
G1 X548.5501 Y177.3977
G1 X549.0778 Y177.0864
G1 X549.5999 Y176.7669
G1 X550.1156 Y176.4378
G1 X550.6278 Y176.0985
G1 X551.1341 Y175.7511
G1 X551.6312 Y175.3971
G1 X552.1225 Y175.0328
G1 X552.6096 Y174.6591
G1 X553.0883 Y174.278
G1 X553.5616 Y173.8877
G1 X554.0287 Y173.4889
G1 X554.4873 Y173.0838
G1 X554.9372 Y172.6715
G1 X555.3822 Y172.2487
G1 X555.8196 Y171.8196
G1 X556.2487 Y171.3822
G1 X556.6715 Y170.9372
G1 X557.0838 Y170.4873
G1 X557.4889 Y170.0287
G1 X557.8877 Y169.5616
G1 X558.278 Y169.0883
G1 X558.6591 Y168.6096
G1 X559.0328 Y168.1225
G1 X559.3971 Y167.6312
G1 X559.7511 Y167.1341
G1 X560.0985 Y166.6278
G1 X560.4378 Y166.1156
G1 X560.7669 Y165.5999
G1 X561.0864 Y165.0778
G1 X561.3977 Y164.5501
G1 X561.6984 Y164.0177
G1 X561.9908 Y163.4789
G1 X562.2741 Y162.9346
G1 X562.5476 Y162.3865
G1 X562.8111 Y161.8339
G1 X563.0653 Y161.2766
G1 X563.3098 Y160.7139
G1 X563.5442 Y160.1494
G1 X563.7676 Y159.5804
G1 X563.9828 Y159.0048
G1 X564.1875 Y158.4269
G1 X564.3817 Y157.8469
G1 X564.566 Y157.2616
G1 X564.7404 Y156.6739
G1 X564.9039 Y156.0852
G1 X565.0567 Y155.4926
G1 X565.1997 Y154.8965
G1 X565.3327 Y154.2963
G1 X565.4551 Y153.6968
G1 X565.5665 Y153.095
G1 X565.6678 Y152.4909
G1 X565.7581 Y151.8847
G1 X565.8383 Y151.2773
G1 X565.9078 Y150.6654
G1 X578.8 Y20.8514
G1 Y20.0
G3 X581.8 Y17.0 I3.0 J0.0
G1 X994.55
G3 X997.55 Y20.0 I0.0 J3.0
G1 Y55.1
G1 X996.6713 Y55.9787
G1 X997.55 Y55.1
G1 X1010.6
G1 X1011.4787 Y55.9787
G1 X1010.6 Y55.1
G1 Y20.0
G3 X1013.6 Y17.0 I3.0 J0.0
G1 X1039.0
G3 X1042.0 Y20.0 I0.0 J3.0
G1 Y83.5
G3 X1039.0 Y86.5 I-3.0 J0.0
G1 X997.55
G1 X996.6713 Y85.6213
G1 X997.55 Y86.5
G1 Y108.9
G3 X994.55 Y111.9 I-3.0 J0.0
G1 X757.52
G1 X756.6413 Y111.0213
G1 X757.52 Y111.9
G1 Y657.08
G1 X756.6413 Y657.9587
G1 X757.52 Y657.08
G1 X994.55
G3 X997.55 Y660.08 I0.0 J3.0
G1 Y695.18
G1 X996.6713 Y696.0587
G1 X997.55 Y695.18
G1 X1010.6
G1 X1011.4787 Y696.0587
G1 X1010.6 Y695.18
G1 Y660.08
G3 X1013.6 Y657.08 I3.0 J0.0
G1 X1039.0
G3 X1042.0 Y660.08 I0.0 J3.0
G1 Y723.58
G3 X1039.0 Y726.58 I-3.0 J0.0
G1 X997.55
G1 X996.6713 Y725.7013
G1 X997.55 Y726.58
G1 Y807.4
G3 X994.55 Y810.4 I-3.0 J0.0
G1 X67.45
G3 X64.45 Y807.4 I0.0 J-3.0
G1 Y726.58
G1 X65.3287 Y725.7013
G1 X64.45 Y726.58
G1 X23.0
G3 X20.0 Y723.58 I0.0 J-3.0
G1 Y660.08
G3 X23.0 Y657.08 I3.0 J0.0
G1 X48.4
G3 X51.4 Y660.08 I0.0 J3.0
G1 Y695.18
G1 X50.5213 Y696.0587
G1 X51.4 Y695.18
G1 X64.45
G1 X65.3287 Y696.0587
G1 X64.45 Y695.18
G1 Y660.08
G3 X67.45 Y657.08 I3.0 J0.0
G1 X304.48
G1 X305.3587 Y657.9587
G1 X304.48 Y657.08
G1 Y111.9
G1 X305.3587 Y111.0213
G1 X304.48 Y111.9
G1 X67.45
G3 X64.45 Y108.9 I0.0 J-3.0
G1 Y86.5
G1 X65.3287 Y85.6213
G1 X64.45 Y86.5
G1 X23.0
G3 X20.0 Y83.5 I0.0 J-3.0
G1 Y20.0
G3 X23.0 Y17.0 I3.0 J0.0
G1 X48.4
G3 X51.4 Y20.0 I0.0 J3.0
G1 Y55.1
G1 X50.5213 Y55.9787
G1 X51.4 Y55.1
G1 F300.0 Z-2.0
G1 F800.0 X64.45
G1 X65.3287 Y55.9787
G1 X64.45 Y55.1
G1 Y20.0
G3 X67.45 Y17.0 I3.0 J0.0
G1 X480.2
G3 X483.2 Y20.0 I0.0 J3.0
G1 Y20.8514
G1 X496.0922 Y150.6654
G1 X496.1617 Y151.2773
G1 X496.2419 Y151.8847
G1 X496.3322 Y152.4909
G1 X496.4335 Y153.095
G1 X496.5449 Y153.6968
G1 X496.6678 Y154.2984
G1 X496.7994 Y154.8965
G1 X496.9428 Y155.4904
G1 X497.0961 Y156.0852
G1 X497.2596 Y156.6739
G1 X497.434 Y157.2616
G1 X497.6183 Y157.8469
G1 X497.8125 Y158.4269
G1 X498.0172 Y159.0048
G1 X498.2324 Y159.5804
G1 X498.4558 Y160.1494
G1 X498.6902 Y160.7139
G1 X498.9347 Y161.2766
G1 X499.1889 Y161.8339
G1 X499.4524 Y162.3865
G1 X499.7259 Y162.9346
G1 X500.0092 Y163.4789
G1 X500.3016 Y164.0177
G1 X500.6023 Y164.5501
G1 X500.9136 Y165.0778
G1 X501.2331 Y165.5999
G1 X501.5622 Y166.1156
G1 X501.9015 Y166.6278
G1 X502.2489 Y167.1341
G1 X502.6029 Y167.6312
G1 X502.9672 Y168.1225
G1 X503.3409 Y168.6096
G1 X503.722 Y169.0883
G1 X504.1123 Y169.5616
G1 X504.5111 Y170.0287
G1 X504.9162 Y170.4873
G1 X505.3285 Y170.9372
G1 X505.7513 Y171.3822
G1 X506.1804 Y171.8196
G1 X506.6178 Y172.2487
G1 X507.0628 Y172.6715
G1 X507.5127 Y173.0838
G1 X507.9713 Y173.4889
G1 X508.4384 Y173.8877
G1 X508.9117 Y174.278
G1 X509.3904 Y174.6591
G1 X509.8775 Y175.0328
G1 X510.3688 Y175.3971
G1 X510.8659 Y175.7511
G1 X511.3722 Y176.0985
G1 X511.8844 Y176.4378
G1 X512.4001 Y176.7669
G1 X512.9222 Y177.0864
G1 X513.4499 Y177.3977
G1 X513.9823 Y177.6984
G1 X514.5211 Y177.9908
G1 X515.0654 Y178.2741
G1 X515.6135 Y178.5476
G1 X516.1661 Y178.8111
G1 X516.7234 Y179.0653
G1 X517.2861 Y179.3098
G1 X517.8506 Y179.5442
G1 X518.4196 Y179.7676
G1 X518.9952 Y179.9828
G1 X519.5731 Y180.1875
G1 X520.1531 Y180.3817
G1 X520.7384 Y180.566
G1 X521.3261 Y180.7404
G1 X521.9148 Y180.9039
G1 X522.5096 Y181.0572
G1 X523.1035 Y181.2006
G1 X523.7016 Y181.3322
G1 X524.3032 Y181.4551
G1 X524.905 Y181.5665
G1 X525.5091 Y181.6678
G1 X526.1153 Y181.7581
G1 X526.7227 Y181.8383
G1 X527.3307 Y181.9073
G1 X527.9407 Y181.9663
G1 X528.5517 Y182.0142
G1 X529.1639 Y182.052
G1 X529.7738 Y182.0787
G1 X530.3869 Y182.0943
G1 X531.0 Y182.0999
G1 X531.6131 Y182.0943
G1 X532.2262 Y182.0787
G1 X532.8361 Y182.052
G1 X533.4483 Y182.0142
G1 X534.0593 Y181.9663
G1 X534.6693 Y181.9073
G1 X535.2773 Y181.8383
G1 X535.8847 Y181.7581
G1 X536.4909 Y181.6678
G1 X537.095 Y181.5665
G1 X537.6968 Y181.4551
G1 X538.2984 Y181.3322
G1 X538.8965 Y181.2006
G1 X539.4904 Y181.0572
G1 X540.0852 Y180.9039
G1 X540.6739 Y180.7404
G1 X541.2616 Y180.566
G1 X541.8469 Y180.3817
G1 X542.4269 Y180.1875
G1 X543.0048 Y179.9828
G1 X543.5804 Y179.7676
G1 X544.1494 Y179.5442
G1 X544.7139 Y179.3098
G1 X545.2766 Y179.0653
G1 X545.8339 Y178.8111
G1 X546.3865 Y178.5476
G1 X546.9346 Y178.2741
G1 X547.4789 Y177.9908
G1 X548.0177 Y177.6984
G1 X548.5501 Y177.3977
G1 X549.0778 Y177.0864
G1 X549.5999 Y176.7669
G1 X550.1156 Y176.4378
G1 X550.6278 Y176.0985
G1 X551.1341 Y175.7511
G1 X551.6312 Y175.3971
G1 X552.1225 Y175.0328
G1 X552.6096 Y174.6591
G1 X553.0883 Y174.278
G1 X553.5616 Y173.8877
G1 X554.0287 Y173.4889
G1 X554.4873 Y173.0838
G1 X554.9372 Y172.6715
G1 X555.3822 Y172.2487
G1 X555.8196 Y171.8196
G1 X556.2487 Y171.3822
G1 X556.6715 Y170.9372
G1 X557.0838 Y170.4873
G1 X557.4889 Y170.0287
G1 X557.8877 Y169.5616
G1 X558.278 Y169.0883
G1 X558.6591 Y168.6096
G1 X559.0328 Y168.1225
G1 X559.3971 Y167.6312
G1 X559.7511 Y167.1341
G1 X560.0985 Y166.6278
G1 X560.4378 Y166.1156
G1 X560.7669 Y165.5999
G1 X561.0864 Y165.0778
G1 X561.3977 Y164.5501
G1 X561.6984 Y164.0177
G1 X561.9908 Y163.4789
G1 X562.2741 Y162.9346
G1 X562.5476 Y162.3865
G1 X562.8111 Y161.8339
G1 X563.0653 Y161.2766
G1 X563.3098 Y160.7139
G1 X563.5442 Y160.1494
G1 X563.7676 Y159.5804
G1 X563.9828 Y159.0048
G1 X564.1875 Y158.4269
G1 X564.3817 Y157.8469
G1 X564.566 Y157.2616
G1 X564.7404 Y156.6739
G1 X564.9039 Y156.0852
G1 X565.0567 Y155.4926
G1 X565.1997 Y154.8965
G1 X565.3327 Y154.2963
G1 X565.4551 Y153.6968
G1 X565.5665 Y153.095
G1 X565.6678 Y152.4909
G1 X565.7581 Y151.8847
G1 X565.8383 Y151.2773
G1 X565.9078 Y150.6654
G1 X578.8 Y20.8514
G1 Y20.0
G3 X581.8 Y17.0 I3.0 J0.0
G1 X994.55
G3 X997.55 Y20.0 I0.0 J3.0
G1 Y55.1
G1 X996.6713 Y55.9787
G1 X997.55 Y55.1
G1 X1010.6
G1 X1011.4787 Y55.9787
G1 X1010.6 Y55.1
G1 Y20.0
G3 X1013.6 Y17.0 I3.0 J0.0
G1 X1039.0
G3 X1042.0 Y20.0 I0.0 J3.0
G1 Y83.5
G3 X1039.0 Y86.5 I-3.0 J0.0
G1 X997.55
G1 X996.6713 Y85.6213
G1 X997.55 Y86.5
G1 Y108.9
G3 X994.55 Y111.9 I-3.0 J0.0
G1 X757.52
G1 X756.6413 Y111.0213
G1 X757.52 Y111.9
G1 Y657.08
G1 X756.6413 Y657.9587
G1 X757.52 Y657.08
G1 X994.55
G3 X997.55 Y660.08 I0.0 J3.0
G1 Y695.18
G1 X996.6713 Y696.0587
G1 X997.55 Y695.18
G1 X1010.6
G1 X1011.4787 Y696.0587
G1 X1010.6 Y695.18
G1 Y660.08
G3 X1013.6 Y657.08 I3.0 J0.0
G1 X1039.0
G3 X1042.0 Y660.08 I0.0 J3.0
G1 Y723.58
G3 X1039.0 Y726.58 I-3.0 J0.0
G1 X997.55
G1 X996.6713 Y725.7013
G1 X997.55 Y726.58
G1 Y807.4
G3 X994.55 Y810.4 I-3.0 J0.0
G1 X67.45
G3 X64.45 Y807.4 I0.0 J-3.0
G1 Y726.58
G1 X65.3287 Y725.7013
G1 X64.45 Y726.58
G1 X23.0
G3 X20.0 Y723.58 I0.0 J-3.0
G1 Y660.08
G3 X23.0 Y657.08 I3.0 J0.0
G1 X48.4
G3 X51.4 Y660.08 I0.0 J3.0
G1 Y695.18
G1 X50.5213 Y696.0587
G1 X51.4 Y695.18
G1 X64.45
G1 X65.3287 Y696.0587
G1 X64.45 Y695.18
G1 Y660.08
G3 X67.45 Y657.08 I3.0 J0.0
G1 X304.48
G1 X305.3587 Y657.9587
G1 X304.48 Y657.08
G1 Y111.9
G1 X305.3587 Y111.0213
G1 X304.48 Y111.9
G1 X67.45
G3 X64.45 Y108.9 I0.0 J-3.0
G1 Y86.5
G1 X65.3287 Y85.6213
G1 X64.45 Y86.5
G1 X23.0
G3 X20.0 Y83.5 I0.0 J-3.0
G1 Y20.0
G3 X23.0 Y17.0 I3.0 J0.0
G1 X48.4
G3 X51.4 Y20.0 I0.0 J3.0
G1 Y55.1
G1 X50.5213 Y55.9787
G1 X51.4 Y55.1
G1 F300.0 Z-3.0
G1 F800.0 X64.45
G1 X65.3287 Y55.9787
G1 X64.45 Y55.1
G1 Y20.0
G3 X67.45 Y17.0 I3.0 J0.0
G1 X480.2
G3 X483.2 Y20.0 I0.0 J3.0
G1 Y20.8514
G1 X496.0922 Y150.6654
G1 X496.1617 Y151.2773
G1 X496.2419 Y151.8847
G1 X496.3322 Y152.4909
G1 X496.4335 Y153.095
G1 X496.5449 Y153.6968
G1 X496.6678 Y154.2984
G1 X496.7994 Y154.8965
G1 X496.9428 Y155.4904
G1 X497.0961 Y156.0852
G1 X497.2596 Y156.6739
G1 X497.434 Y157.2616
G1 X497.6183 Y157.8469
G1 X497.8125 Y158.4269
G1 X498.0172 Y159.0048
G1 X498.2324 Y159.5804
G1 X498.4558 Y160.1494
G1 X498.6902 Y160.7139
G1 X498.9347 Y161.2766
G1 X499.1889 Y161.8339
G1 X499.4524 Y162.3865
G1 X499.7259 Y162.9346
G1 X500.0092 Y163.4789
G1 X500.3016 Y164.0177
G1 X500.6023 Y164.5501
G1 X500.9136 Y165.0778
G1 X501.2331 Y165.5999
G1 X501.5622 Y166.1156
G1 X501.9015 Y166.6278
G1 X502.2489 Y167.1341
G1 X502.6029 Y167.6312
G1 X502.9672 Y168.1225
G1 X503.3409 Y168.6096
G1 X503.722 Y169.0883
G1 X504.1123 Y169.5616
G1 X504.5111 Y170.0287
G1 X504.9162 Y170.4873
G1 X505.3285 Y170.9372
G1 X505.7513 Y171.3822
G1 X506.1804 Y171.8196
G1 X506.6178 Y172.2487
G1 X507.0628 Y172.6715
G1 X507.5127 Y173.0838
G1 X507.9713 Y173.4889
G1 X508.4384 Y173.8877
G1 X508.9117 Y174.278
G1 X509.3904 Y174.6591
G1 X509.8775 Y175.0328
G1 X510.3688 Y175.3971
G1 X510.8659 Y175.7511
G1 X511.3722 Y176.0985
G1 X511.8844 Y176.4378
G1 X512.4001 Y176.7669
G1 X512.9222 Y177.0864
G1 X513.4499 Y177.3977
G1 X513.9823 Y177.6984
G1 X514.5211 Y177.9908
G1 X515.0654 Y178.2741
G1 X515.6135 Y178.5476
G1 X516.1661 Y178.8111
G1 X516.7234 Y179.0653
G1 X517.2861 Y179.3098
G1 X517.8506 Y179.5442
G1 X518.4196 Y179.7676
G1 X518.9952 Y179.9828
G1 X519.5731 Y180.1875
G1 X520.1531 Y180.3817
G1 X520.7384 Y180.566
G1 X521.3261 Y180.7404
G1 X521.9148 Y180.9039
G1 X522.5096 Y181.0572
G1 X523.1035 Y181.2006
G1 X523.7016 Y181.3322
G1 X524.3032 Y181.4551
G1 X524.905 Y181.5665
G1 X525.5091 Y181.6678
G1 X526.1153 Y181.7581
G1 X526.7227 Y181.8383
G1 X527.3307 Y181.9073
G1 X527.9407 Y181.9663
G1 X528.5517 Y182.0142
G1 X529.1639 Y182.052
G1 X529.7738 Y182.0787
G1 X530.3869 Y182.0943
G1 X531.0 Y182.0999
G1 X531.6131 Y182.0943
G1 X532.2262 Y182.0787
G1 X532.8361 Y182.052
G1 X533.4483 Y182.0142
G1 X534.0593 Y181.9663
G1 X534.6693 Y181.9073
G1 X535.2773 Y181.8383
G1 X535.8847 Y181.7581
G1 X536.4909 Y181.6678
G1 X537.095 Y181.5665
G1 X537.6968 Y181.4551
G1 X538.2984 Y181.3322
G1 X538.8965 Y181.2006
G1 X539.4904 Y181.0572
G1 X540.0852 Y180.9039
G1 X540.6739 Y180.7404
G1 X541.2616 Y180.566
G1 X541.8469 Y180.3817
G1 X542.4269 Y180.1875
G1 X543.0048 Y179.9828
G1 X543.5804 Y179.7676
G1 X544.1494 Y179.5442
G1 X544.7139 Y179.3098
G1 X545.2766 Y179.0653
G1 X545.8339 Y178.8111
G1 X546.3865 Y178.5476
G1 X546.9346 Y178.2741
G1 X547.4789 Y177.9908
G1 X548.0177 Y177.6984
G1 X548.5501 Y177.3977
G1 X549.0778 Y177.0864
G1 X549.5999 Y176.7669
G1 X550.1156 Y176.4378
G1 X550.6278 Y176.0985
G1 X551.1341 Y175.7511
G1 X551.6312 Y175.3971
G1 X552.1225 Y175.0328
G1 X552.6096 Y174.6591
G1 X553.0883 Y174.278
G1 X553.5616 Y173.8877
G1 X554.0287 Y173.4889
G1 X554.4873 Y173.0838
G1 X554.9372 Y172.6715
G1 X555.3822 Y172.2487
G1 X555.8196 Y171.8196
G1 X556.2487 Y171.3822
G1 X556.6715 Y170.9372
G1 X557.0838 Y170.4873
G1 X557.4889 Y170.0287
G1 X557.8877 Y169.5616
G1 X558.278 Y169.0883
G1 X558.6591 Y168.6096
G1 X559.0328 Y168.1225
G1 X559.3971 Y167.6312
G1 X559.7511 Y167.1341
G1 X560.0985 Y166.6278
G1 X560.4378 Y166.1156
G1 X560.7669 Y165.5999
G1 X561.0864 Y165.0778
G1 X561.3977 Y164.5501
G1 X561.6984 Y164.0177
G1 X561.9908 Y163.4789
G1 X562.2741 Y162.9346
G1 X562.5476 Y162.3865
G1 X562.8111 Y161.8339
G1 X563.0653 Y161.2766
G1 X563.3098 Y160.7139
G1 X563.5442 Y160.1494
G1 X563.7676 Y159.5804
G1 X563.9828 Y159.0048
G1 X564.1875 Y158.4269
G1 X564.3817 Y157.8469
G1 X564.566 Y157.2616
G1 X564.7404 Y156.6739
G1 X564.9039 Y156.0852
G1 X565.0567 Y155.4926
G1 X565.1997 Y154.8965
G1 X565.3327 Y154.2963
G1 X565.4551 Y153.6968
G1 X565.5665 Y153.095
G1 X565.6678 Y152.4909
G1 X565.7581 Y151.8847
G1 X565.8383 Y151.2773
G1 X565.9078 Y150.6654
G1 X578.8 Y20.8514
G1 Y20.0
G3 X581.8 Y17.0 I3.0 J0.0
G1 X994.55
G3 X997.55 Y20.0 I0.0 J3.0
G1 Y55.1
G1 X996.6713 Y55.9787
G1 X997.55 Y55.1
G1 X1010.6
G1 X1011.4787 Y55.9787
G1 X1010.6 Y55.1
G1 Y20.0
G3 X1013.6 Y17.0 I3.0 J0.0
G1 X1039.0
G3 X1042.0 Y20.0 I0.0 J3.0
G1 Y83.5
G3 X1039.0 Y86.5 I-3.0 J0.0
G1 X997.55
G1 X996.6713 Y85.6213
G1 X997.55 Y86.5
G1 Y108.9
G3 X994.55 Y111.9 I-3.0 J0.0
G1 X757.52
G1 X756.6413 Y111.0213
G1 X757.52 Y111.9
G1 Y657.08
G1 X756.6413 Y657.9587
G1 X757.52 Y657.08
G1 X994.55
G3 X997.55 Y660.08 I0.0 J3.0
G1 Y695.18
G1 X996.6713 Y696.0587
G1 X997.55 Y695.18
G1 X1010.6
G1 X1011.4787 Y696.0587
G1 X1010.6 Y695.18
G1 Y660.08
G3 X1013.6 Y657.08 I3.0 J0.0
G1 X1039.0
G3 X1042.0 Y660.08 I0.0 J3.0
G1 Y723.58
G3 X1039.0 Y726.58 I-3.0 J0.0
G1 X997.55
G1 X996.6713 Y725.7013
G1 X997.55 Y726.58
G1 Y807.4
G3 X994.55 Y810.4 I-3.0 J0.0
G1 X67.45
G3 X64.45 Y807.4 I0.0 J-3.0
G1 Y726.58
G1 X65.3287 Y725.7013
G1 X64.45 Y726.58
G1 X23.0
G3 X20.0 Y723.58 I0.0 J-3.0
G1 Y660.08
G3 X23.0 Y657.08 I3.0 J0.0
G1 X48.4
G3 X51.4 Y660.08 I0.0 J3.0
G1 Y695.18
G1 X50.5213 Y696.0587
G1 X51.4 Y695.18
G1 X64.45
G1 X65.3287 Y696.0587
G1 X64.45 Y695.18
G1 Y660.08
G3 X67.45 Y657.08 I3.0 J0.0
G1 X304.48
G1 X305.3587 Y657.9587
G1 X304.48 Y657.08
G1 Y111.9
G1 X305.3587 Y111.0213
G1 X304.48 Y111.9
G1 X67.45
G3 X64.45 Y108.9 I0.0 J-3.0
G1 Y86.5
G1 X65.3287 Y85.6213
G1 X64.45 Y86.5
G1 X23.0
G3 X20.0 Y83.5 I0.0 J-3.0
G1 Y20.0
G3 X23.0 Y17.0 I3.0 J0.0
G1 X48.4
G3 X51.4 Y20.0 I0.0 J3.0
G1 Y55.1
G1 X50.5213 Y55.9787
G1 X51.4 Y55.1
G1 F300.0 Z-4.0
G1 F800.0 X64.45
G1 X65.3287 Y55.9787
G1 X64.45 Y55.1
G1 Y20.0
G3 X67.45 Y17.0 I3.0 J0.0
G1 X480.2
G3 X483.2 Y20.0 I0.0 J3.0
G1 Y20.8514
G1 X496.0922 Y150.6654
G1 X496.1617 Y151.2773
G1 X496.2419 Y151.8847
G1 X496.3322 Y152.4909
G1 X496.4335 Y153.095
G1 X496.5449 Y153.6968
G1 X496.6678 Y154.2984
G1 X496.7994 Y154.8965
G1 X496.9428 Y155.4904
G1 X497.0961 Y156.0852
G1 X497.2596 Y156.6739
G1 X497.434 Y157.2616
G1 X497.6183 Y157.8469
G1 X497.8125 Y158.4269
G1 X498.0172 Y159.0048
G1 X498.2324 Y159.5804
G1 X498.4558 Y160.1494
G1 X498.6902 Y160.7139
G1 X498.9347 Y161.2766
G1 X499.1889 Y161.8339
G1 X499.4524 Y162.3865
G1 X499.7259 Y162.9346
G1 X500.0092 Y163.4789
G1 X500.3016 Y164.0177
G1 X500.6023 Y164.5501
G1 X500.9136 Y165.0778
G1 X501.2331 Y165.5999
G1 X501.5622 Y166.1156
G1 X501.9015 Y166.6278
G1 X502.2489 Y167.1341
G1 X502.6029 Y167.6312
G1 X502.9672 Y168.1225
G1 X503.3409 Y168.6096
G1 X503.722 Y169.0883
G1 X504.1123 Y169.5616
G1 X504.5111 Y170.0287
G1 X504.9162 Y170.4873
G1 X505.3285 Y170.9372
G1 X505.7513 Y171.3822
G1 X506.1804 Y171.8196
G1 X506.6178 Y172.2487
G1 X507.0628 Y172.6715
G1 X507.5127 Y173.0838
G1 X507.9713 Y173.4889
G1 X508.4384 Y173.8877
G1 X508.9117 Y174.278
G1 X509.3904 Y174.6591
G1 X509.8775 Y175.0328
G1 X510.3688 Y175.3971
G1 X510.8659 Y175.7511
G1 X511.3722 Y176.0985
G1 X511.8844 Y176.4378
G1 X512.4001 Y176.7669
G1 X512.9222 Y177.0864
G1 X513.4499 Y177.3977
G1 X513.9823 Y177.6984
G1 X514.5211 Y177.9908
G1 X515.0654 Y178.2741
G1 X515.6135 Y178.5476
G1 X516.1661 Y178.8111
G1 X516.7234 Y179.0653
G1 X517.2861 Y179.3098
G1 X517.8506 Y179.5442
G1 X518.4196 Y179.7676
G1 X518.9952 Y179.9828
G1 X519.5731 Y180.1875
G1 X520.1531 Y180.3817
G1 X520.7384 Y180.566
G1 X521.3261 Y180.7404
G1 X521.9148 Y180.9039
G1 X522.5096 Y181.0572
G1 X523.1035 Y181.2006
G1 X523.7016 Y181.3322
G1 X524.3032 Y181.4551
G1 X524.905 Y181.5665
G1 X525.5091 Y181.6678
G1 X526.1153 Y181.7581
G1 X526.7227 Y181.8383
G1 X527.3307 Y181.9073
G1 X527.9407 Y181.9663
G1 X528.5517 Y182.0142
G1 X529.1639 Y182.052
G1 X529.7738 Y182.0787
G1 X530.3869 Y182.0943
G1 X531.0 Y182.0999
G1 X531.6131 Y182.0943
G1 X532.2262 Y182.0787
G1 X532.8361 Y182.052
G1 X533.4483 Y182.0142
G1 X534.0593 Y181.9663
G1 X534.6693 Y181.9073
G1 X535.2773 Y181.8383
G1 X535.8847 Y181.7581
G1 X536.4909 Y181.6678
G1 X537.095 Y181.5665
G1 X537.6968 Y181.4551
G1 X538.2984 Y181.3322
G1 X538.8965 Y181.2006
G1 X539.4904 Y181.0572
G1 X540.0852 Y180.9039
G1 X540.6739 Y180.7404
G1 X541.2616 Y180.566
G1 X541.8469 Y180.3817
G1 X542.4269 Y180.1875
G1 X543.0048 Y179.9828
G1 X543.5804 Y179.7676
G1 X544.1494 Y179.5442
G1 X544.7139 Y179.3098
G1 X545.2766 Y179.0653
G1 X545.8339 Y178.8111
G1 X546.3865 Y178.5476
G1 X546.9346 Y178.2741
G1 X547.4789 Y177.9908
G1 X548.0177 Y177.6984
G1 X548.5501 Y177.3977
G1 X549.0778 Y177.0864
G1 X549.5999 Y176.7669
G1 X550.1156 Y176.4378
G1 X550.6278 Y176.0985
G1 X551.1341 Y175.7511
G1 X551.6312 Y175.3971
G1 X552.1225 Y175.0328
G1 X552.6096 Y174.6591
G1 X553.0883 Y174.278
G1 X553.5616 Y173.8877
G1 X554.0287 Y173.4889
G1 X554.4873 Y173.0838
G1 X554.9372 Y172.6715
G1 X555.3822 Y172.2487
G1 X555.8196 Y171.8196
G1 X556.2487 Y171.3822
G1 X556.6715 Y170.9372
G1 X557.0838 Y170.4873
G1 X557.4889 Y170.0287
G1 X557.8877 Y169.5616
G1 X558.278 Y169.0883
G1 X558.6591 Y168.6096
G1 X559.0328 Y168.1225
G1 X559.3971 Y167.6312
G1 X559.7511 Y167.1341
G1 X560.0985 Y166.6278
G1 X560.4378 Y166.1156
G1 X560.7669 Y165.5999
G1 X561.0864 Y165.0778
G1 X561.3977 Y164.5501
G1 X561.6984 Y164.0177
G1 X561.9908 Y163.4789
G1 X562.2741 Y162.9346
G1 X562.5476 Y162.3865
G1 X562.8111 Y161.8339
G1 X563.0653 Y161.2766
G1 X563.3098 Y160.7139
G1 X563.5442 Y160.1494
G1 X563.7676 Y159.5804
G1 X563.9828 Y159.0048
G1 X564.1875 Y158.4269
G1 X564.3817 Y157.8469
G1 X564.566 Y157.2616
G1 X564.7404 Y156.6739
G1 X564.9039 Y156.0852
G1 X565.0567 Y155.4926
G1 X565.1997 Y154.8965
G1 X565.3327 Y154.2963
G1 X565.4551 Y153.6968
G1 X565.5665 Y153.095
G1 X565.6678 Y152.4909
G1 X565.7581 Y151.8847
G1 X565.8383 Y151.2773
G1 X565.9078 Y150.6654
G1 X578.8 Y20.8514
G1 Y20.0
G3 X581.8 Y17.0 I3.0 J0.0
G1 X994.55
G3 X997.55 Y20.0 I0.0 J3.0
G1 Y55.1
G1 X996.6713 Y55.9787
G1 X997.55 Y55.1
G1 X1010.6
G1 X1011.4787 Y55.9787
G1 X1010.6 Y55.1
G1 Y20.0
G3 X1013.6 Y17.0 I3.0 J0.0
G1 X1039.0
G3 X1042.0 Y20.0 I0.0 J3.0
G1 Y83.5
G3 X1039.0 Y86.5 I-3.0 J0.0
G1 X997.55
G1 X996.6713 Y85.6213
G1 X997.55 Y86.5
G1 Y108.9
G3 X994.55 Y111.9 I-3.0 J0.0
G1 X757.52
G1 X756.6413 Y111.0213
G1 X757.52 Y111.9
G1 Y657.08
G1 X756.6413 Y657.9587
G1 X757.52 Y657.08
G1 X994.55
G3 X997.55 Y660.08 I0.0 J3.0
G1 Y695.18
G1 X996.6713 Y696.0587
G1 X997.55 Y695.18
G1 X1010.6
G1 X1011.4787 Y696.0587
G1 X1010.6 Y695.18
G1 Y660.08
G3 X1013.6 Y657.08 I3.0 J0.0
G1 X1039.0
G3 X1042.0 Y660.08 I0.0 J3.0
G1 Y723.58
G3 X1039.0 Y726.58 I-3.0 J0.0
G1 X997.55
G1 X996.6713 Y725.7013
G1 X997.55 Y726.58
G1 Y807.4
G3 X994.55 Y810.4 I-3.0 J0.0
G1 X67.45
G3 X64.45 Y807.4 I0.0 J-3.0
G1 Y726.58
G1 X65.3287 Y725.7013
G1 X64.45 Y726.58
G1 X23.0
G3 X20.0 Y723.58 I0.0 J-3.0
G1 Y660.08
G3 X23.0 Y657.08 I3.0 J0.0
G1 X48.4
G3 X51.4 Y660.08 I0.0 J3.0
G1 Y695.18
G1 X50.5213 Y696.0587
G1 X51.4 Y695.18
G1 X64.45
G1 X65.3287 Y696.0587
G1 X64.45 Y695.18
G1 Y660.08
G3 X67.45 Y657.08 I3.0 J0.0
G1 X304.48
G1 X305.3587 Y657.9587
G1 X304.48 Y657.08
G1 Y111.9
G1 X305.3587 Y111.0213
G1 X304.48 Y111.9
G1 X67.45
G3 X64.45 Y108.9 I0.0 J-3.0
G1 Y86.5
G1 X65.3287 Y85.6213
G1 X64.45 Y86.5
G1 X23.0
G3 X20.0 Y83.5 I0.0 J-3.0
G1 Y20.0
G3 X23.0 Y17.0 I3.0 J0.0
G1 X48.4
G3 X51.4 Y20.0 I0.0 J3.0
G1 Y55.1
G1 X50.5213 Y55.9787
G1 X51.4 Y55.1
G1 F300.0 Z-5.0
G1 F800.0 X64.45
G1 X65.3287 Y55.9787
G1 X64.45 Y55.1
G1 Y20.0
G3 X67.45 Y17.0 I3.0 J0.0
G1 X480.2
G3 X483.2 Y20.0 I0.0 J3.0
G1 Y20.8514
G1 X496.0922 Y150.6654
G1 X496.1617 Y151.2773
G1 X496.2419 Y151.8847
G1 X496.3322 Y152.4909
G1 X496.4335 Y153.095
G1 X496.5449 Y153.6968
G1 X496.6678 Y154.2984
G1 X496.7994 Y154.8965
G1 X496.9428 Y155.4904
G1 X497.0961 Y156.0852
G1 X497.2596 Y156.6739
G1 X497.434 Y157.2616
G1 X497.6183 Y157.8469
G1 X497.8125 Y158.4269
G1 X498.0172 Y159.0048
G1 X498.2324 Y159.5804
G1 X498.4558 Y160.1494
G1 X498.6902 Y160.7139
G1 X498.9347 Y161.2766
G1 X499.1889 Y161.8339
G1 X499.4524 Y162.3865
G1 X499.7259 Y162.9346
G1 X500.0092 Y163.4789
G1 X500.3016 Y164.0177
G1 X500.6023 Y164.5501
G1 X500.9136 Y165.0778
G1 X501.2331 Y165.5999
G1 X501.5622 Y166.1156
G1 X501.9015 Y166.6278
G1 X502.2489 Y167.1341
G1 X502.6029 Y167.6312
G1 X502.9672 Y168.1225
G1 X503.3409 Y168.6096
G1 X503.722 Y169.0883
G1 X504.1123 Y169.5616
G1 X504.5111 Y170.0287
G1 X504.9162 Y170.4873
G1 X505.3285 Y170.9372
G1 X505.7513 Y171.3822
G1 X506.1804 Y171.8196
G1 X506.6178 Y172.2487
G1 X507.0628 Y172.6715
G1 X507.5127 Y173.0838
G1 X507.9713 Y173.4889
G1 X508.4384 Y173.8877
G1 X508.9117 Y174.278
G1 X509.3904 Y174.6591
G1 X509.8775 Y175.0328
G1 X510.3688 Y175.3971
G1 X510.8659 Y175.7511
G1 X511.3722 Y176.0985
G1 X511.8844 Y176.4378
G1 X512.4001 Y176.7669
G1 X512.9222 Y177.0864
G1 X513.4499 Y177.3977
G1 X513.9823 Y177.6984
G1 X514.5211 Y177.9908
G1 X515.0654 Y178.2741
G1 X515.6135 Y178.5476
G1 X516.1661 Y178.8111
G1 X516.7234 Y179.0653
G1 X517.2861 Y179.3098
G1 X517.8506 Y179.5442
G1 X518.4196 Y179.7676
G1 X518.9952 Y179.9828
G1 X519.5731 Y180.1875
G1 X520.1531 Y180.3817
G1 X520.7384 Y180.566
G1 X521.3261 Y180.7404
G1 X521.9148 Y180.9039
G1 X522.5096 Y181.0572
G1 X523.1035 Y181.2006
G1 X523.7016 Y181.3322
G1 X524.3032 Y181.4551
G1 X524.905 Y181.5665
G1 X525.5091 Y181.6678
G1 X526.1153 Y181.7581
G1 X526.7227 Y181.8383
G1 X527.3307 Y181.9073
G1 X527.9407 Y181.9663
G1 X528.5517 Y182.0142
G1 X529.1639 Y182.052
G1 X529.7738 Y182.0787
G1 X530.3869 Y182.0943
G1 X531.0 Y182.0999
G1 X531.6131 Y182.0943
G1 X532.2262 Y182.0787
G1 X532.8361 Y182.052
G1 X533.4483 Y182.0142
G1 X534.0593 Y181.9663
G1 X534.6693 Y181.9073
G1 X535.2773 Y181.8383
G1 X535.8847 Y181.7581
G1 X536.4909 Y181.6678
G1 X537.095 Y181.5665
G1 X537.6968 Y181.4551
G1 X538.2984 Y181.3322
G1 X538.8965 Y181.2006
G1 X539.4904 Y181.0572
G1 X540.0852 Y180.9039
G1 X540.6739 Y180.7404
G1 X541.2616 Y180.566
G1 X541.8469 Y180.3817
G1 X542.4269 Y180.1875
G1 X543.0048 Y179.9828
G1 X543.5804 Y179.7676
G1 X544.1494 Y179.5442
G1 X544.7139 Y179.3098
G1 X545.2766 Y179.0653
G1 X545.8339 Y178.8111
G1 X546.3865 Y178.5476
G1 X546.9346 Y178.2741
G1 X547.4789 Y177.9908
G1 X548.0177 Y177.6984
G1 X548.5501 Y177.3977
G1 X549.0778 Y177.0864
G1 X549.5999 Y176.7669
G1 X550.1156 Y176.4378
G1 X550.6278 Y176.0985
G1 X551.1341 Y175.7511
G1 X551.6312 Y175.3971
G1 X552.1225 Y175.0328
G1 X552.6096 Y174.6591
G1 X553.0883 Y174.278
G1 X553.5616 Y173.8877
G1 X554.0287 Y173.4889
G1 X554.4873 Y173.0838
G1 X554.9372 Y172.6715
G1 X555.3822 Y172.2487
G1 X555.8196 Y171.8196
G1 X556.2487 Y171.3822
G1 X556.6715 Y170.9372
G1 X557.0838 Y170.4873
G1 X557.4889 Y170.0287
G1 X557.8877 Y169.5616
G1 X558.278 Y169.0883
G1 X558.6591 Y168.6096
G1 X559.0328 Y168.1225
G1 X559.3971 Y167.6312
G1 X559.7511 Y167.1341
G1 X560.0985 Y166.6278
G1 X560.4378 Y166.1156
G1 X560.7669 Y165.5999
G1 X561.0864 Y165.0778
G1 X561.3977 Y164.5501
G1 X561.6984 Y164.0177
G1 X561.9908 Y163.4789
G1 X562.2741 Y162.9346
G1 X562.5476 Y162.3865
G1 X562.8111 Y161.8339
G1 X563.0653 Y161.2766
G1 X563.3098 Y160.7139
G1 X563.5442 Y160.1494
G1 X563.7676 Y159.5804
G1 X563.9828 Y159.0048
G1 X564.1875 Y158.4269
G1 X564.3817 Y157.8469
G1 X564.566 Y157.2616
G1 X564.7404 Y156.6739
G1 X564.9039 Y156.0852
G1 X565.0567 Y155.4926
G1 X565.1997 Y154.8965
G1 X565.3327 Y154.2963
G1 X565.4551 Y153.6968
G1 X565.5665 Y153.095
G1 X565.6678 Y152.4909
G1 X565.7581 Y151.8847
G1 X565.8383 Y151.2773
G1 X565.9078 Y150.6654
G1 X578.8 Y20.8514
G1 Y20.0
G3 X581.8 Y17.0 I3.0 J0.0
G1 X994.55
G3 X997.55 Y20.0 I0.0 J3.0
G1 Y55.1
G1 X996.6713 Y55.9787
G1 X997.55 Y55.1
G1 X1010.6
G1 X1011.4787 Y55.9787
G1 X1010.6 Y55.1
G1 Y20.0
G3 X1013.6 Y17.0 I3.0 J0.0
G1 X1039.0
G3 X1042.0 Y20.0 I0.0 J3.0
G1 Y83.5
G3 X1039.0 Y86.5 I-3.0 J0.0
G1 X997.55
G1 X996.6713 Y85.6213
G1 X997.55 Y86.5
G1 Y108.9
G3 X994.55 Y111.9 I-3.0 J0.0
G1 X757.52
G1 X756.6413 Y111.0213
G1 X757.52 Y111.9
G1 Y657.08
G1 X756.6413 Y657.9587
G1 X757.52 Y657.08
G1 X994.55
G3 X997.55 Y660.08 I0.0 J3.0
G1 Y695.18
G1 X996.6713 Y696.0587
G1 X997.55 Y695.18
G1 X1010.6
G1 X1011.4787 Y696.0587
G1 X1010.6 Y695.18
G1 Y660.08
G3 X1013.6 Y657.08 I3.0 J0.0
G1 X1039.0
G3 X1042.0 Y660.08 I0.0 J3.0
G1 Y723.58
G3 X1039.0 Y726.58 I-3.0 J0.0
G1 X997.55
G1 X996.6713 Y725.7013
G1 X997.55 Y726.58
G1 Y807.4
G3 X994.55 Y810.4 I-3.0 J0.0
G1 X67.45
G3 X64.45 Y807.4 I0.0 J-3.0
G1 Y726.58
G1 X65.3287 Y725.7013
G1 X64.45 Y726.58
G1 X23.0
G3 X20.0 Y723.58 I0.0 J-3.0
G1 Y660.08
G3 X23.0 Y657.08 I3.0 J0.0
G1 X48.4
G3 X51.4 Y660.08 I0.0 J3.0
G1 Y695.18
G1 X50.5213 Y696.0587
G1 X51.4 Y695.18
G1 X64.45
G1 X65.3287 Y696.0587
G1 X64.45 Y695.18
G1 Y660.08
G3 X67.45 Y657.08 I3.0 J0.0
G1 X304.48
G1 X305.3587 Y657.9587
G1 X304.48 Y657.08
G1 Y111.9
G1 X305.3587 Y111.0213
G1 X304.48 Y111.9
G1 X67.45
G3 X64.45 Y108.9 I0.0 J-3.0
G1 Y86.5
G1 X65.3287 Y85.6213
G1 X64.45 Y86.5
G1 X23.0
G3 X20.0 Y83.5 I0.0 J-3.0
G1 Y20.0
G3 X23.0 Y17.0 I3.0 J0.0
G1 X48.4
G3 X51.4 Y20.0 I0.0 J3.0
G1 Y55.1
G1 X50.5213 Y55.9787
G1 X51.4 Y55.1
G1 F300.0 Z-6.0
G1 F800.0 X64.45
G1 X65.3287 Y55.9787
G1 X64.45 Y55.1
G1 Y20.0
G3 X67.45 Y17.0 I3.0 J0.0
G1 X480.2
G3 X483.2 Y20.0 I0.0 J3.0
G1 Y20.8514
G1 X496.0922 Y150.6654
G1 X496.1617 Y151.2773
G1 X496.2419 Y151.8847
G1 X496.3322 Y152.4909
G1 X496.4335 Y153.095
G1 X496.5449 Y153.6968
G1 X496.6678 Y154.2984
G1 X496.7994 Y154.8965
G1 X496.9428 Y155.4904
G1 X497.0961 Y156.0852
G1 X497.2596 Y156.6739
G1 X497.434 Y157.2616
G1 X497.6183 Y157.8469
G1 X497.8125 Y158.4269
G1 X498.0172 Y159.0048
G1 X498.2324 Y159.5804
G1 X498.4558 Y160.1494
G1 X498.6902 Y160.7139
G1 X498.9347 Y161.2766
G1 X499.1889 Y161.8339
G1 X499.4524 Y162.3865
G1 X499.7259 Y162.9346
G1 X500.0092 Y163.4789
G1 X500.3016 Y164.0177
G1 X500.6023 Y164.5501
G1 X500.9136 Y165.0778
G1 X501.2331 Y165.5999
G1 X501.5622 Y166.1156
G1 X501.9015 Y166.6278
G1 X502.2489 Y167.1341
G1 X502.6029 Y167.6312
G1 X502.9672 Y168.1225
G1 X503.3409 Y168.6096
G1 X503.722 Y169.0883
G1 X504.1123 Y169.5616
G1 X504.5111 Y170.0287
G1 X504.9162 Y170.4873
G1 X505.3285 Y170.9372
G1 X505.7513 Y171.3822
G1 X506.1804 Y171.8196
G1 X506.6178 Y172.2487
G1 X507.0628 Y172.6715
G1 X507.5127 Y173.0838
G1 X507.9713 Y173.4889
G1 X508.4384 Y173.8877
G1 X508.9117 Y174.278
G1 X509.3904 Y174.6591
G1 X509.8775 Y175.0328
G1 X510.3688 Y175.3971
G1 X510.8659 Y175.7511
G1 X511.3722 Y176.0985
G1 X511.8844 Y176.4378
G1 X512.4001 Y176.7669
G1 X512.9222 Y177.0864
G1 X513.4499 Y177.3977
G1 X513.9823 Y177.6984
G1 X514.5211 Y177.9908
G1 X515.0654 Y178.2741
G1 X515.6135 Y178.5476
G1 X516.1661 Y178.8111
G1 X516.7234 Y179.0653
G1 X517.2861 Y179.3098
G1 X517.8506 Y179.5442
G1 X518.4196 Y179.7676
G1 X518.9952 Y179.9828
G1 X519.5731 Y180.1875
G1 X520.1531 Y180.3817
G1 X520.7384 Y180.566
G1 X521.3261 Y180.7404
G1 X521.9148 Y180.9039
G1 X522.5096 Y181.0572
G1 X523.1035 Y181.2006
G1 X523.7016 Y181.3322
G1 X524.3032 Y181.4551
G1 X524.905 Y181.5665
G1 X525.5091 Y181.6678
G1 X526.1153 Y181.7581
G1 X526.7227 Y181.8383
G1 X527.3307 Y181.9073
G1 X527.9407 Y181.9663
G1 X528.5517 Y182.0142
G1 X529.1639 Y182.052
G1 X529.7738 Y182.0787
G1 X530.3869 Y182.0943
G1 X531.0 Y182.0999
G1 X531.6131 Y182.0943
G1 X532.2262 Y182.0787
G1 X532.8361 Y182.052
G1 X533.4483 Y182.0142
G1 X534.0593 Y181.9663
G1 X534.6693 Y181.9073
G1 X535.2773 Y181.8383
G1 X535.8847 Y181.7581
G1 X536.4909 Y181.6678
G1 X537.095 Y181.5665
G1 X537.6968 Y181.4551
G1 X538.2984 Y181.3322
G1 X538.8965 Y181.2006
G1 X539.4904 Y181.0572
G1 X540.0852 Y180.9039
G1 X540.6739 Y180.7404
G1 X541.2616 Y180.566
G1 X541.8469 Y180.3817
G1 X542.4269 Y180.1875
G1 X543.0048 Y179.9828
G1 X543.5804 Y179.7676
G1 X544.1494 Y179.5442
G1 X544.7139 Y179.3098
G1 X545.2766 Y179.0653
G1 X545.8339 Y178.8111
G1 X546.3865 Y178.5476
G1 X546.9346 Y178.2741
G1 X547.4789 Y177.9908
G1 X548.0177 Y177.6984
G1 X548.5501 Y177.3977
G1 X549.0778 Y177.0864
G1 X549.5999 Y176.7669
G1 X550.1156 Y176.4378
G1 X550.6278 Y176.0985
G1 X551.1341 Y175.7511
G1 X551.6312 Y175.3971
G1 X552.1225 Y175.0328
G1 X552.6096 Y174.6591
G1 X553.0883 Y174.278
G1 X553.5616 Y173.8877
G1 X554.0287 Y173.4889
G1 X554.4873 Y173.0838
G1 X554.9372 Y172.6715
G1 X555.3822 Y172.2487
G1 X555.8196 Y171.8196
G1 X556.2487 Y171.3822
G1 X556.6715 Y170.9372
G1 X557.0838 Y170.4873
G1 X557.4889 Y170.0287
G1 X557.8877 Y169.5616
G1 X558.278 Y169.0883
G1 X558.6591 Y168.6096
G1 X559.0328 Y168.1225
G1 X559.3971 Y167.6312
G1 X559.7511 Y167.1341
G1 X560.0985 Y166.6278
G1 X560.4378 Y166.1156
G1 X560.7669 Y165.5999
G1 X561.0864 Y165.0778
G1 X561.3977 Y164.5501
G1 X561.6984 Y164.0177
G1 X561.9908 Y163.4789
G1 X562.2741 Y162.9346
G1 X562.5476 Y162.3865
G1 X562.8111 Y161.8339
G1 X563.0653 Y161.2766
G1 X563.3098 Y160.7139
G1 X563.5442 Y160.1494
G1 X563.7676 Y159.5804
G1 X563.9828 Y159.0048
G1 X564.1875 Y158.4269
G1 X564.3817 Y157.8469
G1 X564.566 Y157.2616
G1 X564.7404 Y156.6739
G1 X564.9039 Y156.0852
G1 X565.0567 Y155.4926
G1 X565.1997 Y154.8965
G1 X565.3327 Y154.2963
G1 X565.4551 Y153.6968
G1 X565.5665 Y153.095
G1 X565.6678 Y152.4909
G1 X565.7581 Y151.8847
G1 X565.8383 Y151.2773
G1 X565.9078 Y150.6654
G1 X578.8 Y20.8514
G1 Y20.0
G3 X581.8 Y17.0 I3.0 J0.0
G1 X994.55
G3 X997.55 Y20.0 I0.0 J3.0
G1 Y55.1
G1 X996.6713 Y55.9787
G1 X997.55 Y55.1
G1 X1010.6
G1 X1011.4787 Y55.9787
G1 X1010.6 Y55.1
G1 Y20.0
G3 X1013.6 Y17.0 I3.0 J0.0
G1 X1039.0
G3 X1042.0 Y20.0 I0.0 J3.0
G1 Y83.5
G3 X1039.0 Y86.5 I-3.0 J0.0
G1 X997.55
G1 X996.6713 Y85.6213
G1 X997.55 Y86.5
G1 Y108.9
G3 X994.55 Y111.9 I-3.0 J0.0
G1 X757.52
G1 X756.6413 Y111.0213
G1 X757.52 Y111.9
G1 Y657.08
G1 X756.6413 Y657.9587
G1 X757.52 Y657.08
G1 X994.55
G3 X997.55 Y660.08 I0.0 J3.0
G1 Y695.18
G1 X996.6713 Y696.0587
G1 X997.55 Y695.18
G1 X1010.6
G1 X1011.4787 Y696.0587
G1 X1010.6 Y695.18
G1 Y660.08
G3 X1013.6 Y657.08 I3.0 J0.0
G1 X1039.0
G3 X1042.0 Y660.08 I0.0 J3.0
G1 Y723.58
G3 X1039.0 Y726.58 I-3.0 J0.0
G1 X997.55
G1 X996.6713 Y725.7013
G1 X997.55 Y726.58
G1 Y807.4
G3 X994.55 Y810.4 I-3.0 J0.0
G1 X67.45
G3 X64.45 Y807.4 I0.0 J-3.0
G1 Y726.58
G1 X65.3287 Y725.7013
G1 X64.45 Y726.58
G1 X23.0
G3 X20.0 Y723.58 I0.0 J-3.0
G1 Y660.08
G3 X23.0 Y657.08 I3.0 J0.0
G1 X48.4
G3 X51.4 Y660.08 I0.0 J3.0
G1 Y695.18
G1 X50.5213 Y696.0587
G1 X51.4 Y695.18
G1 X64.45
G1 X65.3287 Y696.0587
G1 X64.45 Y695.18
G1 Y660.08
G3 X67.45 Y657.08 I3.0 J0.0
G1 X304.48
G1 X305.3587 Y657.9587
G1 X304.48 Y657.08
G1 Y111.9
G1 X305.3587 Y111.0213
G1 X304.48 Y111.9
G1 X67.45
G3 X64.45 Y108.9 I0.0 J-3.0
G1 Y86.5
G1 X65.3287 Y85.6213
G1 X64.45 Y86.5
G1 X23.0
G3 X20.0 Y83.5 I0.0 J-3.0
G1 Y20.0
G3 X23.0 Y17.0 I3.0 J0.0
G1 X48.4
G3 X51.4 Y20.0 I0.0 J3.0
G1 Y55.1
G1 X50.5213 Y55.9787
G1 X51.4 Y55.1
G1 F300.0 Z-7.0
G1 F800.0 X64.45
G1 X65.3287 Y55.9787
G1 X64.45 Y55.1
G1 Y20.0
G3 X67.45 Y17.0 I3.0 J0.0
G1 X480.2
G3 X483.2 Y20.0 I0.0 J3.0
G1 Y20.8514
G1 X496.0922 Y150.6654
G1 X496.1617 Y151.2773
G1 X496.2419 Y151.8847
G1 X496.3322 Y152.4909
G1 X496.4335 Y153.095
G1 X496.5449 Y153.6968
G1 X496.6678 Y154.2984
G1 X496.7994 Y154.8965
G1 X496.9428 Y155.4904
G1 X497.0961 Y156.0852
G1 X497.2596 Y156.6739
G1 X497.434 Y157.2616
G1 X497.6183 Y157.8469
G1 X497.8125 Y158.4269
G1 X498.0172 Y159.0048
G1 X498.2324 Y159.5804
G1 X498.4558 Y160.1494
G1 X498.6902 Y160.7139
G1 X498.9347 Y161.2766
G1 X499.1889 Y161.8339
G1 X499.4524 Y162.3865
G1 X499.7259 Y162.9346
G1 X500.0092 Y163.4789
G1 X500.3016 Y164.0177
G1 X500.6023 Y164.5501
G1 X500.9136 Y165.0778
G1 X501.2331 Y165.5999
G1 X501.5622 Y166.1156
G1 X501.9015 Y166.6278
G1 X502.2489 Y167.1341
G1 X502.6029 Y167.6312
G1 X502.9672 Y168.1225
G1 X503.3409 Y168.6096
G1 X503.722 Y169.0883
G1 X504.1123 Y169.5616
G1 X504.5111 Y170.0287
G1 X504.9162 Y170.4873
G1 X505.3285 Y170.9372
G1 X505.7513 Y171.3822
G1 X506.1804 Y171.8196
G1 X506.6178 Y172.2487
G1 X507.0628 Y172.6715
G1 X507.5127 Y173.0838
G1 X507.9713 Y173.4889
G1 X508.4384 Y173.8877
G1 X508.9117 Y174.278
G1 X509.3904 Y174.6591
G1 X509.8775 Y175.0328
G1 X510.3688 Y175.3971
G1 X510.8659 Y175.7511
G1 X511.3722 Y176.0985
G1 X511.8844 Y176.4378
G1 X512.4001 Y176.7669
G1 X512.9222 Y177.0864
G1 X513.4499 Y177.3977
G1 X513.9823 Y177.6984
G1 X514.5211 Y177.9908
G1 X515.0654 Y178.2741
G1 X515.6135 Y178.5476
G1 X516.1661 Y178.8111
G1 X516.7234 Y179.0653
G1 X517.2861 Y179.3098
G1 X517.8506 Y179.5442
G1 X518.4196 Y179.7676
G1 X518.9952 Y179.9828
G1 X519.5731 Y180.1875
G1 X520.1531 Y180.3817
G1 X520.7384 Y180.566
G1 X521.3261 Y180.7404
G1 X521.9148 Y180.9039
G1 X522.5096 Y181.0572
G1 X523.1035 Y181.2006
G1 X523.7016 Y181.3322
G1 X524.3032 Y181.4551
G1 X524.905 Y181.5665
G1 X525.5091 Y181.6678
G1 X526.1153 Y181.7581
G1 X526.7227 Y181.8383
G1 X527.3307 Y181.9073
G1 X527.9407 Y181.9663
G1 X528.5517 Y182.0142
G1 X529.1639 Y182.052
G1 X529.7738 Y182.0787
G1 X530.3869 Y182.0943
G1 X531.0 Y182.0999
G1 X531.6131 Y182.0943
G1 X532.2262 Y182.0787
G1 X532.8361 Y182.052
G1 X533.4483 Y182.0142
G1 X534.0593 Y181.9663
G1 X534.6693 Y181.9073
G1 X535.2773 Y181.8383
G1 X535.8847 Y181.7581
G1 X536.4909 Y181.6678
G1 X537.095 Y181.5665
G1 X537.6968 Y181.4551
G1 X538.2984 Y181.3322
G1 X538.8965 Y181.2006
G1 X539.4904 Y181.0572
G1 X540.0852 Y180.9039
G1 X540.6739 Y180.7404
G1 X541.2616 Y180.566
G1 X541.8469 Y180.3817
G1 X542.4269 Y180.1875
G1 X543.0048 Y179.9828
G1 X543.5804 Y179.7676
G1 X544.1494 Y179.5442
G1 X544.7139 Y179.3098
G1 X545.2766 Y179.0653
G1 X545.8339 Y178.8111
G1 X546.3865 Y178.5476
G1 X546.9346 Y178.2741
G1 X547.4789 Y177.9908
G1 X548.0177 Y177.6984
G1 X548.5501 Y177.3977
G1 X549.0778 Y177.0864
G1 X549.5999 Y176.7669
G1 X550.1156 Y176.4378
G1 X550.6278 Y176.0985
G1 X551.1341 Y175.7511
G1 X551.6312 Y175.3971
G1 X552.1225 Y175.0328
G1 X552.6096 Y174.6591
G1 X553.0883 Y174.278
G1 X553.5616 Y173.8877
G1 X554.0287 Y173.4889
G1 X554.4873 Y173.0838
G1 X554.9372 Y172.6715
G1 X555.3822 Y172.2487
G1 X555.8196 Y171.8196
G1 X556.2487 Y171.3822
G1 X556.6715 Y170.9372
G1 X557.0838 Y170.4873
G1 X557.4889 Y170.0287
G1 X557.8877 Y169.5616
G1 X558.278 Y169.0883
G1 X558.6591 Y168.6096
G1 X559.0328 Y168.1225
G1 X559.3971 Y167.6312
G1 X559.7511 Y167.1341
G1 X560.0985 Y166.6278
G1 X560.4378 Y166.1156
G1 X560.7669 Y165.5999
G1 X561.0864 Y165.0778
G1 X561.3977 Y164.5501
G1 X561.6984 Y164.0177
G1 X561.9908 Y163.4789
G1 X562.2741 Y162.9346
G1 X562.5476 Y162.3865
G1 X562.8111 Y161.8339
G1 X563.0653 Y161.2766
G1 X563.3098 Y160.7139
G1 X563.5442 Y160.1494
G1 X563.7676 Y159.5804
G1 X563.9828 Y159.0048
G1 X564.1875 Y158.4269
G1 X564.3817 Y157.8469
G1 X564.566 Y157.2616
G1 X564.7404 Y156.6739
G1 X564.9039 Y156.0852
G1 X565.0567 Y155.4926
G1 X565.1997 Y154.8965
G1 X565.3327 Y154.2963
G1 X565.4551 Y153.6968
G1 X565.5665 Y153.095
G1 X565.6678 Y152.4909
G1 X565.7581 Y151.8847
G1 X565.8383 Y151.2773
G1 X565.9078 Y150.6654
G1 X578.8 Y20.8514
G1 Y20.0
G3 X581.8 Y17.0 I3.0 J0.0
G1 X994.55
G3 X997.55 Y20.0 I0.0 J3.0
G1 Y55.1
G1 X996.6713 Y55.9787
G1 X997.55 Y55.1
G1 X1010.6
G1 X1011.4787 Y55.9787
G1 X1010.6 Y55.1
G1 Y20.0
G3 X1013.6 Y17.0 I3.0 J0.0
G1 X1039.0
G3 X1042.0 Y20.0 I0.0 J3.0
G1 Y83.5
G3 X1039.0 Y86.5 I-3.0 J0.0
G1 X997.55
G1 X996.6713 Y85.6213
G1 X997.55 Y86.5
G1 Y108.9
G3 X994.55 Y111.9 I-3.0 J0.0
G1 X757.52
G1 X756.6413 Y111.0213
G1 X757.52 Y111.9
G1 Y657.08
G1 X756.6413 Y657.9587
G1 X757.52 Y657.08
G1 X994.55
G3 X997.55 Y660.08 I0.0 J3.0
G1 Y695.18
G1 X996.6713 Y696.0587
G1 X997.55 Y695.18
G1 X1010.6
G1 X1011.4787 Y696.0587
G1 X1010.6 Y695.18
G1 Y660.08
G3 X1013.6 Y657.08 I3.0 J0.0
G1 X1039.0
G3 X1042.0 Y660.08 I0.0 J3.0
G1 Y723.58
G3 X1039.0 Y726.58 I-3.0 J0.0
G1 X997.55
G1 X996.6713 Y725.7013
G1 X997.55 Y726.58
G1 Y807.4
G3 X994.55 Y810.4 I-3.0 J0.0
G1 X67.45
G3 X64.45 Y807.4 I0.0 J-3.0
G1 Y726.58
G1 X65.3287 Y725.7013
G1 X64.45 Y726.58
G1 X23.0
G3 X20.0 Y723.58 I0.0 J-3.0
G1 Y660.08
G3 X23.0 Y657.08 I3.0 J0.0
G1 X48.4
G3 X51.4 Y660.08 I0.0 J3.0
G1 Y695.18
G1 X50.5213 Y696.0587
G1 X51.4 Y695.18
G1 X64.45
G1 X65.3287 Y696.0587
G1 X64.45 Y695.18
G1 Y660.08
G3 X67.45 Y657.08 I3.0 J0.0
G1 X304.48
G1 X305.3587 Y657.9587
G1 X304.48 Y657.08
G1 Y111.9
G1 X305.3587 Y111.0213
G1 X304.48 Y111.9
G1 X67.45
G3 X64.45 Y108.9 I0.0 J-3.0
G1 Y86.5
G1 X65.3287 Y85.6213
G1 X64.45 Y86.5
G1 X23.0
G3 X20.0 Y83.5 I0.0 J-3.0
G1 Y20.0
G3 X23.0 Y17.0 I3.0 J0.0
G1 X48.4
G3 X51.4 Y20.0 I0.0 J3.0
G1 Y55.1
G1 X50.5213 Y55.9787
G1 X51.4 Y55.1
G1 F300.0 Z-8.0
G1 F800.0 X64.45
G1 X65.3287 Y55.9787
G1 X64.45 Y55.1
G1 Y20.0
G3 X67.45 Y17.0 I3.0 J0.0
G1 X480.2
G3 X483.2 Y20.0 I0.0 J3.0
G1 Y20.8514
G1 X496.0922 Y150.6654
G1 X496.1617 Y151.2773
G1 X496.2419 Y151.8847
G1 X496.3322 Y152.4909
G1 X496.4335 Y153.095
G1 X496.5449 Y153.6968
G1 X496.6678 Y154.2984
G1 X496.7994 Y154.8965
G1 X496.9428 Y155.4904
G1 X497.0961 Y156.0852
G1 X497.2596 Y156.6739
G1 X497.434 Y157.2616
G1 X497.6183 Y157.8469
G1 X497.8125 Y158.4269
G1 X498.0172 Y159.0048
G1 X498.2324 Y159.5804
G1 X498.4558 Y160.1494
G1 X498.6902 Y160.7139
G1 X498.9347 Y161.2766
G1 X499.1889 Y161.8339
G1 X499.4524 Y162.3865
G1 X499.7259 Y162.9346
G1 X500.0092 Y163.4789
G1 X500.3016 Y164.0177
G1 X500.6023 Y164.5501
G1 X500.9136 Y165.0778
G1 X501.2331 Y165.5999
G1 X501.5622 Y166.1156
G1 X501.9015 Y166.6278
G1 X502.2489 Y167.1341
G1 X502.6029 Y167.6312
G1 X502.9672 Y168.1225
G1 X503.3409 Y168.6096
G1 X503.722 Y169.0883
G1 X504.1123 Y169.5616
G1 X504.5111 Y170.0287
G1 X504.9162 Y170.4873
G1 X505.3285 Y170.9372
G1 X505.7513 Y171.3822
G1 X506.1804 Y171.8196
G1 X506.6178 Y172.2487
G1 X507.0628 Y172.6715
G1 X507.5127 Y173.0838
G1 X507.9713 Y173.4889
G1 X508.4384 Y173.8877
G1 X508.9117 Y174.278
G1 X509.3904 Y174.6591
G1 X509.8775 Y175.0328
G1 X510.3688 Y175.3971
G1 X510.8659 Y175.7511
G1 X511.3722 Y176.0985
G1 X511.8844 Y176.4378
G1 X512.4001 Y176.7669
G1 X512.9222 Y177.0864
G1 X513.4499 Y177.3977
G1 X513.9823 Y177.6984
G1 X514.5211 Y177.9908
G1 X515.0654 Y178.2741
G1 X515.6135 Y178.5476
G1 X516.1661 Y178.8111
G1 X516.7234 Y179.0653
G1 X517.2861 Y179.3098
G1 X517.8506 Y179.5442
G1 X518.4196 Y179.7676
G1 X518.9952 Y179.9828
G1 X519.5731 Y180.1875
G1 X520.1531 Y180.3817
G1 X520.7384 Y180.566
G1 X521.3261 Y180.7404
G1 X521.9148 Y180.9039
G1 X522.5096 Y181.0572
G1 X523.1035 Y181.2006
G1 X523.7016 Y181.3322
G1 X524.3032 Y181.4551
G1 X524.905 Y181.5665
G1 X525.5091 Y181.6678
G1 X526.1153 Y181.7581
G1 X526.7227 Y181.8383
G1 X527.3307 Y181.9073
G1 X527.9407 Y181.9663
G1 X528.5517 Y182.0142
G1 X529.1639 Y182.052
G1 X529.7738 Y182.0787
G1 X530.3869 Y182.0943
G1 X531.0 Y182.0999
G1 X531.6131 Y182.0943
G1 X532.2262 Y182.0787
G1 X532.8361 Y182.052
G1 X533.4483 Y182.0142
G1 X534.0593 Y181.9663
G1 X534.6693 Y181.9073
G1 X535.2773 Y181.8383
G1 X535.8847 Y181.7581
G1 X536.4909 Y181.6678
G1 X537.095 Y181.5665
G1 X537.6968 Y181.4551
G1 X538.2984 Y181.3322
G1 X538.8965 Y181.2006
G1 X539.4904 Y181.0572
G1 X540.0852 Y180.9039
G1 X540.6739 Y180.7404
G1 X541.2616 Y180.566
G1 X541.8469 Y180.3817
G1 X542.4269 Y180.1875
G1 X543.0048 Y179.9828
G1 X543.5804 Y179.7676
G1 X544.1494 Y179.5442
G1 X544.7139 Y179.3098
G1 X545.2766 Y179.0653
G1 X545.8339 Y178.8111
G1 X546.3865 Y178.5476
G1 X546.9346 Y178.2741
G1 X547.4789 Y177.9908
G1 X548.0177 Y177.6984
G1 X548.5501 Y177.3977
G1 X549.0778 Y177.0864
G1 X549.5999 Y176.7669
G1 X550.1156 Y176.4378
G1 X550.6278 Y176.0985
G1 X551.1341 Y175.7511
G1 X551.6312 Y175.3971
G1 X552.1225 Y175.0328
G1 X552.6096 Y174.6591
G1 X553.0883 Y174.278
G1 X553.5616 Y173.8877
G1 X554.0287 Y173.4889
G1 X554.4873 Y173.0838
G1 X554.9372 Y172.6715
G1 X555.3822 Y172.2487
G1 X555.8196 Y171.8196
G1 X556.2487 Y171.3822
G1 X556.6715 Y170.9372
G1 X557.0838 Y170.4873
G1 X557.4889 Y170.0287
G1 X557.8877 Y169.5616
G1 X558.278 Y169.0883
G1 X558.6591 Y168.6096
G1 X559.0328 Y168.1225
G1 X559.3971 Y167.6312
G1 X559.7511 Y167.1341
G1 X560.0985 Y166.6278
G1 X560.4378 Y166.1156
G1 X560.7669 Y165.5999
G1 X561.0864 Y165.0778
G1 X561.3977 Y164.5501
G1 X561.6984 Y164.0177
G1 X561.9908 Y163.4789
G1 X562.2741 Y162.9346
G1 X562.5476 Y162.3865
G1 X562.8111 Y161.8339
G1 X563.0653 Y161.2766
G1 X563.3098 Y160.7139
G1 X563.5442 Y160.1494
G1 X563.7676 Y159.5804
G1 X563.9828 Y159.0048
G1 X564.1875 Y158.4269
G1 X564.3817 Y157.8469
G1 X564.566 Y157.2616
G1 X564.7404 Y156.6739
G1 X564.9039 Y156.0852
G1 X565.0567 Y155.4926
G1 X565.1997 Y154.8965
G1 X565.3327 Y154.2963
G1 X565.4551 Y153.6968
G1 X565.5665 Y153.095
G1 X565.6678 Y152.4909
G1 X565.7581 Y151.8847
G1 X565.8383 Y151.2773
G1 X565.9078 Y150.6654
G1 X578.8 Y20.8514
G1 Y20.0
G3 X581.8 Y17.0 I3.0 J0.0
G1 X994.55
G3 X997.55 Y20.0 I0.0 J3.0
G1 Y55.1
G1 X996.6713 Y55.9787
G1 X997.55 Y55.1
G1 X1010.6
G1 X1011.4787 Y55.9787
G1 X1010.6 Y55.1
G1 Y20.0
G3 X1013.6 Y17.0 I3.0 J0.0
G1 X1039.0
G3 X1042.0 Y20.0 I0.0 J3.0
G1 Y83.5
G3 X1039.0 Y86.5 I-3.0 J0.0
G1 X997.55
G1 X996.6713 Y85.6213
G1 X997.55 Y86.5
G1 Y108.9
G3 X994.55 Y111.9 I-3.0 J0.0
G1 X757.52
G1 X756.6413 Y111.0213
G1 X757.52 Y111.9
G1 Y657.08
G1 X756.6413 Y657.9587
G1 X757.52 Y657.08
G1 X994.55
G3 X997.55 Y660.08 I0.0 J3.0
G1 Y695.18
G1 X996.6713 Y696.0587
G1 X997.55 Y695.18
G1 X1010.6
G1 X1011.4787 Y696.0587
G1 X1010.6 Y695.18
G1 Y660.08
G3 X1013.6 Y657.08 I3.0 J0.0
G1 X1039.0
G3 X1042.0 Y660.08 I0.0 J3.0
G1 Y723.58
G3 X1039.0 Y726.58 I-3.0 J0.0
G1 X997.55
G1 X996.6713 Y725.7013
G1 X997.55 Y726.58
G1 Y807.4
G3 X994.55 Y810.4 I-3.0 J0.0
G1 X67.45
G3 X64.45 Y807.4 I0.0 J-3.0
G1 Y726.58
G1 X65.3287 Y725.7013
G1 X64.45 Y726.58
G1 X23.0
G3 X20.0 Y723.58 I0.0 J-3.0
G1 Y660.08
G3 X23.0 Y657.08 I3.0 J0.0
G1 X48.4
G3 X51.4 Y660.08 I0.0 J3.0
G1 Y695.18
G1 X50.5213 Y696.0587
G1 X51.4 Y695.18
G1 X64.45
G1 X65.3287 Y696.0587
G1 X64.45 Y695.18
G1 Y660.08
G3 X67.45 Y657.08 I3.0 J0.0
G1 X304.48
G1 X305.3587 Y657.9587
G1 X304.48 Y657.08
G1 Y111.9
G1 X305.3587 Y111.0213
G1 X304.48 Y111.9
G1 X67.45
G3 X64.45 Y108.9 I0.0 J-3.0
G1 Y86.5
G1 X65.3287 Y85.6213
G1 X64.45 Y86.5
G1 X23.0
G3 X20.0 Y83.5 I0.0 J-3.0
G1 Y20.0
G3 X23.0 Y17.0 I3.0 J0.0
G1 X48.4
G3 X51.4 Y20.0 I0.0 J3.0
G1 Y55.1
G1 X50.5213 Y55.9787
G1 X51.4 Y55.1
G1 F300.0 Z-9.0
G1 F800.0 X64.45
G1 X65.3287 Y55.9787
G1 X64.45 Y55.1
G1 Y20.0
G3 X67.45 Y17.0 I3.0 J0.0
G1 X480.2
G3 X483.2 Y20.0 I0.0 J3.0
G1 Y20.8514
G1 X496.0922 Y150.6654
G1 X496.1617 Y151.2773
G1 X496.2419 Y151.8847
G1 X496.3322 Y152.4909
G1 X496.4335 Y153.095
G1 X496.5449 Y153.6968
G1 X496.6678 Y154.2984
G1 X496.7994 Y154.8965
G1 X496.9428 Y155.4904
G1 X497.0961 Y156.0852
G1 X497.2596 Y156.6739
G1 X497.434 Y157.2616
G1 X497.6183 Y157.8469
G1 X497.8125 Y158.4269
G1 X498.0172 Y159.0048
G1 X498.2324 Y159.5804
G1 X498.4558 Y160.1494
G1 X498.6902 Y160.7139
G1 X498.9347 Y161.2766
G1 X499.1889 Y161.8339
G1 X499.4524 Y162.3865
G1 X499.7259 Y162.9346
G1 X500.0092 Y163.4789
G1 X500.3016 Y164.0177
G1 X500.6023 Y164.5501
G1 X500.9136 Y165.0778
G1 X501.2331 Y165.5999
G1 X501.5622 Y166.1156
G1 X501.9015 Y166.6278
G1 X502.2489 Y167.1341
G1 X502.6029 Y167.6312
G1 X502.9672 Y168.1225
G1 X503.3409 Y168.6096
G1 X503.722 Y169.0883
G1 X504.1123 Y169.5616
G1 X504.5111 Y170.0287
G1 X504.9162 Y170.4873
G1 X505.3285 Y170.9372
G1 X505.7513 Y171.3822
G1 X506.1804 Y171.8196
G1 X506.6178 Y172.2487
G1 X507.0628 Y172.6715
G1 X507.5127 Y173.0838
G1 X507.9713 Y173.4889
G1 X508.4384 Y173.8877
G1 X508.9117 Y174.278
G1 X509.3904 Y174.6591
G1 X509.8775 Y175.0328
G1 X510.3688 Y175.3971
G1 X510.8659 Y175.7511
G1 X511.3722 Y176.0985
G1 X511.8844 Y176.4378
G1 X512.4001 Y176.7669
G1 X512.9222 Y177.0864
G1 X513.4499 Y177.3977
G1 X513.9823 Y177.6984
G1 X514.5211 Y177.9908
G1 X515.0654 Y178.2741
G1 X515.6135 Y178.5476
G1 X516.1661 Y178.8111
G1 X516.7234 Y179.0653
G1 X517.2861 Y179.3098
G1 X517.8506 Y179.5442
G1 X518.4196 Y179.7676
G1 X518.9952 Y179.9828
G1 X519.5731 Y180.1875
G1 X520.1531 Y180.3817
G1 X520.7384 Y180.566
G1 X521.3261 Y180.7404
G1 X521.9148 Y180.9039
G1 X522.5096 Y181.0572
G1 X523.1035 Y181.2006
G1 X523.7016 Y181.3322
G1 X524.3032 Y181.4551
G1 X524.905 Y181.5665
G1 X525.5091 Y181.6678
G1 X526.1153 Y181.7581
G1 X526.7227 Y181.8383
G1 X527.3307 Y181.9073
G1 X527.9407 Y181.9663
G1 X528.5517 Y182.0142
G1 X529.1639 Y182.052
G1 X529.7738 Y182.0787
G1 X530.3869 Y182.0943
G1 X531.0 Y182.0999
G1 X531.6131 Y182.0943
G1 X532.2262 Y182.0787
G1 X532.8361 Y182.052
G1 X533.4483 Y182.0142
G1 X534.0593 Y181.9663
G1 X534.6693 Y181.9073
G1 X535.2773 Y181.8383
G1 X535.8847 Y181.7581
G1 X536.4909 Y181.6678
G1 X537.095 Y181.5665
G1 X537.6968 Y181.4551
G1 X538.2984 Y181.3322
G1 X538.8965 Y181.2006
G1 X539.4904 Y181.0572
G1 X540.0852 Y180.9039
G1 X540.6739 Y180.7404
G1 X541.2616 Y180.566
G1 X541.8469 Y180.3817
G1 X542.4269 Y180.1875
G1 X543.0048 Y179.9828
G1 X543.5804 Y179.7676
G1 X544.1494 Y179.5442
G1 X544.7139 Y179.3098
G1 X545.2766 Y179.0653
G1 X545.8339 Y178.8111
G1 X546.3865 Y178.5476
G1 X546.9346 Y178.2741
G1 X547.4789 Y177.9908
G1 X548.0177 Y177.6984
G1 X548.5501 Y177.3977
G1 X549.0778 Y177.0864
G1 X549.5999 Y176.7669
G1 X550.1156 Y176.4378
G1 X550.6278 Y176.0985
G1 X551.1341 Y175.7511
G1 X551.6312 Y175.3971
G1 X552.1225 Y175.0328
G1 X552.6096 Y174.6591
G1 X553.0883 Y174.278
G1 X553.5616 Y173.8877
G1 X554.0287 Y173.4889
G1 X554.4873 Y173.0838
G1 X554.9372 Y172.6715
G1 X555.3822 Y172.2487
G1 X555.8196 Y171.8196
G1 X556.2487 Y171.3822
G1 X556.6715 Y170.9372
G1 X557.0838 Y170.4873
G1 X557.4889 Y170.0287
G1 X557.8877 Y169.5616
G1 X558.278 Y169.0883
G1 X558.6591 Y168.6096
G1 X559.0328 Y168.1225
G1 X559.3971 Y167.6312
G1 X559.7511 Y167.1341
G1 X560.0985 Y166.6278
G1 X560.4378 Y166.1156
G1 X560.7669 Y165.5999
G1 X561.0864 Y165.0778
G1 X561.3977 Y164.5501
G1 X561.6984 Y164.0177
G1 X561.9908 Y163.4789
G1 X562.2741 Y162.9346
G1 X562.5476 Y162.3865
G1 X562.8111 Y161.8339
G1 X563.0653 Y161.2766
G1 X563.3098 Y160.7139
G1 X563.5442 Y160.1494
G1 X563.7676 Y159.5804
G1 X563.9828 Y159.0048
G1 X564.1875 Y158.4269
G1 X564.3817 Y157.8469
G1 X564.566 Y157.2616
G1 X564.7404 Y156.6739
G1 X564.9039 Y156.0852
G1 X565.0567 Y155.4926
G1 X565.1997 Y154.8965
G1 X565.3327 Y154.2963
G1 X565.4551 Y153.6968
G1 X565.5665 Y153.095
G1 X565.6678 Y152.4909
G1 X565.7581 Y151.8847
G1 X565.8383 Y151.2773
G1 X565.9078 Y150.6654
G1 X578.8 Y20.8514
G1 Y20.0
G3 X581.8 Y17.0 I3.0 J0.0
G1 X994.55
G3 X997.55 Y20.0 I0.0 J3.0
G1 Y55.1
G1 X996.6713 Y55.9787
G1 X997.55 Y55.1
G1 X1010.6
G1 X1011.4787 Y55.9787
G1 X1010.6 Y55.1
G1 Y20.0
G3 X1013.6 Y17.0 I3.0 J0.0
G1 X1039.0
G3 X1042.0 Y20.0 I0.0 J3.0
G1 Y83.5
G3 X1039.0 Y86.5 I-3.0 J0.0
G1 X997.55
G1 X996.6713 Y85.6213
G1 X997.55 Y86.5
G1 Y108.9
G3 X994.55 Y111.9 I-3.0 J0.0
G1 X757.52
G1 X756.6413 Y111.0213
G1 X757.52 Y111.9
G1 Y657.08
G1 X756.6413 Y657.9587
G1 X757.52 Y657.08
G1 X994.55
G3 X997.55 Y660.08 I0.0 J3.0
G1 Y695.18
G1 X996.6713 Y696.0587
G1 X997.55 Y695.18
G1 X1010.6
G1 X1011.4787 Y696.0587
G1 X1010.6 Y695.18
G1 Y660.08
G3 X1013.6 Y657.08 I3.0 J0.0
G1 X1039.0
G3 X1042.0 Y660.08 I0.0 J3.0
G1 Y723.58
G3 X1039.0 Y726.58 I-3.0 J0.0
G1 X997.55
G1 X996.6713 Y725.7013
G1 X997.55 Y726.58
G1 Y807.4
G3 X994.55 Y810.4 I-3.0 J0.0
G1 X67.45
G3 X64.45 Y807.4 I0.0 J-3.0
G1 Y726.58
G1 X65.3287 Y725.7013
G1 X64.45 Y726.58
G1 X23.0
G3 X20.0 Y723.58 I0.0 J-3.0
G1 Y660.08
G3 X23.0 Y657.08 I3.0 J0.0
G1 X48.4
G3 X51.4 Y660.08 I0.0 J3.0
G1 Y695.18
G1 X50.5213 Y696.0587
G1 X51.4 Y695.18
G1 X64.45
G1 X65.3287 Y696.0587
G1 X64.45 Y695.18
G1 Y660.08
G3 X67.45 Y657.08 I3.0 J0.0
G1 X304.48
G1 X305.3587 Y657.9587
G1 X304.48 Y657.08
G1 Y111.9
G1 X305.3587 Y111.0213
G1 X304.48 Y111.9
G1 X67.45
G3 X64.45 Y108.9 I0.0 J-3.0
G1 Y86.5
G1 X65.3287 Y85.6213
G1 X64.45 Y86.5
G1 X23.0
G3 X20.0 Y83.5 I0.0 J-3.0
G1 Y20.0
G3 X23.0 Y17.0 I3.0 J0.0
G1 X48.4
G3 X51.4 Y20.0 I0.0 J3.0
G1 Y55.1
G1 X50.5213 Y55.9787
G1 X51.4 Y55.1
G1 F300.0 Z-10.0
G1 F800.0 X64.45
G1 X65.3287 Y55.9787
G1 X64.45 Y55.1
G1 Y20.0
G3 X67.45 Y17.0 I3.0 J0.0
G1 X480.2
G3 X483.2 Y20.0 I0.0 J3.0
G1 Y20.8514
G1 X496.0922 Y150.6654
G1 X496.1617 Y151.2773
G1 X496.2419 Y151.8847
G1 X496.3322 Y152.4909
G1 X496.4335 Y153.095
G1 X496.5449 Y153.6968
G1 X496.6678 Y154.2984
G1 X496.7994 Y154.8965
G1 X496.9428 Y155.4904
G1 X497.0961 Y156.0852
G1 X497.2596 Y156.6739
G1 X497.434 Y157.2616
G1 X497.6183 Y157.8469
G1 X497.8125 Y158.4269
G1 X498.0172 Y159.0048
G1 X498.2324 Y159.5804
G1 X498.4558 Y160.1494
G1 X498.6902 Y160.7139
G1 X498.9347 Y161.2766
G1 X499.1889 Y161.8339
G1 X499.4524 Y162.3865
G1 X499.7259 Y162.9346
G1 X500.0092 Y163.4789
G1 X500.3016 Y164.0177
G1 X500.6023 Y164.5501
G1 X500.9136 Y165.0778
G1 X501.2331 Y165.5999
G1 X501.5622 Y166.1156
G1 X501.9015 Y166.6278
G1 X502.2489 Y167.1341
G1 X502.6029 Y167.6312
G1 X502.9672 Y168.1225
G1 X503.3409 Y168.6096
G1 X503.722 Y169.0883
G1 X504.1123 Y169.5616
G1 X504.5111 Y170.0287
G1 X504.9162 Y170.4873
G1 X505.3285 Y170.9372
G1 X505.7513 Y171.3822
G1 X506.1804 Y171.8196
G1 X506.6178 Y172.2487
G1 X507.0628 Y172.6715
G1 X507.5127 Y173.0838
G1 X507.9713 Y173.4889
G1 X508.4384 Y173.8877
G1 X508.9117 Y174.278
G1 X509.3904 Y174.6591
G1 X509.8775 Y175.0328
G1 X510.3688 Y175.3971
G1 X510.8659 Y175.7511
G1 X511.3722 Y176.0985
G1 X511.8844 Y176.4378
G1 X512.4001 Y176.7669
G1 X512.9222 Y177.0864
G1 X513.4499 Y177.3977
G1 X513.9823 Y177.6984
G1 X514.5211 Y177.9908
G1 X515.0654 Y178.2741
G1 X515.6135 Y178.5476
G1 X516.1661 Y178.8111
G1 X516.7234 Y179.0653
G1 X517.2861 Y179.3098
G1 X517.8506 Y179.5442
G1 X518.4196 Y179.7676
G1 X518.9952 Y179.9828
G1 X519.5731 Y180.1875
G1 X520.1531 Y180.3817
G1 X520.7384 Y180.566
G1 X521.3261 Y180.7404
G1 X521.9148 Y180.9039
G1 X522.5096 Y181.0572
G1 X523.1035 Y181.2006
G1 X523.7016 Y181.3322
G1 X524.3032 Y181.4551
G1 X524.905 Y181.5665
G1 X525.5091 Y181.6678
G1 X526.1153 Y181.7581
G1 X526.7227 Y181.8383
G1 X527.3307 Y181.9073
G1 X527.9407 Y181.9663
G1 X528.5517 Y182.0142
G1 X529.1639 Y182.052
G1 X529.7738 Y182.0787
G1 X530.3869 Y182.0943
G1 X531.0 Y182.0999
G1 X531.6131 Y182.0943
G1 X532.2262 Y182.0787
G1 X532.8361 Y182.052
G1 X533.4483 Y182.0142
G1 X534.0593 Y181.9663
G1 X534.6693 Y181.9073
G1 X535.2773 Y181.8383
G1 X535.8847 Y181.7581
G1 X536.4909 Y181.6678
G1 X537.095 Y181.5665
G1 X537.6968 Y181.4551
G1 X538.2984 Y181.3322
G1 X538.8965 Y181.2006
G1 X539.4904 Y181.0572
G1 X540.0852 Y180.9039
G1 X540.6739 Y180.7404
G1 X541.2616 Y180.566
G1 X541.8469 Y180.3817
G1 X542.4269 Y180.1875
G1 X543.0048 Y179.9828
G1 X543.5804 Y179.7676
G1 X544.1494 Y179.5442
G1 X544.7139 Y179.3098
G1 X545.2766 Y179.0653
G1 X545.8339 Y178.8111
G1 X546.3865 Y178.5476
G1 X546.9346 Y178.2741
G1 X547.4789 Y177.9908
G1 X548.0177 Y177.6984
G1 X548.5501 Y177.3977
G1 X549.0778 Y177.0864
G1 X549.5999 Y176.7669
G1 X550.1156 Y176.4378
G1 X550.6278 Y176.0985
G1 X551.1341 Y175.7511
G1 X551.6312 Y175.3971
G1 X552.1225 Y175.0328
G1 X552.6096 Y174.6591
G1 X553.0883 Y174.278
G1 X553.5616 Y173.8877
G1 X554.0287 Y173.4889
G1 X554.4873 Y173.0838
G1 X554.9372 Y172.6715
G1 X555.3822 Y172.2487
G1 X555.8196 Y171.8196
G1 X556.2487 Y171.3822
G1 X556.6715 Y170.9372
G1 X557.0838 Y170.4873
G1 X557.4889 Y170.0287
G1 X557.8877 Y169.5616
G1 X558.278 Y169.0883
G1 X558.6591 Y168.6096
G1 X559.0328 Y168.1225
G1 X559.3971 Y167.6312
G1 X559.7511 Y167.1341
G1 X560.0985 Y166.6278
G1 X560.4378 Y166.1156
G1 X560.7669 Y165.5999
G1 X561.0864 Y165.0778
G1 X561.3977 Y164.5501
G1 X561.6984 Y164.0177
G1 X561.9908 Y163.4789
G1 X562.2741 Y162.9346
G1 X562.5476 Y162.3865
G1 X562.8111 Y161.8339
G1 X563.0653 Y161.2766
G1 X563.3098 Y160.7139
G1 X563.5442 Y160.1494
G1 X563.7676 Y159.5804
G1 X563.9828 Y159.0048
G1 X564.1875 Y158.4269
G1 X564.3817 Y157.8469
G1 X564.566 Y157.2616
G1 X564.7404 Y156.6739
G1 X564.9039 Y156.0852
G1 X565.0567 Y155.4926
G1 X565.1997 Y154.8965
G1 X565.3327 Y154.2963
G1 X565.4551 Y153.6968
G1 X565.5665 Y153.095
G1 X565.6678 Y152.4909
G1 X565.7581 Y151.8847
G1 X565.8383 Y151.2773
G1 X565.9078 Y150.6654
G1 X578.8 Y20.8514
G1 Y20.0
G3 X581.8 Y17.0 I3.0 J0.0
G1 X994.55
G3 X997.55 Y20.0 I0.0 J3.0
G1 Y55.1
G1 X996.6713 Y55.9787
G1 X997.55 Y55.1
G1 X1010.6
G1 X1011.4787 Y55.9787
G1 X1010.6 Y55.1
G1 Y20.0
G3 X1013.6 Y17.0 I3.0 J0.0
G1 X1039.0
G3 X1042.0 Y20.0 I0.0 J3.0
G1 Y83.5
G3 X1039.0 Y86.5 I-3.0 J0.0
G1 X997.55
G1 X996.6713 Y85.6213
G1 X997.55 Y86.5
G1 Y108.9
G3 X994.55 Y111.9 I-3.0 J0.0
G1 X757.52
G1 X756.6413 Y111.0213
G1 X757.52 Y111.9
G1 Y657.08
G1 X756.6413 Y657.9587
G1 X757.52 Y657.08
G1 X994.55
G3 X997.55 Y660.08 I0.0 J3.0
G1 Y695.18
G1 X996.6713 Y696.0587
G1 X997.55 Y695.18
G1 X1010.6
G1 X1011.4787 Y696.0587
G1 X1010.6 Y695.18
G1 Y660.08
G3 X1013.6 Y657.08 I3.0 J0.0
G1 X1039.0
G3 X1042.0 Y660.08 I0.0 J3.0
G1 Y723.58
G3 X1039.0 Y726.58 I-3.0 J0.0
G1 X997.55
G1 X996.6713 Y725.7013
G1 X997.55 Y726.58
G1 Y807.4
G3 X994.55 Y810.4 I-3.0 J0.0
G1 X67.45
G3 X64.45 Y807.4 I0.0 J-3.0
G1 Y726.58
G1 X65.3287 Y725.7013
G1 X64.45 Y726.58
G1 X23.0
G3 X20.0 Y723.58 I0.0 J-3.0
G1 Y660.08
G3 X23.0 Y657.08 I3.0 J0.0
G1 X48.4
G3 X51.4 Y660.08 I0.0 J3.0
G1 Y695.18
G1 X50.5213 Y696.0587
G1 X51.4 Y695.18
G1 X64.45
G1 X65.3287 Y696.0587
G1 X64.45 Y695.18
G1 Y660.08
G3 X67.45 Y657.08 I3.0 J0.0
G1 X304.48
G1 X305.3587 Y657.9587
G1 X304.48 Y657.08
G1 Y111.9
G1 X305.3587 Y111.0213
G1 X304.48 Y111.9
G1 X67.45
G3 X64.45 Y108.9 I0.0 J-3.0
G1 Y86.5
G1 X65.3287 Y85.6213
G1 X64.45 Y86.5
G1 X23.0
G3 X20.0 Y83.5 I0.0 J-3.0
G1 Y20.0
G3 X23.0 Y17.0 I3.0 J0.0
G1 X48.4
G3 X51.4 Y20.0 I0.0 J3.0
G1 Y55.1
G1 X50.5213 Y55.9787
G1 X51.4 Y55.1
G1 F300.0 Z-11.0
G1 F800.0 X64.45
G1 X65.3287 Y55.9787
G1 X64.45 Y55.1
G1 Y20.0
G3 X67.45 Y17.0 I3.0 J0.0
G1 X480.2
G3 X483.2 Y20.0 I0.0 J3.0
G1 Y20.8514
G1 X496.0922 Y150.6654
G1 X496.1617 Y151.2773
G1 X496.2419 Y151.8847
G1 X496.3322 Y152.4909
G1 X496.4335 Y153.095
G1 X496.5449 Y153.6968
G1 X496.6678 Y154.2984
G1 X496.7994 Y154.8965
G1 X496.9428 Y155.4904
G1 X497.0961 Y156.0852
G1 X497.2596 Y156.6739
G1 X497.434 Y157.2616
G1 X497.6183 Y157.8469
G1 X497.8125 Y158.4269
G1 X498.0172 Y159.0048
G1 X498.2324 Y159.5804
G1 X498.4558 Y160.1494
G1 X498.6902 Y160.7139
G1 X498.9347 Y161.2766
G1 X499.1889 Y161.8339
G1 X499.4524 Y162.3865
G1 X499.7259 Y162.9346
G1 X500.0092 Y163.4789
G1 X500.3016 Y164.0177
G1 X500.6023 Y164.5501
G1 X500.9136 Y165.0778
G1 X501.2331 Y165.5999
G1 X501.5622 Y166.1156
G1 X501.9015 Y166.6278
G1 X502.2489 Y167.1341
G1 X502.6029 Y167.6312
G1 X502.9672 Y168.1225
G1 X503.3409 Y168.6096
G1 X503.722 Y169.0883
G1 X504.1123 Y169.5616
G1 X504.5111 Y170.0287
G1 X504.9162 Y170.4873
G1 X505.3285 Y170.9372
G1 X505.7513 Y171.3822
G1 X506.1804 Y171.8196
G1 X506.6178 Y172.2487
G1 X507.0628 Y172.6715
G1 X507.5127 Y173.0838
G1 X507.9713 Y173.4889
G1 X508.4384 Y173.8877
G1 X508.9117 Y174.278
G1 X509.3904 Y174.6591
G1 X509.8775 Y175.0328
G1 X510.3688 Y175.3971
G1 X510.8659 Y175.7511
G1 X511.3722 Y176.0985
G1 X511.8844 Y176.4378
G1 X512.4001 Y176.7669
G1 X512.9222 Y177.0864
G1 X513.4499 Y177.3977
G1 X513.9823 Y177.6984
G1 X514.5211 Y177.9908
G1 X515.0654 Y178.2741
G1 X515.6135 Y178.5476
G1 X516.1661 Y178.8111
G1 X516.7234 Y179.0653
G1 X517.2861 Y179.3098
G1 X517.8506 Y179.5442
G1 X518.4196 Y179.7676
G1 X518.9952 Y179.9828
G1 X519.5731 Y180.1875
G1 X520.1531 Y180.3817
G1 X520.7384 Y180.566
G1 X521.3261 Y180.7404
G1 X521.9148 Y180.9039
G1 X522.5096 Y181.0572
G1 X523.1035 Y181.2006
G1 X523.7016 Y181.3322
G1 X524.3032 Y181.4551
G1 X524.905 Y181.5665
G1 X525.5091 Y181.6678
G1 X526.1153 Y181.7581
G1 X526.7227 Y181.8383
G1 X527.3307 Y181.9073
G1 X527.9407 Y181.9663
G1 X528.5517 Y182.0142
G1 X529.1639 Y182.052
G1 X529.7738 Y182.0787
G1 X530.3869 Y182.0943
G1 X531.0 Y182.0999
G1 X531.6131 Y182.0943
G1 X532.2262 Y182.0787
G1 X532.8361 Y182.052
G1 X533.4483 Y182.0142
G1 X534.0593 Y181.9663
G1 X534.6693 Y181.9073
G1 X535.2773 Y181.8383
G1 X535.8847 Y181.7581
G1 X536.4909 Y181.6678
G1 X537.095 Y181.5665
G1 X537.6968 Y181.4551
G1 X538.2984 Y181.3322
G1 X538.8965 Y181.2006
G1 X539.4904 Y181.0572
G1 X540.0852 Y180.9039
G1 X540.6739 Y180.7404
G1 X541.2616 Y180.566
G1 X541.8469 Y180.3817
G1 X542.4269 Y180.1875
G1 X543.0048 Y179.9828
G1 X543.5804 Y179.7676
G1 X544.1494 Y179.5442
G1 X544.7139 Y179.3098
G1 X545.2766 Y179.0653
G1 X545.8339 Y178.8111
G1 X546.3865 Y178.5476
G1 X546.9346 Y178.2741
G1 X547.4789 Y177.9908
G1 X548.0177 Y177.6984
G1 X548.5501 Y177.3977
G1 X549.0778 Y177.0864
G1 X549.5999 Y176.7669
G1 X550.1156 Y176.4378
G1 X550.6278 Y176.0985
G1 X551.1341 Y175.7511
G1 X551.6312 Y175.3971
G1 X552.1225 Y175.0328
G1 X552.6096 Y174.6591
G1 X553.0883 Y174.278
G1 X553.5616 Y173.8877
G1 X554.0287 Y173.4889
G1 X554.4873 Y173.0838
G1 X554.9372 Y172.6715
G1 X555.3822 Y172.2487
G1 X555.8196 Y171.8196
G1 X556.2487 Y171.3822
G1 X556.6715 Y170.9372
G1 X557.0838 Y170.4873
G1 X557.4889 Y170.0287
G1 X557.8877 Y169.5616
G1 X558.278 Y169.0883
G1 X558.6591 Y168.6096
G1 X559.0328 Y168.1225
G1 X559.3971 Y167.6312
G1 X559.7511 Y167.1341
G1 X560.0985 Y166.6278
G1 X560.4378 Y166.1156
G1 X560.7669 Y165.5999
G1 X561.0864 Y165.0778
G1 X561.3977 Y164.5501
G1 X561.6984 Y164.0177
G1 X561.9908 Y163.4789
G1 X562.2741 Y162.9346
G1 X562.5476 Y162.3865
G1 X562.8111 Y161.8339
G1 X563.0653 Y161.2766
G1 X563.3098 Y160.7139
G1 X563.5442 Y160.1494
G1 X563.7676 Y159.5804
G1 X563.9828 Y159.0048
G1 X564.1875 Y158.4269
G1 X564.3817 Y157.8469
G1 X564.566 Y157.2616
G1 X564.7404 Y156.6739
G1 X564.9039 Y156.0852
G1 X565.0567 Y155.4926
G1 X565.1997 Y154.8965
G1 X565.3327 Y154.2963
G1 X565.4551 Y153.6968
G1 X565.5665 Y153.095
G1 X565.6678 Y152.4909
G1 X565.7581 Y151.8847
G1 X565.8383 Y151.2773
G1 X565.9078 Y150.6654
G1 X578.8 Y20.8514
G1 Y20.0
G3 X581.8 Y17.0 I3.0 J0.0
G1 X994.55
G3 X997.55 Y20.0 I0.0 J3.0
G1 Y55.1
G1 X996.6713 Y55.9787
G1 X997.55 Y55.1
G1 X1010.6
G1 X1011.4787 Y55.9787
G1 X1010.6 Y55.1
G1 Y20.0
G3 X1013.6 Y17.0 I3.0 J0.0
G1 X1039.0
G3 X1042.0 Y20.0 I0.0 J3.0
G1 Y83.5
G3 X1039.0 Y86.5 I-3.0 J0.0
G1 X997.55
G1 X996.6713 Y85.6213
G1 X997.55 Y86.5
G1 Y108.9
G3 X994.55 Y111.9 I-3.0 J0.0
G1 X757.52
G1 X756.6413 Y111.0213
G1 X757.52 Y111.9
G1 Y657.08
G1 X756.6413 Y657.9587
G1 X757.52 Y657.08
G1 X994.55
G3 X997.55 Y660.08 I0.0 J3.0
G1 Y695.18
G1 X996.6713 Y696.0587
G1 X997.55 Y695.18
G1 X1010.6
G1 X1011.4787 Y696.0587
G1 X1010.6 Y695.18
G1 Y660.08
G3 X1013.6 Y657.08 I3.0 J0.0
G1 X1039.0
G3 X1042.0 Y660.08 I0.0 J3.0
G1 Y723.58
G3 X1039.0 Y726.58 I-3.0 J0.0
G1 X997.55
G1 X996.6713 Y725.7013
G1 X997.55 Y726.58
G1 Y807.4
G3 X994.55 Y810.4 I-3.0 J0.0
G1 X67.45
G3 X64.45 Y807.4 I0.0 J-3.0
G1 Y726.58
G1 X65.3287 Y725.7013
G1 X64.45 Y726.58
G1 X23.0
G3 X20.0 Y723.58 I0.0 J-3.0
G1 Y660.08
G3 X23.0 Y657.08 I3.0 J0.0
G1 X48.4
G3 X51.4 Y660.08 I0.0 J3.0
G1 Y695.18
G1 X50.5213 Y696.0587
G1 X51.4 Y695.18
G1 X64.45
G1 X65.3287 Y696.0587
G1 X64.45 Y695.18
G1 Y660.08
G3 X67.45 Y657.08 I3.0 J0.0
G1 X304.48
G1 X305.3587 Y657.9587
G1 X304.48 Y657.08
G1 Y111.9
G1 X305.3587 Y111.0213
G1 X304.48 Y111.9
G1 X67.45
G3 X64.45 Y108.9 I0.0 J-3.0
G1 Y86.5
G1 X65.3287 Y85.6213
G1 X64.45 Y86.5
G1 X23.0
G3 X20.0 Y83.5 I0.0 J-3.0
G1 Y20.0
G3 X23.0 Y17.0 I3.0 J0.0
G1 X48.4
G3 X51.4 Y20.0 I0.0 J3.0
G1 Y55.1
G1 X50.5213 Y55.9787
G1 X51.4 Y55.1
G1 F300.0 Z-12.0
G1 F800.0 X64.45
G1 X65.3287 Y55.9787
G1 X64.45 Y55.1
G1 Y20.0
G3 X67.45 Y17.0 I3.0 J0.0
G1 X480.2
G3 X483.2 Y20.0 I0.0 J3.0
G1 Y20.8514
G1 X496.0922 Y150.6654
G1 X496.1617 Y151.2773
G1 X496.2419 Y151.8847
G1 X496.3322 Y152.4909
G1 X496.4335 Y153.095
G1 X496.5449 Y153.6968
G1 X496.6678 Y154.2984
G1 X496.7994 Y154.8965
G1 X496.9428 Y155.4904
G1 X497.0961 Y156.0852
G1 X497.2596 Y156.6739
G1 X497.434 Y157.2616
G1 X497.6183 Y157.8469
G1 X497.8125 Y158.4269
G1 X498.0172 Y159.0048
G1 X498.2324 Y159.5804
G1 X498.4558 Y160.1494
G1 X498.6902 Y160.7139
G1 X498.9347 Y161.2766
G1 X499.1889 Y161.8339
G1 X499.4524 Y162.3865
G1 X499.7259 Y162.9346
G1 X500.0092 Y163.4789
G1 X500.3016 Y164.0177
G1 X500.6023 Y164.5501
G1 X500.9136 Y165.0778
G1 X501.2331 Y165.5999
G1 X501.5622 Y166.1156
G1 X501.9015 Y166.6278
G1 X502.2489 Y167.1341
G1 X502.6029 Y167.6312
G1 X502.9672 Y168.1225
G1 X503.3409 Y168.6096
G1 X503.722 Y169.0883
G1 X504.1123 Y169.5616
G1 X504.5111 Y170.0287
G1 X504.9162 Y170.4873
G1 X505.3285 Y170.9372
G1 X505.7513 Y171.3822
G1 X506.1804 Y171.8196
G1 X506.6178 Y172.2487
G1 X507.0628 Y172.6715
G1 X507.5127 Y173.0838
G1 X507.9713 Y173.4889
G1 X508.4384 Y173.8877
G1 X508.9117 Y174.278
G1 X509.3904 Y174.6591
G1 X509.8775 Y175.0328
G1 X510.3688 Y175.3971
G1 X510.8659 Y175.7511
G1 X511.3722 Y176.0985
G1 X511.8844 Y176.4378
G1 X512.4001 Y176.7669
G1 X512.9222 Y177.0864
G1 X513.4499 Y177.3977
G1 X513.9823 Y177.6984
G1 X514.5211 Y177.9908
G1 X515.0654 Y178.2741
G1 X515.6135 Y178.5476
G1 X516.1661 Y178.8111
G1 X516.7234 Y179.0653
G1 X517.2861 Y179.3098
G1 X517.8506 Y179.5442
G1 X518.4196 Y179.7676
G1 X518.9952 Y179.9828
G1 X519.5731 Y180.1875
G1 X520.1531 Y180.3817
G1 X520.7384 Y180.566
G1 X521.3261 Y180.7404
G1 X521.9148 Y180.9039
G1 X522.5096 Y181.0572
G1 X523.1035 Y181.2006
G1 X523.7016 Y181.3322
G1 X524.3032 Y181.4551
G1 X524.905 Y181.5665
G1 X525.5091 Y181.6678
G1 X526.1153 Y181.7581
G1 X526.7227 Y181.8383
G1 X527.3307 Y181.9073
G1 X527.9407 Y181.9663
G1 X528.5517 Y182.0142
G1 X529.1639 Y182.052
G1 X529.7738 Y182.0787
G1 X530.3869 Y182.0943
G1 X531.0 Y182.0999
G1 X531.6131 Y182.0943
G1 X532.2262 Y182.0787
G1 X532.8361 Y182.052
G1 X533.4483 Y182.0142
G1 X534.0593 Y181.9663
G1 X534.6693 Y181.9073
G1 X535.2773 Y181.8383
G1 X535.8847 Y181.7581
G1 X536.4909 Y181.6678
G1 X537.095 Y181.5665
G1 X537.6968 Y181.4551
G1 X538.2984 Y181.3322
G1 X538.8965 Y181.2006
G1 X539.4904 Y181.0572
G1 X540.0852 Y180.9039
G1 X540.6739 Y180.7404
G1 X541.2616 Y180.566
G1 X541.8469 Y180.3817
G1 X542.4269 Y180.1875
G1 X543.0048 Y179.9828
G1 X543.5804 Y179.7676
G1 X544.1494 Y179.5442
G1 X544.7139 Y179.3098
G1 X545.2766 Y179.0653
G1 X545.8339 Y178.8111
G1 X546.3865 Y178.5476
G1 X546.9346 Y178.2741
G1 X547.4789 Y177.9908
G1 X548.0177 Y177.6984
G1 X548.5501 Y177.3977
G1 X549.0778 Y177.0864
G1 X549.5999 Y176.7669
G1 X550.1156 Y176.4378
G1 X550.6278 Y176.0985
G1 X551.1341 Y175.7511
G1 X551.6312 Y175.3971
G1 X552.1225 Y175.0328
G1 X552.6096 Y174.6591
G1 X553.0883 Y174.278
G1 X553.5616 Y173.8877
G1 X554.0287 Y173.4889
G1 X554.4873 Y173.0838
G1 X554.9372 Y172.6715
G1 X555.3822 Y172.2487
G1 X555.8196 Y171.8196
G1 X556.2487 Y171.3822
G1 X556.6715 Y170.9372
G1 X557.0838 Y170.4873
G1 X557.4889 Y170.0287
G1 X557.8877 Y169.5616
G1 X558.278 Y169.0883
G1 X558.6591 Y168.6096
G1 X559.0328 Y168.1225
G1 X559.3971 Y167.6312
G1 X559.7511 Y167.1341
G1 X560.0985 Y166.6278
G1 X560.4378 Y166.1156
G1 X560.7669 Y165.5999
G1 X561.0864 Y165.0778
G1 X561.3977 Y164.5501
G1 X561.6984 Y164.0177
G1 X561.9908 Y163.4789
G1 X562.2741 Y162.9346
G1 X562.5476 Y162.3865
G1 X562.8111 Y161.8339
G1 X563.0653 Y161.2766
G1 X563.3098 Y160.7139
G1 X563.5442 Y160.1494
G1 X563.7676 Y159.5804
G1 X563.9828 Y159.0048
G1 X564.1875 Y158.4269
G1 X564.3817 Y157.8469
G1 X564.566 Y157.2616
G1 X564.7404 Y156.6739
G1 X564.9039 Y156.0852
G1 X565.0567 Y155.4926
G1 X565.1997 Y154.8965
G1 X565.3327 Y154.2963
G1 X565.4551 Y153.6968
G1 X565.5665 Y153.095
G1 X565.6678 Y152.4909
G1 X565.7581 Y151.8847
G1 X565.8383 Y151.2773
G1 X565.9078 Y150.6654
G1 X578.8 Y20.8514
G1 Y20.0
G3 X581.8 Y17.0 I3.0 J0.0
G1 X994.55
G3 X997.55 Y20.0 I0.0 J3.0
G1 Y55.1
G1 X996.6713 Y55.9787
G1 X997.55 Y55.1
G1 X1010.6
G1 X1011.4787 Y55.9787
G1 X1010.6 Y55.1
G1 Y20.0
G3 X1013.6 Y17.0 I3.0 J0.0
G1 X1039.0
G3 X1042.0 Y20.0 I0.0 J3.0
G1 Y83.5
G3 X1039.0 Y86.5 I-3.0 J0.0
G1 X997.55
G1 X996.6713 Y85.6213
G1 X997.55 Y86.5
G1 Y108.9
G3 X994.55 Y111.9 I-3.0 J0.0
G1 X757.52
G1 X756.6413 Y111.0213
G1 X757.52 Y111.9
G1 Y657.08
G1 X756.6413 Y657.9587
G1 X757.52 Y657.08
G1 X994.55
G3 X997.55 Y660.08 I0.0 J3.0
G1 Y695.18
G1 X996.6713 Y696.0587
G1 X997.55 Y695.18
G1 X1010.6
G1 X1011.4787 Y696.0587
G1 X1010.6 Y695.18
G1 Y660.08
G3 X1013.6 Y657.08 I3.0 J0.0
G1 X1039.0
G3 X1042.0 Y660.08 I0.0 J3.0
G1 Y723.58
G3 X1039.0 Y726.58 I-3.0 J0.0
G1 X997.55
G1 X996.6713 Y725.7013
G1 X997.55 Y726.58
G1 Y807.4
G3 X994.55 Y810.4 I-3.0 J0.0
G1 X67.45
G3 X64.45 Y807.4 I0.0 J-3.0
G1 Y726.58
G1 X65.3287 Y725.7013
G1 X64.45 Y726.58
G1 X23.0
G3 X20.0 Y723.58 I0.0 J-3.0
G1 Y660.08
G3 X23.0 Y657.08 I3.0 J0.0
G1 X48.4
G3 X51.4 Y660.08 I0.0 J3.0
G1 Y695.18
G1 X50.5213 Y696.0587
G1 X51.4 Y695.18
G1 X64.45
G1 X65.3287 Y696.0587
G1 X64.45 Y695.18
G1 Y660.08
G3 X67.45 Y657.08 I3.0 J0.0
G1 X304.48
G1 X305.3587 Y657.9587
G1 X304.48 Y657.08
G1 Y111.9
G1 X305.3587 Y111.0213
G1 X304.48 Y111.9
G1 X67.45
G3 X64.45 Y108.9 I0.0 J-3.0
G1 Y86.5
G1 X65.3287 Y85.6213
G1 X64.45 Y86.5
G1 X23.0
G3 X20.0 Y83.5 I0.0 J-3.0
G1 Y20.0
G3 X23.0 Y17.0 I3.0 J0.0
G1 X48.4
G3 X51.4 Y20.0 I0.0 J3.0
G1 Y55.1
G1 X50.5213 Y55.9787
G1 X51.4 Y55.1
G1 F300.0 Z-13.0
G1 F800.0 X64.45
G1 X65.3287 Y55.9787
G1 X64.45 Y55.1
G1 Y20.0
G3 X67.45 Y17.0 I3.0 J0.0
G1 X480.2
G3 X483.2 Y20.0 I0.0 J3.0
G1 Y20.8514
G1 X496.0922 Y150.6654
G1 X496.1617 Y151.2773
G1 X496.2419 Y151.8847
G1 X496.3322 Y152.4909
G1 X496.4335 Y153.095
G1 X496.5449 Y153.6968
G1 X496.6678 Y154.2984
G1 X496.7994 Y154.8965
G1 X496.9428 Y155.4904
G1 X497.0961 Y156.0852
G1 X497.2596 Y156.6739
G1 X497.434 Y157.2616
G1 X497.6183 Y157.8469
G1 X497.8125 Y158.4269
G1 X498.0172 Y159.0048
G1 X498.2324 Y159.5804
G1 X498.4558 Y160.1494
G1 X498.6902 Y160.7139
G1 X498.9347 Y161.2766
G1 X499.1889 Y161.8339
G1 X499.4524 Y162.3865
G1 X499.7259 Y162.9346
G1 X500.0092 Y163.4789
G1 X500.3016 Y164.0177
G1 X500.6023 Y164.5501
G1 X500.9136 Y165.0778
G1 X501.2331 Y165.5999
G1 X501.5622 Y166.1156
G1 X501.9015 Y166.6278
G1 X502.2489 Y167.1341
G1 X502.6029 Y167.6312
G1 X502.9672 Y168.1225
G1 X503.3409 Y168.6096
G1 X503.722 Y169.0883
G1 X504.1123 Y169.5616
G1 X504.5111 Y170.0287
G1 X504.9162 Y170.4873
G1 X505.3285 Y170.9372
G1 X505.7513 Y171.3822
G1 X506.1804 Y171.8196
G1 X506.6178 Y172.2487
G1 X507.0628 Y172.6715
G1 X507.5127 Y173.0838
G1 X507.9713 Y173.4889
G1 X508.4384 Y173.8877
G1 X508.9117 Y174.278
G1 X509.3904 Y174.6591
G1 X509.8775 Y175.0328
G1 X510.3688 Y175.3971
G1 X510.8659 Y175.7511
G1 X511.3722 Y176.0985
G1 X511.8844 Y176.4378
G1 X512.4001 Y176.7669
G1 X512.9222 Y177.0864
G1 X513.4499 Y177.3977
G1 X513.9823 Y177.6984
G1 X514.5211 Y177.9908
G1 X515.0654 Y178.2741
G1 X515.6135 Y178.5476
G1 X516.1661 Y178.8111
G1 X516.7234 Y179.0653
G1 X517.2861 Y179.3098
G1 X517.8506 Y179.5442
G1 X518.4196 Y179.7676
G1 X518.9952 Y179.9828
G1 X519.5731 Y180.1875
G1 X520.1531 Y180.3817
G1 X520.7384 Y180.566
G1 X521.3261 Y180.7404
G1 X521.9148 Y180.9039
G1 X522.5096 Y181.0572
G1 X523.1035 Y181.2006
G1 X523.7016 Y181.3322
G1 X524.3032 Y181.4551
G1 X524.905 Y181.5665
G1 X525.5091 Y181.6678
G1 X526.1153 Y181.7581
G1 X526.7227 Y181.8383
G1 X527.3307 Y181.9073
G1 X527.9407 Y181.9663
G1 X528.5517 Y182.0142
G1 X529.1639 Y182.052
G1 X529.7738 Y182.0787
G1 X530.3869 Y182.0943
G1 X531.0 Y182.0999
G1 X531.6131 Y182.0943
G1 X532.2262 Y182.0787
G1 X532.8361 Y182.052
G1 X533.4483 Y182.0142
G1 X534.0593 Y181.9663
G1 X534.6693 Y181.9073
G1 X535.2773 Y181.8383
G1 X535.8847 Y181.7581
G1 X536.4909 Y181.6678
G1 X537.095 Y181.5665
G1 X537.6968 Y181.4551
G1 X538.2984 Y181.3322
G1 X538.8965 Y181.2006
G1 X539.4904 Y181.0572
G1 X540.0852 Y180.9039
G1 X540.6739 Y180.7404
G1 X541.2616 Y180.566
G1 X541.8469 Y180.3817
G1 X542.4269 Y180.1875
G1 X543.0048 Y179.9828
G1 X543.5804 Y179.7676
G1 X544.1494 Y179.5442
G1 X544.7139 Y179.3098
G1 X545.2766 Y179.0653
G1 X545.8339 Y178.8111
G1 X546.3865 Y178.5476
G1 X546.9346 Y178.2741
G1 X547.4789 Y177.9908
G1 X548.0177 Y177.6984
G1 X548.5501 Y177.3977
G1 X549.0778 Y177.0864
G1 X549.5999 Y176.7669
G1 X550.1156 Y176.4378
G1 X550.6278 Y176.0985
G1 X551.1341 Y175.7511
G1 X551.6312 Y175.3971
G1 X552.1225 Y175.0328
G1 X552.6096 Y174.6591
G1 X553.0883 Y174.278
G1 X553.5616 Y173.8877
G1 X554.0287 Y173.4889
G1 X554.4873 Y173.0838
G1 X554.9372 Y172.6715
G1 X555.3822 Y172.2487
G1 X555.8196 Y171.8196
G1 X556.2487 Y171.3822
G1 X556.6715 Y170.9372
G1 X557.0838 Y170.4873
G1 X557.4889 Y170.0287
G1 X557.8877 Y169.5616
G1 X558.278 Y169.0883
G1 X558.6591 Y168.6096
G1 X559.0328 Y168.1225
G1 X559.3971 Y167.6312
G1 X559.7511 Y167.1341
G1 X560.0985 Y166.6278
G1 X560.4378 Y166.1156
G1 X560.7669 Y165.5999
G1 X561.0864 Y165.0778
G1 X561.3977 Y164.5501
G1 X561.6984 Y164.0177
G1 X561.9908 Y163.4789
G1 X562.2741 Y162.9346
G1 X562.5476 Y162.3865
G1 X562.8111 Y161.8339
G1 X563.0653 Y161.2766
G1 X563.3098 Y160.7139
G1 X563.5442 Y160.1494
G1 X563.7676 Y159.5804
G1 X563.9828 Y159.0048
G1 X564.1875 Y158.4269
G1 X564.3817 Y157.8469
G1 X564.566 Y157.2616
G1 X564.7404 Y156.6739
G1 X564.9039 Y156.0852
G1 X565.0567 Y155.4926
G1 X565.1997 Y154.8965
G1 X565.3327 Y154.2963
G1 X565.4551 Y153.6968
G1 X565.5665 Y153.095
G1 X565.6678 Y152.4909
G1 X565.7581 Y151.8847
G1 X565.8383 Y151.2773
G1 X565.9078 Y150.6654
G1 X578.8 Y20.8514
G1 Y20.0
G3 X581.8 Y17.0 I3.0 J0.0
G1 X994.55
G3 X997.55 Y20.0 I0.0 J3.0
G1 Y55.1
G1 X996.6713 Y55.9787
G1 X997.55 Y55.1
G1 X1010.6
G1 X1011.4787 Y55.9787
G1 X1010.6 Y55.1
G1 Y20.0
G3 X1013.6 Y17.0 I3.0 J0.0
G1 X1039.0
G3 X1042.0 Y20.0 I0.0 J3.0
G1 Y83.5
G3 X1039.0 Y86.5 I-3.0 J0.0
G1 X997.55
G1 X996.6713 Y85.6213
G1 X997.55 Y86.5
G1 Y108.9
G3 X994.55 Y111.9 I-3.0 J0.0
G1 X757.52
G1 X756.6413 Y111.0213
G1 X757.52 Y111.9
G1 Y657.08
G1 X756.6413 Y657.9587
G1 X757.52 Y657.08
G1 X994.55
G3 X997.55 Y660.08 I0.0 J3.0
G1 Y695.18
G1 X996.6713 Y696.0587
G1 X997.55 Y695.18
G1 X1010.6
G1 X1011.4787 Y696.0587
G1 X1010.6 Y695.18
G1 Y660.08
G3 X1013.6 Y657.08 I3.0 J0.0
G1 X1039.0
G3 X1042.0 Y660.08 I0.0 J3.0
G1 Y723.58
G3 X1039.0 Y726.58 I-3.0 J0.0
G1 X997.55
