( Made using CamBam - http://www.cambam.co.uk )
( ParametricStandingDeskHutch_side_MIRRORED 12/21/2015 8:35:32 PM )
( T6 : 6.0 )
G21 G90 G64 G40
G0 Z11.0
( T6 : 6.0 )
T6 M6
( Pocket2 )
G17
M3 S1000
G0 X286.6491 Y705.9828
G0 Z1.0
G1 F300.0 Z-2.0
G1 F800.0 X286.647 Y706.2313
G1 X286.8308 Y706.0506
G3 X286.6491 Y705.9828 I13.1203 J-35.4499
G1 F300.0 X287.0714 Y704.8595
G3 F800.0 X285.4642 Y704.2115 I12.8797 J-34.2589
G1 X285.4224 Y709.118
G1 X289.0594 Y705.5424
G3 X287.0714 Y704.8595 I10.8918 J-34.9418
G1 F300.0 X287.916 Y702.6131
G3 F800.0 X283.0969 Y700.3592 I12.0352 J-32.0124
G1 X282.9938 Y712.4576
G1 X285.4276 Y712.4784
G1 X293.8039 Y704.2436
G3 X287.916 Y702.6131 I6.1472 J-33.643
G1 F300.0 X288.7606 Y700.3666
G3 F800.0 X280.7345 Y695.9376 I11.1906 J-29.7659
G1 X280.5735 Y714.8371
G1 X286.4013 Y714.8868
G1 X299.1133 Y702.3896
G3 X288.7606 Y700.3666 I0.8379 J-31.789
G1 F300.0 X289.6051 Y698.1201
G3 F800.0 X278.3801 Y690.5769 I10.346 J-27.5194
G1 X278.1531 Y717.2166
G1 X287.3749 Y717.2952
G1 X305.5052 Y699.4713
G3 X289.6051 Y698.1201 I-5.554 J-28.8706
G1 F300.0 X290.4497 Y695.8736
G3 F800.0 X276.0434 Y683.1472 I9.5014 J-25.273
G1 X275.7327 Y719.596
G1 X288.3485 Y719.7035
G1 X316.995 Y691.5412
G3 X290.4497 Y695.8736 I-17.0438 J-20.9406
G0 Z11.0
G0 X287.5129 Y604.635
G0 Z1.0
G1 F300.0 Z-2.0
G1 F800.0 X287.6967 Y604.4543
G3 X287.515 Y604.3865 I13.1203 J-35.4499
G1 X287.5129 Y604.635
G1 F300.0 X286.313 Y604.6247
G1 F800.0 X286.2883 Y607.5217
G1 X289.9253 Y603.9461
G3 X286.3301 Y602.6152 I10.8918 J-34.9418
G1 X286.313 Y604.6247
G1 F300.0 X283.913 Y604.6043
G1 F800.0 X283.839 Y613.2951
G1 X294.6698 Y602.6473
G3 X283.9628 Y598.7629 I6.1472 J-33.643
G1 X283.913 Y604.6043
G1 F300.0 X281.5131 Y604.5838
G1 F800.0 X281.3897 Y619.0686
G1 X299.9792 Y600.7933
G3 X281.6004 Y594.3413 I0.8379 J-31.789
G1 X281.5131 Y604.5838
G1 F300.0 X279.1132 Y604.5634
G1 F800.0 X278.9402 Y624.8605
G3 X279.5566 Y624.2362 I21.2274 J20.341
G1 X306.3711 Y597.8749
G3 X279.246 Y588.9806 I-5.554 J-28.8706
G1 X279.1132 Y604.5634
G1 F300.0 X276.7133 Y604.5429
G1 F800.0 X276.4772 Y632.2493
G3 X281.2392 Y625.9477 I23.6905 J12.9523
G1 X317.8609 Y589.9449
G3 X276.9093 Y581.5509 I-17.0438 J-20.9406
G1 X276.7133 Y604.5429
G0 Z11.0
G0 X288.3788 Y503.0387
G0 Z1.0
G1 F300.0 Z-2.0
G1 F800.0 X288.5626 Y502.8579
G3 X288.3809 Y502.7902 I13.1203 J-35.4499
G1 X288.3788 Y503.0387
G1 F300.0 X289.2201 Y503.8944
G1 F800.0 X290.7912 Y502.3498
G3 X287.196 Y501.0188 I10.8918 J-34.9418
G1 X287.1542 Y505.9254
G1 X289.2201 Y503.8944
G1 F300.0 X290.9026 Y505.6058
G1 F800.0 X295.5357 Y501.051
G3 X284.8287 Y497.1666 I6.1472 J-33.643
G1 X284.7049 Y511.6988
G1 X290.9026 Y505.6058
G1 F300.0 X292.5851 Y507.3173
G1 F800.0 X300.8451 Y499.197
G3 X282.4663 Y492.745 I0.8379 J-31.789
G1 X282.2556 Y517.4723
G1 X292.5851 Y507.3173
G1 F300.0 X294.2677 Y509.0288
G1 F800.0 X307.237 Y496.2786
G3 X280.1119 Y487.3843 I-5.554 J-28.8706
G1 X279.8061 Y523.2642
G3 X280.4225 Y522.6399 I21.2274 J20.341
G1 X294.2677 Y509.0288
G1 F300.0 X295.9502 Y510.7402
G1 F800.0 X318.7268 Y488.3486
G3 X277.7752 Y479.9546 I-17.0438 J-20.9406
G1 X277.3431 Y530.653
G3 X282.1051 Y524.3513 I23.6905 J12.9523
G1 X295.9502 Y510.7402
G0 Z11.0
G0 X289.2447 Y401.4423
G0 Z1.0
G1 F300.0 Z-2.0
G1 F800.0 X289.4285 Y401.2616
G3 X289.2468 Y401.1938 I13.1203 J-35.4499
G1 X289.2447 Y401.4423
G1 F300.0 X288.0447 Y401.4321
G1 F800.0 X288.0201 Y404.3291
G1 X291.6571 Y400.7535
G3 X288.0619 Y399.4225 I10.8918 J-34.9418
G1 X288.0447 Y401.4321
G1 F300.0 X285.6448 Y401.4117
G1 F800.0 X285.5708 Y410.1025
G1 X296.4016 Y399.4547
G3 X285.6946 Y395.5703 I6.1472 J-33.643
G1 X285.6448 Y401.4117
G1 F300.0 X283.2449 Y401.3912
G1 F800.0 X283.1215 Y415.876
G1 X301.711 Y397.6007
G3 X283.3322 Y391.1487 I0.8379 J-31.789
G1 X283.2449 Y401.3912
G1 F300.0 X280.845 Y401.3708
G1 F800.0 X280.672 Y421.6679
G3 X281.2884 Y421.0436 I21.2274 J20.341
G1 X308.1029 Y394.6823
G3 X280.9778 Y385.788 I-5.554 J-28.8706
G1 X280.845 Y401.3708
G1 F300.0 X278.4451 Y401.3503
G1 F800.0 X278.209 Y429.0567
G3 X282.971 Y422.755 I23.6905 J12.9523
G1 X319.5926 Y386.7523
G3 X278.6411 Y378.3583 I-17.0438 J-20.9406
G1 X278.4451 Y401.3503
G0 Z11.0
G0 X290.1106 Y299.846
G0 Z1.0
G1 F300.0 Z-2.0
G1 F800.0 X290.2944 Y299.6653
G3 X290.1127 Y299.5975 I13.1203 J-35.4499
G1 X290.1106 Y299.846
G1 F300.0 X288.9106 Y299.8358
G1 F800.0 X288.886 Y302.7328
G1 X292.523 Y299.1572
G3 X288.9278 Y297.8262 I10.8918 J-34.9418
G1 X288.9106 Y299.8358
G1 F300.0 X286.5107 Y299.8154
G1 F800.0 X286.4367 Y308.5062
G1 X297.2675 Y297.8584
G3 X286.5605 Y293.974 I6.1472 J-33.643
G1 X286.5107 Y299.8154
G1 F300.0 X284.1108 Y299.7949
G1 F800.0 X283.9874 Y314.2797
G1 X302.5769 Y296.0044
G3 X284.1981 Y289.5523 I0.8379 J-31.789
G1 X284.1108 Y299.7949
G1 F300.0 X281.7109 Y299.7744
G1 F800.0 X281.5379 Y320.0716
G3 X282.1543 Y319.4473 I21.2274 J20.341
G1 X308.9688 Y293.086
G3 X281.8437 Y284.1916 I-5.554 J-28.8706
G1 X281.7109 Y299.7744
G1 F300.0 X279.311 Y299.754
G1 F800.0 X279.0749 Y327.4604
G3 X283.8368 Y321.1587 I23.6905 J12.9523
G1 X320.4585 Y285.156
G3 X279.5069 Y276.762 I-17.0438 J-20.9406
G1 X279.311 Y299.754
G0 Z11.0
G0 X290.9765 Y198.2497
G0 Z1.0
G1 F300.0 Z-2.0
G1 F800.0 X291.1603 Y198.069
G3 X290.9786 Y198.0012 I13.1203 J-35.4499
G1 X290.9765 Y198.2497
G1 F300.0 X289.7765 Y198.2395
G1 F800.0 X289.7518 Y201.1364
G1 X293.3889 Y197.5609
G3 X289.7937 Y196.2299 I10.8918 J-34.9418
G1 X289.7765 Y198.2395
G1 F300.0 X287.3766 Y198.219
G1 F800.0 X287.3026 Y206.9099
G1 X298.1334 Y196.2621
G3 X287.4264 Y192.3777 I6.1472 J-33.643
G1 X287.3766 Y198.219
G1 F300.0 X284.9767 Y198.1986
G1 F800.0 X284.8533 Y212.6833
G1 X303.4427 Y194.408
G3 X285.064 Y187.956 I0.8379 J-31.789
G1 X284.9767 Y198.1986
G1 F300.0 X282.5768 Y198.1781
G1 F800.0 X282.4038 Y218.4753
G3 X283.0202 Y217.851 I21.2274 J20.341
G1 X309.8347 Y191.4897
G3 X282.7096 Y182.5953 I-5.554 J-28.8706
G1 X282.5768 Y198.1781
G1 F300.0 X280.1769 Y198.1577
G1 F800.0 X279.9407 Y225.864
G3 X284.7027 Y219.5624 I23.6905 J12.9523
G1 X321.3244 Y183.5597
G3 X280.3728 Y175.1657 I-17.0438 J-20.9406
G1 X280.1769 Y198.1577
G0 Z11.0
G0 X280.8066 Y124.2677
G0 Z1.0
G1 F300.0 Z-2.0
G3 F800.0 X283.85 Y119.8218 I23.6905 J12.9523
G1 X280.8191 Y122.8015
G1 X280.8066 Y124.2677
G1 F300.0 X282.9125 Y125.419
G3 F800.0 X287.2512 Y119.6776 I21.5847 J11.801
G1 X329.4313 Y78.2104
G1 X322.8108 Y78.1539
G1 X278.4277 Y121.7869
G1 X273.3124 Y721.9755
G1 X289.3221 Y722.1119
G1 X324.2359 Y687.7882
G1 X317.6155 Y687.7318
G1 X317.1971 Y688.1431
G3 X275.3521 Y670.391 I-17.2459 J-17.5424
G1 X275.5685 Y644.9919
G3 X282.9217 Y627.6591 I24.5991 J0.2097
G1 X325.1018 Y586.1919
G1 X318.4814 Y586.1355
G1 X318.063 Y586.5468
G3 X276.218 Y568.7947 I-17.2459 J-17.5424
G1 X276.4344 Y543.3956
G3 X283.7876 Y526.0628 I24.5991 J0.2097
G1 X325.9677 Y484.5956
G1 X319.3473 Y484.5392
G1 X318.9289 Y484.9505
G3 X277.0839 Y467.1984 I-17.2459 J-17.5424
G1 X277.3003 Y441.7993
G3 X284.6535 Y424.4665 I24.5991 J0.2097
G1 X326.8336 Y382.9993
G1 X320.2131 Y382.9429
G1 X319.7948 Y383.3542
G3 X277.9497 Y365.6021 I-17.2459 J-17.5424
G1 X278.1662 Y340.203
G3 X285.5194 Y322.8702 I24.5991 J0.2097
G1 X327.6995 Y281.403
G1 X321.079 Y281.3466
G1 X320.6607 Y281.7578
G3 X278.8156 Y264.0057 I-17.2459 J-17.5424
G1 X279.0321 Y238.6067
G3 X286.3853 Y221.2739 I24.5991 J0.2097
G1 X328.5654 Y179.8067
G1 X321.9449 Y179.7503
G1 X321.5266 Y180.1615
G3 X279.6815 Y162.4094 I-17.2459 J-17.5424
G1 X279.898 Y137.0104
G3 X282.9125 Y125.419 I24.5991 J0.2097
G1 F300.0 X285.0183 Y126.5704
G3 F800.0 X288.9337 Y121.389 I19.4788 J10.6496
G1 X335.2456 Y75.8598
G1 X321.8372 Y75.7456
G1 X276.0363 Y120.7724
G1 X270.892 Y724.3549
G1 X290.2957 Y724.5203
G1 X330.0503 Y685.4377
G1 X316.6418 Y685.3234
G1 X315.5146 Y686.4316
G3 X277.752 Y670.4114 I-15.5634 J-15.831
G1 X277.9685 Y645.0124
G3 X284.6042 Y629.3706 I22.1992 J0.1892
G1 X330.9162 Y583.8414
G1 X317.5077 Y583.7271
G1 X316.3805 Y584.8353
G3 X278.6179 Y568.8151 I-15.5634 J-15.831
G1 X278.8343 Y543.416
G3 X285.4701 Y527.7743 I22.1992 J0.1892
G1 X331.7821 Y482.2451
G1 X318.3736 Y482.1308
G1 X317.2464 Y483.239
G3 X279.4838 Y467.2188 I-15.5634 J-15.831
G1 X279.7002 Y441.8197
G3 X286.336 Y426.178 I22.1992 J0.1892
G1 X332.648 Y380.6488
G1 X319.2395 Y380.5345
G1 X318.1123 Y381.6427
G3 X280.3497 Y365.6225 I-15.5634 J-15.831
G1 X280.5661 Y340.2234
G3 X287.2019 Y324.5816 I22.1992 J0.1892
G1 X333.5138 Y279.0525
G1 X320.1054 Y278.9382
G1 X318.9782 Y280.0464
G3 X281.2156 Y264.0262 I-15.5634 J-15.831
G1 X281.432 Y238.6271
G3 X288.0678 Y222.9853 I22.1992 J0.1892
G1 X334.3797 Y177.4561
G1 X320.9713 Y177.3419
G1 X319.8441 Y178.4501
G3 X282.0814 Y162.4299 I-15.5634 J-15.831
G1 X282.2979 Y137.0308
G3 X285.0183 Y126.5704 I22.1992 J0.1892
G1 F300.0 X287.1241 Y127.7217
G3 F800.0 X290.6162 Y123.1005 I17.373 J9.4983
G1 X341.06 Y73.5093
G1 X320.8636 Y73.3372
G1 X273.6448 Y119.7579
G1 X268.4716 Y726.7344
G1 X291.2694 Y726.9287
G1 X335.8646 Y683.0872
G1 X315.6682 Y682.915
G1 X313.8321 Y684.7202
G3 X280.1519 Y670.4319 I-13.8809 J-14.1195
G1 X280.3684 Y645.0328
G3 X286.2868 Y631.082 I19.7993 J0.1687
G1 X336.7305 Y581.4909
G1 X316.5341 Y581.3187
G1 X314.698 Y583.1239
G3 X281.0178 Y568.8356 I-13.8809 J-14.1195
G1 X281.2343 Y543.4365
G3 X287.1527 Y529.4857 I19.7993 J0.1687
G1 X337.5964 Y479.8945
G1 X317.4 Y479.7224
G1 X315.5638 Y481.5275
G3 X281.8837 Y467.2393 I-13.8809 J-14.1195
G1 X282.1002 Y441.8402
G3 X288.0185 Y427.8894 I19.7993 J0.1687
G1 X338.4623 Y378.2982
G1 X318.2659 Y378.1261
G1 X316.4297 Y379.9312
G3 X282.7496 Y365.643 I-13.8809 J-14.1195
G1 X282.966 Y340.2439
G3 X288.8844 Y326.2931 I19.7993 J0.1687
G1 X339.3282 Y276.7019
G1 X319.1318 Y276.5298
G1 X317.2956 Y278.3349
G3 X283.6155 Y264.0467 I-13.8809 J-14.1195
G1 X283.8319 Y238.6476
G3 X289.7503 Y224.6968 I19.7993 J0.1687
G1 X340.1941 Y175.1056
G1 X319.9977 Y174.9335
G1 X318.1615 Y176.7386
G3 X284.4814 Y162.4503 I-13.8809 J-14.1195
G1 X284.6978 Y137.0513
G3 X287.1241 Y127.7217 I19.7993 J0.1687
G1 F300.0 X289.2299 Y128.873
G3 F800.0 X292.2988 Y124.8119 I15.2672 J8.347
G1 X346.0749 Y71.9447
G1 X346.0817 Y71.152
G1 X319.89 Y70.9288
G1 X271.2534 Y118.7433
G1 X266.0513 Y729.1138
G1 X292.243 Y729.3371
G1 X340.8796 Y681.5225
G1 X340.8863 Y680.7299
G1 X314.6946 Y680.5066
G1 X312.1495 Y683.0087
G3 X282.5518 Y670.4523 I-12.1984 J-12.4081
G1 X282.7683 Y645.0533
G3 X287.9693 Y632.7935 I17.3994 J0.1483
G1 X341.7455 Y579.9262
G1 X341.7522 Y579.1336
G1 X315.5605 Y578.9103
G1 X313.0154 Y581.4124
G3 X283.4177 Y568.856 I-12.1984 J-12.4081
G1 X283.6342 Y543.457
G3 X288.8352 Y531.1972 I17.3994 J0.1483
G1 X342.6114 Y478.3299
G1 X342.6181 Y477.5373
G1 X316.4264 Y477.314
G1 X313.8813 Y479.8161
G3 X284.2836 Y467.2597 I-12.1984 J-12.4081
G1 X284.5001 Y441.8606
G3 X289.7011 Y429.6009 I17.3994 J0.1483
G1 X343.4773 Y376.7336
G1 X343.484 Y375.9409
G1 X317.2923 Y375.7177
G1 X314.7472 Y378.2198
G3 X285.1495 Y365.6634 I-12.1984 J-12.4081
G1 X285.366 Y340.2643
G3 X290.567 Y328.0046 I17.3994 J0.1483
G1 X344.3432 Y275.1373
G1 X344.3499 Y274.3446
G1 X318.1582 Y274.1214
G1 X315.6131 Y276.6235
G3 X286.0154 Y264.0671 I-12.1984 J-12.4081
G1 X286.2319 Y238.668
G3 X291.4329 Y226.4082 I17.3994 J0.1483
G1 X345.209 Y173.541
G1 X345.2158 Y172.7483
G1 X319.0241 Y172.5251
G1 X316.479 Y175.0272
G3 X286.8813 Y162.4708 I-12.1984 J-12.4081
G1 X287.0977 Y137.0717
G3 X289.2299 Y128.873 I17.3994 J0.1483
G1 F300.0 X291.3357 Y130.0243
G3 F800.0 X293.9813 Y126.5234 I13.1614 J7.1957
G1 X348.4664 Y72.9592
G1 X348.5021 Y68.7726
G1 X318.9163 Y68.5204
G1 X268.8619 Y117.7288
G1 X263.6309 Y731.4933
G1 X293.2166 Y731.7455
G1 X343.271 Y682.5371
G1 X343.3067 Y678.3504
G1 X313.721 Y678.0983
G1 X310.467 Y681.2972
G3 X284.9517 Y670.4728 I-10.5158 J-10.6966
G1 X285.1682 Y645.0737
G3 X289.6518 Y634.5049 I14.9995 J0.1278
G1 X344.1369 Y580.9408
G1 X344.1726 Y576.7541
G1 X314.5869 Y576.502
G1 X311.3329 Y579.7009
G3 X285.8176 Y568.8765 I-10.5158 J-10.6966
G1 X286.0341 Y543.4774
G3 X290.5177 Y532.9086 I14.9995 J0.1278
G1 X345.0028 Y479.3444
G1 X345.0385 Y475.1578
G1 X315.4528 Y474.9056
G1 X312.1988 Y478.1046
G3 X286.6835 Y467.2802 I-10.5158 J-10.6966
G1 X286.9 Y441.8811
G3 X291.3836 Y431.3123 I14.9995 J0.1278
G1 X345.8687 Y377.7481
G1 X345.9044 Y373.5615
G1 X316.3187 Y373.3093
G1 X313.0647 Y376.5083
G3 X287.5494 Y365.6839 I-10.5158 J-10.6966
G1 X287.7659 Y340.2848
G3 X292.2495 Y329.716 I14.9995 J0.1278
G1 X346.7346 Y276.1518
G1 X346.7703 Y271.9652
G1 X317.1846 Y271.713
G1 X313.9306 Y274.912
G3 X288.4153 Y264.0876 I-10.5158 J-10.6966
G1 X288.6318 Y238.6885
G3 X293.1154 Y228.1197 I14.9995 J0.1278
G1 X347.6005 Y174.5555
G1 X347.6362 Y170.3689
G1 X318.0504 Y170.1167
G1 X314.7965 Y173.3157
G3 X289.2812 Y162.4912 I-10.5158 J-10.6966
G1 X289.4977 Y137.0922
G3 X291.3357 Y130.0243 I14.9995 J0.1278
G1 F300.0 X293.4416 Y131.1756
G3 F800.0 X295.6638 Y128.2349 I11.0556 J6.0444
G1 X350.8578 Y73.9737
G1 X350.9224 Y66.3931
G1 X317.9427 Y66.112
G1 X266.4705 Y116.7143
G1 X261.2105 Y733.8728
G1 X294.1902 Y734.1538
G1 X345.6625 Y683.5516
G1 X345.7271 Y675.971
G1 X312.7474 Y675.6899
G1 X308.7845 Y679.5858
G3 X287.3516 Y670.4933 I-8.8333 J-8.9852
G1 X287.5681 Y645.0942
G3 X291.3344 Y636.2164 I12.5995 J0.1074
G1 X346.5284 Y581.9553
G1 X346.593 Y574.3747
G1 X313.6132 Y574.0936
G1 X309.6504 Y577.9895
G3 X288.2175 Y568.8969 I-8.8333 J-8.9852
G1 X288.434 Y543.4979
G3 X292.2003 Y534.6201 I12.5995 J0.1074
G1 X347.3942 Y480.359
G1 X347.4589 Y472.7783
G1 X314.4791 Y472.4973
G1 X310.5162 Y476.3932
G3 X289.0834 Y467.3006 I-8.8333 J-8.9852
G1 X289.2999 Y441.9016
G3 X293.0661 Y433.0238 I12.5995 J0.1074
G1 X348.2601 Y378.7627
G1 X348.3247 Y371.182
G1 X315.345 Y370.9009
G1 X311.3821 Y374.7969
G3 X289.9493 Y365.7043 I-8.8333 J-8.9852
G1 X290.1658 Y340.3052
G3 X293.932 Y331.4275 I12.5995 J0.1074
G1 X349.126 Y277.1664
G1 X349.1906 Y269.5857
G1 X316.2109 Y269.3046
G1 X312.248 Y273.2006
G3 X290.8152 Y264.108 I-8.8333 J-8.9852
G1 X291.0317 Y238.7089
G3 X294.7979 Y229.8312 I12.5995 J0.1074
G1 X349.9919 Y175.57
G1 X350.0565 Y167.9894
G1 X317.0768 Y167.7083
G1 X313.1139 Y171.6042
G3 X291.6811 Y162.5117 I-8.8333 J-8.9852
G1 X291.8976 Y137.1126
G3 X293.4416 Y131.1756 I12.5995 J0.1074
G1 F300.0 X295.5474 Y132.3269
G3 F800.0 X297.3464 Y129.9463 I8.9497 J4.8931
G1 X353.2493 Y74.9883
G1 X353.3428 Y64.0136
G1 X316.9691 Y63.7036
G1 X264.0791 Y115.6997
G1 X258.7902 Y736.2522
G1 X295.1639 Y736.5622
G1 X348.0539 Y684.5661
G1 X348.1474 Y673.5915
G1 X311.7737 Y673.2815
G1 X307.1019 Y677.8743
G3 X289.7515 Y670.5137 I-7.1508 J-7.2737
G1 X289.968 Y645.1146
G3 X293.0169 Y637.9279 I10.1996 J0.0869
G1 X348.9198 Y582.9698
G1 X349.0133 Y571.9952
G1 X312.6396 Y571.6852
G1 X307.9678 Y576.278
G3 X290.6174 Y568.9174 I-7.1508 J-7.2737
G1 X290.8339 Y543.5183
G3 X293.8828 Y536.3316 I10.1996 J0.0869
G1 X349.7857 Y481.3735
G1 X349.8792 Y470.3989
G1 X313.5055 Y470.0889
G1 X308.8337 Y474.6817
G3 X291.4833 Y467.3211 I-7.1508 J-7.2737
G1 X291.6998 Y441.922
G3 X294.7487 Y434.7352 I10.1996 J0.0869
G1 X350.6516 Y379.7772
G1 X350.7451 Y368.8026
G1 X314.3714 Y368.4926
G1 X309.6996 Y373.0854
G3 X292.3492 Y365.7248 I-7.1508 J-7.2737
G1 X292.5657 Y340.3257
G3 X295.6146 Y333.1389 I10.1996 J0.0869
G1 X351.5175 Y278.1809
G1 X351.611 Y267.2063
G1 X315.2373 Y266.8963
G1 X310.5655 Y271.4891
G3 X293.2151 Y264.1285 I-7.1508 J-7.2737
G1 X293.4316 Y238.7294
G3 X296.4805 Y231.5426 I10.1996 J0.0869
G1 X352.3834 Y176.5846
G1 X352.4769 Y165.61
G1 X316.1032 Y165.2999
G1 X311.4314 Y169.8928
G3 X294.081 Y162.5322 I-7.1508 J-7.2737
G1 X294.2975 Y137.1331
G3 X295.5474 Y132.3269 I10.1996 J0.0869
G1 F300.0 X297.6532 Y133.4782
G3 F800.0 X299.0289 Y131.6578 I6.8439 J3.7418
G1 X355.6407 Y76.0028
G1 X355.7632 Y61.6342
G1 X315.9955 Y61.2952
G1 X261.6876 Y114.6852
G1 X256.3698 Y738.6317
G1 X296.1375 Y738.9706
G1 X350.4453 Y685.5807
G1 X350.5678 Y671.212
G1 X310.8001 Y670.8731
G1 X305.4194 Y676.1629
G3 X292.1515 Y670.5342 I-5.4682 J-5.5622
G1 X292.3679 Y645.1351
G3 X294.6994 Y639.6393 I7.7997 J0.0665
G1 X351.3112 Y583.9843
G1 X351.4337 Y569.6157
G1 X311.666 Y569.2768
G1 X306.2853 Y574.5666
G3 X293.0173 Y568.9379 I-5.4682 J-5.5622
G1 X293.2338 Y543.5388
G3 X295.5653 Y538.043 I7.7997 J0.0665
G1 X352.1771 Y482.388
G1 X352.2996 Y468.0194
G1 X312.5319 Y467.6805
G1 X307.1512 Y472.9703
G3 X293.8832 Y467.3415 I-5.4682 J-5.5622
G1 X294.0997 Y441.9425
G3 X296.4312 Y436.4467 I7.7997 J0.0665
G1 X353.043 Y380.7917
G1 X353.1655 Y366.4231
G1 X313.3978 Y366.0842
G1 X308.0171 Y371.3739
G3 X294.7491 Y365.7452 I-5.4682 J-5.5622
G1 X294.9656 Y340.3462
G3 X297.2971 Y334.8504 I7.7997 J0.0665
G1 X353.9089 Y279.1954
G1 X354.0314 Y264.8268
G1 X314.2637 Y264.4879
G1 X308.883 Y269.7776
G3 X295.615 Y264.1489 I-5.4682 J-5.5622
G1 X295.8315 Y238.7498
G3 X298.163 Y233.2541 I7.7997 J0.0665
G1 X354.7748 Y177.5991
G1 X354.8973 Y163.2305
G1 X315.1296 Y162.8916
G1 X309.7489 Y168.1813
G3 X296.4809 Y162.5526 I-5.4682 J-5.5622
G1 X296.6974 Y137.1535
G3 X297.6532 Y133.4782 I7.7997 J0.0665
G1 F300.0 X299.759 Y134.6296
G3 F800.0 X300.7114 Y133.3692 I4.7381 J2.5905
G1 X358.0321 Y77.0173
G1 X358.1835 Y59.2547
G1 X315.0218 Y58.8869
G1 X259.2962 Y113.6707
G1 X253.9494 Y741.0111
G1 X297.1111 Y741.379
G1 X352.8368 Y686.5952
G1 X352.9882 Y668.8326
G1 X309.8265 Y668.4647
G1 X303.7369 Y674.4514
G3 X294.5514 Y670.5546 I-3.7857 J-3.8508
G1 X294.7678 Y645.1555
G3 X296.382 Y641.3508 I5.3998 J0.046
G1 X353.7027 Y584.9989
G1 X353.8541 Y567.2363
G1 X310.6924 Y566.8684
G1 X304.6028 Y572.8551
G3 X295.4173 Y568.9583 I-3.7857 J-3.8508
G1 X295.6337 Y543.5592
G3 X297.2478 Y539.7545 I5.3998 J0.046
G1 X354.5686 Y483.4026
G1 X354.72 Y465.64
G1 X311.5583 Y465.2721
G1 X305.4687 Y471.2588
G3 X296.2832 Y467.362 I-3.7857 J-3.8508
G1 X296.4996 Y441.9629
G3 X298.1137 Y438.1582 I5.3998 J0.046
G1 X355.4345 Y381.8063
G1 X355.5858 Y364.0437
G1 X312.4242 Y363.6758
G1 X306.3345 Y369.6625
G3 X297.149 Y365.7657 I-3.7857 J-3.8508
G1 X297.3655 Y340.3666
G3 X298.9796 Y336.5618 I5.3998 J0.046
G1 X356.3004 Y280.2099
G1 X356.4517 Y262.4473
G1 X313.2901 Y262.0795
G1 X307.2004 Y268.0662
G3 X298.0149 Y264.1694 I-3.7857 J-3.8508
G1 X298.2314 Y238.7703
G3 X299.8455 Y234.9655 I5.3998 J0.046
G1 X357.1662 Y178.6136
G1 X357.3176 Y160.851
G1 X314.156 Y160.4832
G1 X308.0663 Y166.4699
G3 X298.8808 Y162.5731 I-3.7857 J-3.8508
G1 X299.0973 Y137.174
G3 X299.759 Y134.6296 I5.3998 J0.046
G1 F300.0 X301.8648 Y135.7809
G3 F800.0 X302.3939 Y135.0807 I2.6323 J1.4391
G1 X360.4236 Y78.0319
G1 X360.6039 Y56.8753
G1 X314.0482 Y56.4785
G1 X256.9047 Y112.6561
G1 X251.5291 Y743.3906
G1 X298.0847 Y743.7874
G1 X355.2282 Y687.6097
G1 X355.4085 Y666.4531
G1 X308.8529 Y666.0563
G1 X302.0543 Y672.74
G3 X296.9513 Y670.5751 I-2.1032 J-2.1393
G1 X297.1678 Y645.176
G3 X298.0645 Y643.0622 I2.9999 J0.0256
G1 X356.0941 Y586.0134
G1 X356.2744 Y564.8568
G1 X309.7188 Y564.46
G1 X302.9202 Y571.1437
G3 X297.8172 Y568.9788 I-2.1032 J-2.1393
G1 X298.0336 Y543.5797
G3 X298.9304 Y541.4659 I2.9999 J0.0256
G1 X356.96 Y484.4171
G1 X357.1403 Y463.2605
G1 X310.5847 Y462.8637
G1 X303.7861 Y469.5473
G3 X298.6831 Y467.3824 I-2.1032 J-2.1393
G1 X298.8995 Y441.9834
G3 X299.7963 Y439.8696 I2.9999 J0.0256
G1 X357.8259 Y382.8208
G1 X358.0062 Y361.6642
G1 X311.4505 Y361.2674
G1 X304.652 Y367.951
G3 X299.549 Y365.7861 I-2.1032 J-2.1393
G1 X299.7654 Y340.3871
G3 X300.6622 Y338.2733 I2.9999 J0.0256
G1 X358.6918 Y281.2245
G1 X358.8721 Y260.0679
G1 X312.3164 Y259.6711
G1 X305.5179 Y266.3547
G3 X300.4149 Y264.1898 I-2.1032 J-2.1393
G1 X300.6313 Y238.7908
G3 X301.5281 Y236.677 I2.9999 J0.0256
G1 X359.5577 Y179.6282
G1 X359.738 Y158.4716
G1 X313.1823 Y158.0748
G1 X306.3838 Y164.7584
G3 X301.2807 Y162.5935 I-2.1032 J-2.1393
G1 X301.4972 Y137.1944
G3 X301.8648 Y135.7809 I2.9999 J0.0256
G0 Z11.0
G0 X280.8066 Y124.2677
G0 Z-1.0
G1 F300.0 Z-4.0
G3 F800.0 X283.85 Y119.8218 I23.6905 J12.9523
G1 X280.8191 Y122.8015
G1 X280.8066 Y124.2677
G0 Z11.0
G0 X290.9786 Y198.0012
G0 Z-1.0
G1 F300.0 Z-4.0
G1 F800.0 X290.9765 Y198.2497
G1 X291.1603 Y198.069
G3 X290.9786 Y198.0012 I13.1203 J-35.4499
G1 F300.0 X289.7787 Y197.991
G1 F800.0 X289.7518 Y201.1364
G1 X293.3889 Y197.5609
G3 X289.7937 Y196.2299 I10.8918 J-34.9418
G1 X289.7787 Y197.991
G1 F300.0 X287.3787 Y197.9705
G1 F800.0 X287.3026 Y206.9099
G1 X298.1334 Y196.2621
G3 X287.4264 Y192.3777 I6.1472 J-33.643
G1 X287.3787 Y197.9705
G1 F300.0 X284.9788 Y197.9501
G1 F800.0 X284.8533 Y212.6833
G1 X303.4427 Y194.408
G3 X285.064 Y187.956 I0.8379 J-31.789
G1 X284.9788 Y197.9501
G1 F300.0 X282.5789 Y197.9296
G1 F800.0 X282.4038 Y218.4753
G3 X283.0202 Y217.851 I21.2274 J20.341
G1 X309.8347 Y191.4897
G3 X282.7096 Y182.5953 I-5.554 J-28.8706
G1 X282.5789 Y197.9296
G1 F300.0 X280.179 Y197.9092
G1 F800.0 X279.9407 Y225.864
G3 X284.7027 Y219.5624 I23.6905 J12.9523
G1 X321.3244 Y183.5597
G3 X280.3728 Y175.1657 I-17.0438 J-20.9406
G1 X280.179 Y197.9092
G0 Z11.0
G0 X290.1127 Y299.5975
G0 Z-1.0
G1 F300.0 Z-4.0
G1 F800.0 X290.1106 Y299.846
G1 X290.2944 Y299.6653
G3 X290.1127 Y299.5975 I13.1203 J-35.4499
G1 F300.0 X288.9128 Y299.5873
G1 F800.0 X288.886 Y302.7328
G1 X292.523 Y299.1572
G3 X288.9278 Y297.8262 I10.8918 J-34.9418
G1 X288.9128 Y299.5873
G1 F300.0 X286.5128 Y299.5669
G1 F800.0 X286.4367 Y308.5062
G1 X297.2675 Y297.8584
G3 X286.5605 Y293.974 I6.1472 J-33.643
G1 X286.5128 Y299.5669
G1 F300.0 X284.1129 Y299.5464
G1 F800.0 X283.9874 Y314.2797
G1 X302.5769 Y296.0044
G3 X284.1981 Y289.5523 I0.8379 J-31.789
G1 X284.1129 Y299.5464
G1 F300.0 X281.713 Y299.526
G1 F800.0 X281.5379 Y320.0716
G3 X282.1543 Y319.4473 I21.2274 J20.341
G1 X308.9688 Y293.086
G3 X281.8437 Y284.1916 I-5.554 J-28.8706
G1 X281.713 Y299.526
G1 F300.0 X279.3131 Y299.5055
G1 F800.0 X279.0749 Y327.4604
G3 X283.8368 Y321.1587 I23.6905 J12.9523
G1 X320.4585 Y285.156
G3 X279.5069 Y276.762 I-17.0438 J-20.9406
G1 X279.3131 Y299.5055
G0 Z11.0
G0 X289.2468 Y401.1938
G0 Z-1.0
G1 F300.0 Z-4.0
G1 F800.0 X289.2447 Y401.4423
G1 X289.4285 Y401.2616
G3 X289.2468 Y401.1938 I13.1203 J-35.4499
G1 F300.0 X289.6691 Y400.0706
G3 F800.0 X288.0619 Y399.4225 I12.8797 J-34.2589
G1 X288.0201 Y404.3291
G1 X291.6571 Y400.7535
G3 X289.6691 Y400.0706 I10.8918 J-34.9418
G1 F300.0 X290.5137 Y397.8241
G3 F800.0 X285.6946 Y395.5703 I12.0352 J-32.0124
G1 X285.5708 Y410.1025
G1 X296.4016 Y399.4547
G3 X290.5137 Y397.8241 I6.1472 J-33.643
G1 F300.0 X291.3583 Y395.5776
G3 F800.0 X283.3322 Y391.1487 I11.1906 J-29.7659
G1 X283.1215 Y415.876
G1 X301.711 Y397.6007
G3 X291.3583 Y395.5776 I0.8379 J-31.789
G1 F300.0 X292.2028 Y393.3312
G3 F800.0 X280.9778 Y385.788 I10.346 J-27.5194
G1 X280.672 Y421.6679
G3 X281.2884 Y421.0436 I21.2274 J20.341
G1 X308.1029 Y394.6823
G3 X292.2028 Y393.3312 I-5.554 J-28.8706
G1 F300.0 X293.0474 Y391.0847
G3 F800.0 X278.6411 Y378.3583 I9.5014 J-25.273
G1 X278.209 Y429.0567
G3 X282.971 Y422.755 I23.6905 J12.9523
G1 X319.5926 Y386.7523
G3 X293.0474 Y391.0847 I-17.0438 J-20.9406
G0 Z11.0
G0 X288.3809 Y502.7902
G0 Z-1.0
G1 F300.0 Z-4.0
G1 F800.0 X288.3788 Y503.0387
G1 X288.5626 Y502.8579
G3 X288.3809 Y502.7902 I13.1203 J-35.4499
G1 F300.0 X288.8032 Y501.6669
G3 F800.0 X287.196 Y501.0188 I12.8797 J-34.2589
G1 X287.1542 Y505.9254
G1 X290.7912 Y502.3498
G3 X288.8032 Y501.6669 I10.8918 J-34.9418
G1 F300.0 X289.6478 Y499.4204
G3 F800.0 X284.8287 Y497.1666 I12.0352 J-32.0124
G1 X284.7049 Y511.6988
G1 X295.5357 Y501.051
G3 X289.6478 Y499.4204 I6.1472 J-33.643
G1 F300.0 X290.4924 Y497.1739
G3 F800.0 X282.4663 Y492.745 I11.1906 J-29.7659
G1 X282.2556 Y517.4723
G1 X300.8451 Y499.197
G3 X290.4924 Y497.1739 I0.8379 J-31.789
G1 F300.0 X291.3369 Y494.9275
G3 F800.0 X280.1119 Y487.3843 I10.346 J-27.5194
G1 X279.8061 Y523.2642
G3 X280.4225 Y522.6399 I21.2274 J20.341
G1 X307.237 Y496.2786
G3 X291.3369 Y494.9275 I-5.554 J-28.8706
G1 F300.0 X292.1815 Y492.681
G3 F800.0 X277.7752 Y479.9546 I9.5014 J-25.273
G1 X277.3431 Y530.653
G3 X282.1051 Y524.3513 I23.6905 J12.9523
G1 X318.7268 Y488.3486
G3 X292.1815 Y492.681 I-17.0438 J-20.9406
G0 Z11.0
G0 X287.515 Y604.3865
G0 Z-1.0
G1 F300.0 Z-4.0
G1 F800.0 X287.5129 Y604.635
G1 X287.6967 Y604.4543
G3 X287.515 Y604.3865 I13.1203 J-35.4499
G1 F300.0 X286.3151 Y604.3762
G1 F800.0 X286.2883 Y607.5217
G1 X289.9253 Y603.9461
G3 X286.3301 Y602.6152 I10.8918 J-34.9418
G1 X286.3151 Y604.3762
G1 F300.0 X283.9152 Y604.3558
G1 F800.0 X283.839 Y613.2951
G1 X294.6698 Y602.6473
G3 X283.9628 Y598.7629 I6.1472 J-33.643
G1 X283.9152 Y604.3558
G1 F300.0 X281.5153 Y604.3353
G1 F800.0 X281.3897 Y619.0686
G1 X299.9792 Y600.7933
G3 X281.6004 Y594.3413 I0.8379 J-31.789
G1 X281.5153 Y604.3353
G1 F300.0 X279.1153 Y604.3149
G1 F800.0 X278.9402 Y624.8605
G3 X279.5566 Y624.2362 I21.2274 J20.341
G1 X306.3711 Y597.8749
G3 X279.246 Y588.9806 I-5.554 J-28.8706
G1 X279.1153 Y604.3149
G1 F300.0 X276.7154 Y604.2944
G1 F800.0 X276.4772 Y632.2493
G3 X281.2392 Y625.9477 I23.6905 J12.9523
G1 X317.8609 Y589.9449
G3 X276.9093 Y581.5509 I-17.0438 J-20.9406
G1 X276.7154 Y604.2944
G0 Z11.0
G0 X286.6491 Y705.9828
G0 Z-1.0
G1 F300.0 Z-4.0
G1 F800.0 X286.647 Y706.2313
G1 X286.8308 Y706.0506
G3 X286.6491 Y705.9828 I13.1203 J-35.4499
G1 F300.0 X287.0714 Y704.8595
G3 F800.0 X285.4642 Y704.2115 I12.8797 J-34.2589
G1 X285.4224 Y709.118
G1 X289.0594 Y705.5424
G3 X287.0714 Y704.8595 I10.8918 J-34.9418
G1 F300.0 X287.916 Y702.6131
G3 F800.0 X283.0969 Y700.3592 I12.0352 J-32.0124
G1 X282.9938 Y712.4576
G1 X285.4276 Y712.4784
G1 X293.8039 Y704.2436
G3 X287.916 Y702.6131 I6.1472 J-33.643
G1 F300.0 X288.7606 Y700.3666
G3 F800.0 X280.7345 Y695.9376 I11.1906 J-29.7659
G1 X280.5735 Y714.8371
G1 X286.4013 Y714.8868
G1 X299.1133 Y702.3896
G3 X288.7606 Y700.3666 I0.8379 J-31.789
G1 F300.0 X289.6051 Y698.1201
G3 F800.0 X278.3801 Y690.5769 I10.346 J-27.5194
G1 X278.1531 Y717.2166
G1 X287.3749 Y717.2952
G1 X305.5052 Y699.4713
G3 X289.6051 Y698.1201 I-5.554 J-28.8706
G1 F300.0 X290.4497 Y695.8736
G3 F800.0 X276.0434 Y683.1472 I9.5014 J-25.273
G1 X275.7327 Y719.596
G1 X288.3485 Y719.7035
G1 X316.995 Y691.5412
G3 X290.4497 Y695.8736 I-17.0438 J-20.9406
G1 F300.0 X291.2943 Y693.6271
G3 F800.0 X275.3521 Y670.391 I8.6569 J-23.0265
G1 X275.5685 Y644.9919
G3 X282.9217 Y627.6591 I24.5991 J0.2097
G1 X325.1018 Y586.1919
G1 X318.4814 Y586.1355
G1 X318.063 Y586.5468
G3 X276.218 Y568.7947 I-17.2459 J-17.5424
G1 X276.4344 Y543.3956
G3 X283.7876 Y526.0628 I24.5991 J0.2097
G1 X325.9677 Y484.5956
G1 X319.3473 Y484.5392
G1 X318.9289 Y484.9505
G3 X277.0839 Y467.1984 I-17.2459 J-17.5424
G1 X277.3003 Y441.7993
G3 X284.6535 Y424.4665 I24.5991 J0.2097
G1 X326.8336 Y382.9993
G1 X320.2131 Y382.9429
G1 X319.7948 Y383.3542
G3 X277.9497 Y365.6021 I-17.2459 J-17.5424
G1 X278.1662 Y340.203
G3 X285.5194 Y322.8702 I24.5991 J0.2097
G1 X327.6995 Y281.403
G1 X321.079 Y281.3466
G1 X320.6607 Y281.7578
G3 X278.8156 Y264.0057 I-17.2459 J-17.5424
G1 X279.0321 Y238.6067
G3 X286.3853 Y221.2739 I24.5991 J0.2097
G1 X328.5654 Y179.8067
G1 X321.9449 Y179.7503
G1 X321.5266 Y180.1615
G3 X279.6815 Y162.4094 I-17.2459 J-17.5424
G1 X279.898 Y137.0104
G3 X287.2512 Y119.6776 I24.5991 J0.2097
G1 X329.4313 Y78.2104
G1 X322.8108 Y78.1539
G1 X278.4277 Y121.7869
G1 X273.3124 Y721.9755
G1 X289.3221 Y722.1119
G1 X324.2359 Y687.7882
G1 X317.6155 Y687.7318
G1 X317.1971 Y688.1431
G3 X291.2943 Y693.6271 I-17.2459 J-17.5424
G1 F300.0 X292.1389 Y691.3806
G3 F800.0 X277.752 Y670.4114 I7.8123 J-20.78
G1 X277.9685 Y645.0124
G3 X284.6042 Y629.3706 I22.1992 J0.1892
G1 X330.9162 Y583.8414
G1 X317.5077 Y583.7271
G1 X316.3805 Y584.8353
G3 X278.6179 Y568.8151 I-15.5634 J-15.831
G1 X278.8343 Y543.416
G3 X285.4701 Y527.7743 I22.1992 J0.1892
G1 X331.7821 Y482.2451
G1 X318.3736 Y482.1308
G1 X317.2464 Y483.239
G3 X279.4838 Y467.2188 I-15.5634 J-15.831
G1 X279.7002 Y441.8197
G3 X286.336 Y426.178 I22.1992 J0.1892
G1 X332.648 Y380.6488
G1 X319.2395 Y380.5345
G1 X318.1123 Y381.6427
G3 X280.3497 Y365.6225 I-15.5634 J-15.831
G1 X280.5661 Y340.2234
G3 X287.2019 Y324.5816 I22.1992 J0.1892
G1 X333.5138 Y279.0525
G1 X320.1054 Y278.9382
G1 X318.9782 Y280.0464
G3 X281.2156 Y264.0262 I-15.5634 J-15.831
G1 X281.432 Y238.6271
G3 X288.0678 Y222.9853 I22.1992 J0.1892
G1 X334.3797 Y177.4561
G1 X320.9713 Y177.3419
G1 X319.8441 Y178.4501
G3 X282.0814 Y162.4299 I-15.5634 J-15.831
G1 X282.2979 Y137.0308
G3 X288.9337 Y121.389 I22.1992 J0.1892
G1 X335.2456 Y75.8598
G1 X321.8372 Y75.7456
G1 X276.0363 Y120.7724
G1 X270.892 Y724.3549
G1 X290.2957 Y724.5203
G1 X330.0503 Y685.4377
G1 X316.6418 Y685.3234
G1 X315.5146 Y686.4316
G3 X292.1389 Y691.3806 I-15.5634 J-15.831
G1 F300.0 X292.9834 Y689.1341
G3 F800.0 X280.1519 Y670.4319 I6.9677 J-18.5335
G1 X280.3684 Y645.0328
G3 X286.2868 Y631.082 I19.7993 J0.1687
G1 X336.7305 Y581.4909
G1 X316.5341 Y581.3187
G1 X314.698 Y583.1239
G3 X281.0178 Y568.8356 I-13.8809 J-14.1195
G1 X281.2343 Y543.4365
G3 X287.1527 Y529.4857 I19.7993 J0.1687
G1 X337.5964 Y479.8945
G1 X317.4 Y479.7224
G1 X315.5638 Y481.5275
G3 X281.8837 Y467.2393 I-13.8809 J-14.1195
G1 X282.1002 Y441.8402
G3 X288.0185 Y427.8894 I19.7993 J0.1687
G1 X338.4623 Y378.2982
G1 X318.2659 Y378.1261
G1 X316.4297 Y379.9312
G3 X282.7496 Y365.643 I-13.8809 J-14.1195
G1 X282.966 Y340.2439
G3 X288.8844 Y326.2931 I19.7993 J0.1687
G1 X339.3282 Y276.7019
G1 X319.1318 Y276.5298
G1 X317.2956 Y278.3349
G3 X283.6155 Y264.0467 I-13.8809 J-14.1195
G1 X283.8319 Y238.6476
G3 X289.7503 Y224.6968 I19.7993 J0.1687
G1 X340.1941 Y175.1056
G1 X319.9977 Y174.9335
G1 X318.1615 Y176.7386
G3 X284.4814 Y162.4503 I-13.8809 J-14.1195
G1 X284.6978 Y137.0513
G3 X290.6162 Y123.1005 I19.7993 J0.1687
G1 X341.06 Y73.5093
G1 X320.8636 Y73.3372
G1 X273.6448 Y119.7579
G1 X268.4716 Y726.7344
G1 X291.2694 Y726.9287
G1 X335.8646 Y683.0872
G1 X315.6682 Y682.915
G1 X313.8321 Y684.7202
G3 X292.9834 Y689.1341 I-13.8809 J-14.1195
G1 F300.0 X293.828 Y686.8877
G3 F800.0 X282.5518 Y670.4523 I6.1232 J-16.287
G1 X282.7683 Y645.0533
G3 X287.9693 Y632.7935 I17.3994 J0.1483
G1 X341.7455 Y579.9262
G1 X341.7522 Y579.1336
G1 X315.5605 Y578.9103
G1 X313.0154 Y581.4124
G3 X283.4177 Y568.856 I-12.1984 J-12.4081
G1 X283.6342 Y543.457
G3 X288.8352 Y531.1972 I17.3994 J0.1483
G1 X342.6114 Y478.3299
G1 X342.6181 Y477.5373
G1 X316.4264 Y477.314
G1 X313.8813 Y479.8161
G3 X284.2836 Y467.2597 I-12.1984 J-12.4081
G1 X284.5001 Y441.8606
G3 X289.7011 Y429.6009 I17.3994 J0.1483
G1 X343.4773 Y376.7336
G1 X343.484 Y375.9409
G1 X317.2923 Y375.7177
G1 X314.7472 Y378.2198
G3 X285.1495 Y365.6634 I-12.1984 J-12.4081
G1 X285.366 Y340.2643
G3 X290.567 Y328.0046 I17.3994 J0.1483
G1 X344.3432 Y275.1373
G1 X344.3499 Y274.3446
G1 X318.1582 Y274.1214
G1 X315.6131 Y276.6235
G3 X286.0154 Y264.0671 I-12.1984 J-12.4081
G1 X286.2319 Y238.668
G3 X291.4329 Y226.4082 I17.3994 J0.1483
G1 X345.209 Y173.541
G1 X345.2158 Y172.7483
G1 X319.0241 Y172.5251
G1 X316.479 Y175.0272
G3 X286.8813 Y162.4708 I-12.1984 J-12.4081
G1 X287.0977 Y137.0717
G3 X292.2988 Y124.8119 I17.3994 J0.1483
G1 X346.0749 Y71.9447
G1 X346.0817 Y71.152
G1 X319.89 Y70.9288
G1 X271.2534 Y118.7433
G1 X266.0513 Y729.1138
G1 X292.243 Y729.3371
G1 X340.8796 Y681.5225
G1 X340.8863 Y680.7299
G1 X314.6946 Y680.5066
G1 X312.1495 Y683.0087
G3 X293.828 Y686.8877 I-12.1984 J-12.4081
G1 F300.0 X294.6726 Y684.6412
G3 F800.0 X284.9517 Y670.4728 I5.2786 J-14.0405
G1 X285.1682 Y645.0737
G3 X289.6518 Y634.5049 I14.9995 J0.1278
G1 X344.1369 Y580.9408
G1 X344.1726 Y576.7541
G1 X314.5869 Y576.502
G1 X311.3329 Y579.7009
G3 X285.8176 Y568.8765 I-10.5158 J-10.6966
G1 X286.0341 Y543.4774
G3 X290.5177 Y532.9086 I14.9995 J0.1278
G1 X345.0028 Y479.3444
G1 X345.0385 Y475.1578
G1 X315.4528 Y474.9056
G1 X312.1988 Y478.1046
G3 X286.6835 Y467.2802 I-10.5158 J-10.6966
G1 X286.9 Y441.8811
G3 X291.3836 Y431.3123 I14.9995 J0.1278
G1 X345.8687 Y377.7481
G1 X345.9044 Y373.5615
G1 X316.3187 Y373.3093
G1 X313.0647 Y376.5083
G3 X287.5494 Y365.6839 I-10.5158 J-10.6966
G1 X287.7659 Y340.2848
G3 X292.2495 Y329.716 I14.9995 J0.1278
G1 X346.7346 Y276.1518
G1 X346.7703 Y271.9652
G1 X317.1846 Y271.713
G1 X313.9306 Y274.912
G3 X288.4153 Y264.0876 I-10.5158 J-10.6966
G1 X288.6318 Y238.6885
G3 X293.1154 Y228.1197 I14.9995 J0.1278
G1 X347.6005 Y174.5555
G1 X347.6362 Y170.3689
G1 X318.0504 Y170.1167
G1 X314.7965 Y173.3157
G3 X289.2812 Y162.4912 I-10.5158 J-10.6966
G1 X289.4977 Y137.0922
G3 X293.9813 Y126.5234 I14.9995 J0.1278
G1 X348.4664 Y72.9592
G1 X348.5021 Y68.7726
G1 X318.9163 Y68.5204
G1 X268.8619 Y117.7288
G1 X263.6309 Y731.4933
G1 X293.2166 Y731.7455
G1 X343.271 Y682.5371
G1 X343.3067 Y678.3504
G1 X313.721 Y678.0983
G1 X310.467 Y681.2972
G3 X294.6726 Y684.6412 I-10.5158 J-10.6966
G1 F300.0 X295.5172 Y682.3947
G3 F800.0 X287.3516 Y670.4933 I4.434 J-11.794
G1 X287.5681 Y645.0942
G3 X291.3344 Y636.2164 I12.5995 J0.1074
G1 X346.5284 Y581.9553
G1 X346.593 Y574.3747
G1 X313.6132 Y574.0936
G1 X309.6504 Y577.9895
G3 X288.2175 Y568.8969 I-8.8333 J-8.9852
G1 X288.434 Y543.4979
G3 X292.2003 Y534.6201 I12.5995 J0.1074
G1 X347.3942 Y480.359
G1 X347.4589 Y472.7783
G1 X314.4791 Y472.4973
G1 X310.5162 Y476.3932
G3 X289.0834 Y467.3006 I-8.8333 J-8.9852
G1 X289.2999 Y441.9016
G3 X293.0661 Y433.0238 I12.5995 J0.1074
G1 X348.2601 Y378.7627
G1 X348.3247 Y371.182
G1 X315.345 Y370.9009
G1 X311.3821 Y374.7969
G3 X289.9493 Y365.7043 I-8.8333 J-8.9852
G1 X290.1658 Y340.3052
G3 X293.932 Y331.4275 I12.5995 J0.1074
G1 X349.126 Y277.1664
G1 X349.1906 Y269.5857
G1 X316.2109 Y269.3046
G1 X312.248 Y273.2006
G3 X290.8152 Y264.108 I-8.8333 J-8.9852
G1 X291.0317 Y238.7089
G3 X294.7979 Y229.8312 I12.5995 J0.1074
G1 X349.9919 Y175.57
G1 X350.0565 Y167.9894
G1 X317.0768 Y167.7083
G1 X313.1139 Y171.6042
G3 X291.6811 Y162.5117 I-8.8333 J-8.9852
G1 X291.8976 Y137.1126
G3 X295.6638 Y128.2349 I12.5995 J0.1074
G1 X350.8578 Y73.9737
G1 X350.9224 Y66.3931
G1 X317.9427 Y66.112
G1 X266.4705 Y116.7143
G1 X261.2105 Y733.8728
G1 X294.1902 Y734.1538
G1 X345.6625 Y683.5516
G1 X345.7271 Y675.971
G1 X312.7474 Y675.6899
G1 X308.7845 Y679.5858
G3 X295.5172 Y682.3947 I-8.8333 J-8.9852
G1 F300.0 X296.3617 Y680.1482
G3 F800.0 X289.7515 Y670.5137 I3.5894 J-9.5476
G1 X289.968 Y645.1146
G3 X293.0169 Y637.9279 I10.1996 J0.0869
G1 X348.9198 Y582.9698
G1 X349.0133 Y571.9952
G1 X312.6396 Y571.6852
G1 X307.9678 Y576.278
G3 X290.6174 Y568.9174 I-7.1508 J-7.2737
G1 X290.8339 Y543.5183
G3 X293.8828 Y536.3316 I10.1996 J0.0869
G1 X349.7857 Y481.3735
G1 X349.8792 Y470.3989
G1 X313.5055 Y470.0889
G1 X308.8337 Y474.6817
G3 X291.4833 Y467.3211 I-7.1508 J-7.2737
G1 X291.6998 Y441.922
G3 X294.7487 Y434.7352 I10.1996 J0.0869
G1 X350.6516 Y379.7772
G1 X350.7451 Y368.8026
G1 X314.3714 Y368.4926
G1 X309.6996 Y373.0854
G3 X292.3492 Y365.7248 I-7.1508 J-7.2737
G1 X292.5657 Y340.3257
G3 X295.6146 Y333.1389 I10.1996 J0.0869
G1 X351.5175 Y278.1809
G1 X351.611 Y267.2063
G1 X315.2373 Y266.8963
G1 X310.5655 Y271.4891
G3 X293.2151 Y264.1285 I-7.1508 J-7.2737
G1 X293.4316 Y238.7294
G3 X296.4805 Y231.5426 I10.1996 J0.0869
G1 X352.3834 Y176.5846
G1 X352.4769 Y165.61
G1 X316.1032 Y165.2999
G1 X311.4314 Y169.8928
G3 X294.081 Y162.5322 I-7.1508 J-7.2737
G1 X294.2975 Y137.1331
G3 X297.3464 Y129.9463 I10.1996 J0.0869
G1 X353.2493 Y74.9883
G1 X353.3428 Y64.0136
G1 X316.9691 Y63.7036
G1 X264.0791 Y115.6997
G1 X258.7902 Y736.2522
G1 X295.1639 Y736.5622
G1 X348.0539 Y684.5661
G1 X348.1474 Y673.5915
G1 X311.7737 Y673.2815
G1 X307.1019 Y677.8743
G3 X296.3617 Y680.1482 I-7.1508 J-7.2737
G1 F300.0 X297.2063 Y677.9017
G3 F800.0 X292.1515 Y670.5342 I2.7449 J-7.3011
G1 X292.3679 Y645.1351
G3 X294.6994 Y639.6393 I7.7997 J0.0665
G1 X351.3112 Y583.9843
G1 X351.4337 Y569.6157
G1 X311.666 Y569.2768
G1 X306.2853 Y574.5666
G3 X293.0173 Y568.9379 I-5.4682 J-5.5622
G1 X293.2338 Y543.5388
G3 X295.5653 Y538.043 I7.7997 J0.0665
G1 X352.1771 Y482.388
G1 X352.2996 Y468.0194
G1 X312.5319 Y467.6805
G1 X307.1512 Y472.9703
G3 X293.8832 Y467.3415 I-5.4682 J-5.5622
G1 X294.0997 Y441.9425
G3 X296.4312 Y436.4467 I7.7997 J0.0665
G1 X353.043 Y380.7917
G1 X353.1655 Y366.4231
G1 X313.3978 Y366.0842
G1 X308.0171 Y371.3739
G3 X294.7491 Y365.7452 I-5.4682 J-5.5622
G1 X294.9656 Y340.3462
G3 X297.2971 Y334.8504 I7.7997 J0.0665
G1 X353.9089 Y279.1954
G1 X354.0314 Y264.8268
G1 X314.2637 Y264.4879
G1 X308.883 Y269.7776
G3 X295.615 Y264.1489 I-5.4682 J-5.5622
G1 X295.8315 Y238.7498
G3 X298.163 Y233.2541 I7.7997 J0.0665
G1 X354.7748 Y177.5991
G1 X354.8973 Y163.2305
G1 X315.1296 Y162.8916
G1 X309.7489 Y168.1813
G3 X296.4809 Y162.5526 I-5.4682 J-5.5622
G1 X296.6974 Y137.1535
G3 X299.0289 Y131.6578 I7.7997 J0.0665
G1 X355.6407 Y76.0028
G1 X355.7632 Y61.6342
G1 X315.9955 Y61.2952
G1 X261.6876 Y114.6852
G1 X256.3698 Y738.6317
G1 X296.1375 Y738.9706
G1 X350.4453 Y685.5807
G1 X350.5678 Y671.212
G1 X310.8001 Y670.8731
G1 X305.4194 Y676.1629
G3 X297.2063 Y677.9017 I-5.4682 J-5.5622
G1 F300.0 X298.0509 Y675.6552
G3 F800.0 X294.5514 Y670.5546 I1.9003 J-5.0546
G1 X294.7678 Y645.1555
G3 X296.382 Y641.3508 I5.3998 J0.046
G1 X353.7027 Y584.9989
G1 X353.8541 Y567.2363
G1 X310.6924 Y566.8684
G1 X304.6028 Y572.8551
G3 X295.4173 Y568.9583 I-3.7857 J-3.8508
G1 X295.6337 Y543.5592
G3 X297.2478 Y539.7545 I5.3998 J0.046
G1 X354.5686 Y483.4026
G1 X354.72 Y465.64
G1 X311.5583 Y465.2721
G1 X305.4687 Y471.2588
G3 X296.2832 Y467.362 I-3.7857 J-3.8508
G1 X296.4996 Y441.9629
G3 X298.1137 Y438.1582 I5.3998 J0.046
G1 X355.4345 Y381.8063
G1 X355.5858 Y364.0437
G1 X312.4242 Y363.6758
G1 X306.3345 Y369.6625
G3 X297.149 Y365.7657 I-3.7857 J-3.8508
G1 X297.3655 Y340.3666
G3 X298.9796 Y336.5618 I5.3998 J0.046
G1 X356.3004 Y280.2099
G1 X356.4517 Y262.4473
G1 X313.2901 Y262.0795
G1 X307.2004 Y268.0662
G3 X298.0149 Y264.1694 I-3.7857 J-3.8508
G1 X298.2314 Y238.7703
G3 X299.8455 Y234.9655 I5.3998 J0.046
G1 X357.1662 Y178.6136
G1 X357.3176 Y160.851
G1 X314.156 Y160.4832
G1 X308.0663 Y166.4699
G3 X298.8808 Y162.5731 I-3.7857 J-3.8508
G1 X299.0973 Y137.174
G3 X300.7114 Y133.3692 I5.3998 J0.046
G1 X358.0321 Y77.0173
G1 X358.1835 Y59.2547
G1 X315.0218 Y58.8869
G1 X259.2962 Y113.6707
G1 X253.9494 Y741.0111
G1 X297.1111 Y741.379
G1 X352.8368 Y686.5952
G1 X352.9882 Y668.8326
G1 X309.8265 Y668.4647
G1 X303.7369 Y674.4514
G3 X298.0509 Y675.6552 I-3.7857 J-3.8508
G1 F300.0 X298.8955 Y673.4087
G3 F800.0 X296.9513 Y670.5751 I1.0557 J-2.8081
G1 X297.1678 Y645.176
G3 X298.0645 Y643.0622 I2.9999 J0.0256
G1 X356.0941 Y586.0134
G1 X356.2744 Y564.8568
G1 X309.7188 Y564.46
G1 X302.9202 Y571.1437
G3 X297.8172 Y568.9788 I-2.1032 J-2.1393
G1 X298.0336 Y543.5797
G3 X298.9304 Y541.4659 I2.9999 J0.0256
G1 X356.96 Y484.4171
G1 X357.1403 Y463.2605
G1 X310.5847 Y462.8637
G1 X303.7861 Y469.5473
G3 X298.6831 Y467.3824 I-2.1032 J-2.1393
G1 X298.8995 Y441.9834
G3 X299.7963 Y439.8696 I2.9999 J0.0256
G1 X357.8259 Y382.8208
G1 X358.0062 Y361.6642
G1 X311.4505 Y361.2674
G1 X304.652 Y367.951
G3 X299.549 Y365.7861 I-2.1032 J-2.1393
G1 X299.7654 Y340.3871
G3 X300.6622 Y338.2733 I2.9999 J0.0256
G1 X358.6918 Y281.2245
G1 X358.8721 Y260.0679
G1 X312.3164 Y259.6711
G1 X305.5179 Y266.3547
G3 X300.4149 Y264.1898 I-2.1032 J-2.1393
G1 X300.6313 Y238.7908
G3 X301.5281 Y236.677 I2.9999 J0.0256
G1 X359.5577 Y179.6282
G1 X359.738 Y158.4716
G1 X313.1823 Y158.0748
G1 X306.3838 Y164.7584
G3 X301.2807 Y162.5935 I-2.1032 J-2.1393
G1 X301.4972 Y137.1944
G3 X302.3939 Y135.0807 I2.9999 J0.0256
G1 X360.4236 Y78.0319
G1 X360.6039 Y56.8753
G1 X314.0482 Y56.4785
G1 X256.9047 Y112.6561
G1 X251.5291 Y743.3906
G1 X298.0847 Y743.7874
G1 X355.2282 Y687.6097
G1 X355.4085 Y666.4531
G1 X308.8529 Y666.0563
G1 X302.0543 Y672.74
G3 X298.8955 Y673.4087 I-2.1032 J-2.1393
G0 Z11.0
G0 X286.6491 Y705.9828
G0 Z-3.0
G1 F300.0 Z-6.0
G1 F800.0 X286.647 Y706.2313
G1 X286.8308 Y706.0506
G3 X286.6491 Y705.9828 I13.1203 J-35.4499
G1 F300.0 X287.0714 Y704.8595
G3 F800.0 X285.4642 Y704.2115 I12.8797 J-34.2589
G1 X285.4224 Y709.118
G1 X289.0594 Y705.5424
G3 X287.0714 Y704.8595 I10.8918 J-34.9418
G1 F300.0 X287.916 Y702.6131
G3 F800.0 X283.0969 Y700.3592 I12.0352 J-32.0124
G1 X282.9938 Y712.4576
G1 X285.4276 Y712.4784
G1 X293.8039 Y704.2436
G3 X287.916 Y702.6131 I6.1472 J-33.643
G1 F300.0 X288.7606 Y700.3666
G3 F800.0 X280.7345 Y695.9376 I11.1906 J-29.7659
G1 X280.5735 Y714.8371
G1 X286.4013 Y714.8868
G1 X299.1133 Y702.3896
G3 X288.7606 Y700.3666 I0.8379 J-31.789
G1 F300.0 X289.6051 Y698.1201
G3 F800.0 X278.3801 Y690.5769 I10.346 J-27.5194
G1 X278.1531 Y717.2166
G1 X287.3749 Y717.2952
G1 X305.5052 Y699.4713
G3 X289.6051 Y698.1201 I-5.554 J-28.8706
G1 F300.0 X290.4497 Y695.8736
G3 F800.0 X276.0434 Y683.1472 I9.5014 J-25.273
G1 X275.7327 Y719.596
G1 X288.3485 Y719.7035
G1 X316.995 Y691.5412
G3 X290.4497 Y695.8736 I-17.0438 J-20.9406
G0 Z11.0
G0 X287.5129 Y604.635
G0 Z-3.0
G1 F300.0 Z-6.0
G1 F800.0 X287.6967 Y604.4543
G3 X287.515 Y604.3865 I13.1203 J-35.4499
G1 X287.5129 Y604.635
G1 F300.0 X286.313 Y604.6247
G1 F800.0 X286.2883 Y607.5217
G1 X289.9253 Y603.9461
G3 X286.3301 Y602.6152 I10.8918 J-34.9418
G1 X286.313 Y604.6247
G1 F300.0 X283.913 Y604.6043
G1 F800.0 X283.839 Y613.2951
G1 X294.6698 Y602.6473
G3 X283.9628 Y598.7629 I6.1472 J-33.643
G1 X283.913 Y604.6043
G1 F300.0 X281.5131 Y604.5838
G1 F800.0 X281.3897 Y619.0686
G1 X299.9792 Y600.7933
G3 X281.6004 Y594.3413 I0.8379 J-31.789
G1 X281.5131 Y604.5838
G1 F300.0 X279.1132 Y604.5634
G1 F800.0 X278.9402 Y624.8605
G3 X279.5566 Y624.2362 I21.2274 J20.341
G1 X306.3711 Y597.8749
G3 X279.246 Y588.9806 I-5.554 J-28.8706
G1 X279.1132 Y604.5634
G1 F300.0 X276.7133 Y604.5429
G1 F800.0 X276.4772 Y632.2493
G3 X281.2392 Y625.9477 I23.6905 J12.9523
G1 X317.8609 Y589.9449
G3 X276.9093 Y581.5509 I-17.0438 J-20.9406
G1 X276.7133 Y604.5429
G0 Z11.0
G0 X288.3788 Y503.0387
G0 Z-3.0
G1 F300.0 Z-6.0
G1 F800.0 X288.5626 Y502.8579
G3 X288.3809 Y502.7902 I13.1203 J-35.4499
G1 X288.3788 Y503.0387
G1 F300.0 X289.2201 Y503.8944
G1 F800.0 X290.7912 Y502.3498
G3 X287.196 Y501.0188 I10.8918 J-34.9418
G1 X287.1542 Y505.9254
G1 X289.2201 Y503.8944
G1 F300.0 X290.9026 Y505.6058
G1 F800.0 X295.5357 Y501.051
G3 X284.8287 Y497.1666 I6.1472 J-33.643
G1 X284.7049 Y511.6988
G1 X290.9026 Y505.6058
G1 F300.0 X292.5851 Y507.3173
G1 F800.0 X300.8451 Y499.197
G3 X282.4663 Y492.745 I0.8379 J-31.789
G1 X282.2556 Y517.4723
G1 X292.5851 Y507.3173
G1 F300.0 X294.2677 Y509.0288
G1 F800.0 X307.237 Y496.2786
G3 X280.1119 Y487.3843 I-5.554 J-28.8706
G1 X279.8061 Y523.2642
G3 X280.4225 Y522.6399 I21.2274 J20.341
G1 X294.2677 Y509.0288
G1 F300.0 X295.9502 Y510.7402
G1 F800.0 X318.7268 Y488.3486
G3 X277.7752 Y479.9546 I-17.0438 J-20.9406
G1 X277.3431 Y530.653
G3 X282.1051 Y524.3513 I23.6905 J12.9523
G1 X295.9502 Y510.7402
G0 Z11.0
G0 X289.2447 Y401.4423
G0 Z-3.0
G1 F300.0 Z-6.0
G1 F800.0 X289.4285 Y401.2616
G3 X289.2468 Y401.1938 I13.1203 J-35.4499
G1 X289.2447 Y401.4423
G1 F300.0 X288.0447 Y401.4321
G1 F800.0 X288.0201 Y404.3291
G1 X291.6571 Y400.7535
G3 X288.0619 Y399.4225 I10.8918 J-34.9418
G1 X288.0447 Y401.4321
G1 F300.0 X285.6448 Y401.4117
G1 F800.0 X285.5708 Y410.1025
G1 X296.4016 Y399.4547
G3 X285.6946 Y395.5703 I6.1472 J-33.643
G1 X285.6448 Y401.4117
G1 F300.0 X283.2449 Y401.3912
G1 F800.0 X283.1215 Y415.876
G1 X301.711 Y397.6007
G3 X283.3322 Y391.1487 I0.8379 J-31.789
G1 X283.2449 Y401.3912
G1 F300.0 X280.845 Y401.3708
G1 F800.0 X280.672 Y421.6679
G3 X281.2884 Y421.0436 I21.2274 J20.341
G1 X308.1029 Y394.6823
G3 X280.9778 Y385.788 I-5.554 J-28.8706
G1 X280.845 Y401.3708
G1 F300.0 X278.4451 Y401.3503
G1 F800.0 X278.209 Y429.0567
G3 X282.971 Y422.755 I23.6905 J12.9523
G1 X319.5926 Y386.7523
G3 X278.6411 Y378.3583 I-17.0438 J-20.9406
G1 X278.4451 Y401.3503
G0 Z11.0
G0 X290.1106 Y299.846
G0 Z-3.0
G1 F300.0 Z-6.0
G1 F800.0 X290.2944 Y299.6653
G3 X290.1127 Y299.5975 I13.1203 J-35.4499
G1 X290.1106 Y299.846
G1 F300.0 X288.9106 Y299.8358
G1 F800.0 X288.886 Y302.7328
G1 X292.523 Y299.1572
G3 X288.9278 Y297.8262 I10.8918 J-34.9418
G1 X288.9106 Y299.8358
G1 F300.0 X286.5107 Y299.8154
G1 F800.0 X286.4367 Y308.5062
G1 X297.2675 Y297.8584
G3 X286.5605 Y293.974 I6.1472 J-33.643
G1 X286.5107 Y299.8154
G1 F300.0 X284.1108 Y299.7949
G1 F800.0 X283.9874 Y314.2797
G1 X302.5769 Y296.0044
G3 X284.1981 Y289.5523 I0.8379 J-31.789
G1 X284.1108 Y299.7949
G1 F300.0 X281.7109 Y299.7744
G1 F800.0 X281.5379 Y320.0716
G3 X282.1543 Y319.4473 I21.2274 J20.341
G1 X308.9688 Y293.086
G3 X281.8437 Y284.1916 I-5.554 J-28.8706
G1 X281.7109 Y299.7744
G1 F300.0 X279.311 Y299.754
G1 F800.0 X279.0749 Y327.4604
G3 X283.8368 Y321.1587 I23.6905 J12.9523
G1 X320.4585 Y285.156
G3 X279.5069 Y276.762 I-17.0438 J-20.9406
G1 X279.311 Y299.754
G0 Z11.0
G0 X290.9765 Y198.2497
G0 Z-3.0
G1 F300.0 Z-6.0
G1 F800.0 X291.1603 Y198.069
G3 X290.9786 Y198.0012 I13.1203 J-35.4499
G1 X290.9765 Y198.2497
G1 F300.0 X289.7765 Y198.2395
G1 F800.0 X289.7518 Y201.1364
G1 X293.3889 Y197.5609
G3 X289.7937 Y196.2299 I10.8918 J-34.9418
G1 X289.7765 Y198.2395
G1 F300.0 X287.3766 Y198.219
G1 F800.0 X287.3026 Y206.9099
G1 X298.1334 Y196.2621
G3 X287.4264 Y192.3777 I6.1472 J-33.643
G1 X287.3766 Y198.219
G1 F300.0 X284.9767 Y198.1986
G1 F800.0 X284.8533 Y212.6833
G1 X303.4427 Y194.408
G3 X285.064 Y187.956 I0.8379 J-31.789
G1 X284.9767 Y198.1986
G1 F300.0 X282.5768 Y198.1781
G1 F800.0 X282.4038 Y218.4753
G3 X283.0202 Y217.851 I21.2274 J20.341
G1 X309.8347 Y191.4897
G3 X282.7096 Y182.5953 I-5.554 J-28.8706
G1 X282.5768 Y198.1781
G1 F300.0 X280.1769 Y198.1577
G1 F800.0 X279.9407 Y225.864
G3 X284.7027 Y219.5624 I23.6905 J12.9523
G1 X321.3244 Y183.5597
G3 X280.3728 Y175.1657 I-17.0438 J-20.9406
G1 X280.1769 Y198.1577
G0 Z11.0
G0 X280.8066 Y124.2677
G0 Z-3.0
G1 F300.0 Z-6.0
G3 F800.0 X283.85 Y119.8218 I23.6905 J12.9523
G1 X280.8191 Y122.8015
G1 X280.8066 Y124.2677
G1 F300.0 X282.9125 Y125.419
G3 F800.0 X287.2512 Y119.6776 I21.5847 J11.801
G1 X329.4313 Y78.2104
G1 X322.8108 Y78.1539
G1 X278.4277 Y121.7869
G1 X273.3124 Y721.9755
G1 X289.3221 Y722.1119
G1 X324.2359 Y687.7882
G1 X317.6155 Y687.7318
G1 X317.1971 Y688.1431
G3 X275.3521 Y670.391 I-17.2459 J-17.5424
G1 X275.5685 Y644.9919
G3 X282.9217 Y627.6591 I24.5991 J0.2097
G1 X325.1018 Y586.1919
G1 X318.4814 Y586.1355
G1 X318.063 Y586.5468
G3 X276.218 Y568.7947 I-17.2459 J-17.5424
G1 X276.4344 Y543.3956
G3 X283.7876 Y526.0628 I24.5991 J0.2097
G1 X325.9677 Y484.5956
G1 X319.3473 Y484.5392
G1 X318.9289 Y484.9505
G3 X277.0839 Y467.1984 I-17.2459 J-17.5424
G1 X277.3003 Y441.7993
G3 X284.6535 Y424.4665 I24.5991 J0.2097
G1 X326.8336 Y382.9993
G1 X320.2131 Y382.9429
G1 X319.7948 Y383.3542
G3 X277.9497 Y365.6021 I-17.2459 J-17.5424
G1 X278.1662 Y340.203
G3 X285.5194 Y322.8702 I24.5991 J0.2097
G1 X327.6995 Y281.403
G1 X321.079 Y281.3466
G1 X320.6607 Y281.7578
G3 X278.8156 Y264.0057 I-17.2459 J-17.5424
G1 X279.0321 Y238.6067
G3 X286.3853 Y221.2739 I24.5991 J0.2097
G1 X328.5654 Y179.8067
G1 X321.9449 Y179.7503
G1 X321.5266 Y180.1615
G3 X279.6815 Y162.4094 I-17.2459 J-17.5424
G1 X279.898 Y137.0104
G3 X282.9125 Y125.419 I24.5991 J0.2097
G1 F300.0 X285.0183 Y126.5704
G3 F800.0 X288.9337 Y121.389 I19.4788 J10.6496
G1 X335.2456 Y75.8598
G1 X321.8372 Y75.7456
G1 X276.0363 Y120.7724
G1 X270.892 Y724.3549
G1 X290.2957 Y724.5203
G1 X330.0503 Y685.4377
G1 X316.6418 Y685.3234
G1 X315.5146 Y686.4316
G3 X277.752 Y670.4114 I-15.5634 J-15.831
G1 X277.9685 Y645.0124
G3 X284.6042 Y629.3706 I22.1992 J0.1892
G1 X330.9162 Y583.8414
G1 X317.5077 Y583.7271
G1 X316.3805 Y584.8353
G3 X278.6179 Y568.8151 I-15.5634 J-15.831
G1 X278.8343 Y543.416
G3 X285.4701 Y527.7743 I22.1992 J0.1892
G1 X331.7821 Y482.2451
G1 X318.3736 Y482.1308
G1 X317.2464 Y483.239
G3 X279.4838 Y467.2188 I-15.5634 J-15.831
G1 X279.7002 Y441.8197
G3 X286.336 Y426.178 I22.1992 J0.1892
G1 X332.648 Y380.6488
G1 X319.2395 Y380.5345
G1 X318.1123 Y381.6427
G3 X280.3497 Y365.6225 I-15.5634 J-15.831
G1 X280.5661 Y340.2234
G3 X287.2019 Y324.5816 I22.1992 J0.1892
G1 X333.5138 Y279.0525
G1 X320.1054 Y278.9382
G1 X318.9782 Y280.0464
G3 X281.2156 Y264.0262 I-15.5634 J-15.831
G1 X281.432 Y238.6271
G3 X288.0678 Y222.9853 I22.1992 J0.1892
G1 X334.3797 Y177.4561
G1 X320.9713 Y177.3419
G1 X319.8441 Y178.4501
G3 X282.0814 Y162.4299 I-15.5634 J-15.831
G1 X282.2979 Y137.0308
G3 X285.0183 Y126.5704 I22.1992 J0.1892
G1 F300.0 X287.1241 Y127.7217
G3 F800.0 X290.6162 Y123.1005 I17.373 J9.4983
G1 X341.06 Y73.5093
G1 X320.8636 Y73.3372
G1 X273.6448 Y119.7579
G1 X268.4716 Y726.7344
G1 X291.2694 Y726.9287
G1 X335.8646 Y683.0872
G1 X315.6682 Y682.915
G1 X313.8321 Y684.7202
G3 X280.1519 Y670.4319 I-13.8809 J-14.1195
G1 X280.3684 Y645.0328
G3 X286.2868 Y631.082 I19.7993 J0.1687
G1 X336.7305 Y581.4909
G1 X316.5341 Y581.3187
G1 X314.698 Y583.1239
G3 X281.0178 Y568.8356 I-13.8809 J-14.1195
G1 X281.2343 Y543.4365
G3 X287.1527 Y529.4857 I19.7993 J0.1687
G1 X337.5964 Y479.8945
G1 X317.4 Y479.7224
G1 X315.5638 Y481.5275
G3 X281.8837 Y467.2393 I-13.8809 J-14.1195
G1 X282.1002 Y441.8402
G3 X288.0185 Y427.8894 I19.7993 J0.1687
G1 X338.4623 Y378.2982
G1 X318.2659 Y378.1261
G1 X316.4297 Y379.9312
G3 X282.7496 Y365.643 I-13.8809 J-14.1195
G1 X282.966 Y340.2439
G3 X288.8844 Y326.2931 I19.7993 J0.1687
G1 X339.3282 Y276.7019
G1 X319.1318 Y276.5298
G1 X317.2956 Y278.3349
G3 X283.6155 Y264.0467 I-13.8809 J-14.1195
G1 X283.8319 Y238.6476
G3 X289.7503 Y224.6968 I19.7993 J0.1687
G1 X340.1941 Y175.1056
G1 X319.9977 Y174.9335
G1 X318.1615 Y176.7386
G3 X284.4814 Y162.4503 I-13.8809 J-14.1195
G1 X284.6978 Y137.0513
G3 X287.1241 Y127.7217 I19.7993 J0.1687
G1 F300.0 X289.2299 Y128.873
G3 F800.0 X292.2988 Y124.8119 I15.2672 J8.347
G1 X346.0749 Y71.9447
G1 X346.0817 Y71.152
G1 X319.89 Y70.9288
G1 X271.2534 Y118.7433
G1 X266.0513 Y729.1138
G1 X292.243 Y729.3371
G1 X340.8796 Y681.5225
G1 X340.8863 Y680.7299
G1 X314.6946 Y680.5066
G1 X312.1495 Y683.0087
G3 X282.5518 Y670.4523 I-12.1984 J-12.4081
G1 X282.7683 Y645.0533
G3 X287.9693 Y632.7935 I17.3994 J0.1483
G1 X341.7455 Y579.9262
G1 X341.7522 Y579.1336
G1 X315.5605 Y578.9103
G1 X313.0154 Y581.4124
G3 X283.4177 Y568.856 I-12.1984 J-12.4081
G1 X283.6342 Y543.457
G3 X288.8352 Y531.1972 I17.3994 J0.1483
G1 X342.6114 Y478.3299
G1 X342.6181 Y477.5373
G1 X316.4264 Y477.314
G1 X313.8813 Y479.8161
G3 X284.2836 Y467.2597 I-12.1984 J-12.4081
G1 X284.5001 Y441.8606
G3 X289.7011 Y429.6009 I17.3994 J0.1483
G1 X343.4773 Y376.7336
G1 X343.484 Y375.9409
G1 X317.2923 Y375.7177
G1 X314.7472 Y378.2198
G3 X285.1495 Y365.6634 I-12.1984 J-12.4081
G1 X285.366 Y340.2643
G3 X290.567 Y328.0046 I17.3994 J0.1483
G1 X344.3432 Y275.1373
G1 X344.3499 Y274.3446
G1 X318.1582 Y274.1214
G1 X315.6131 Y276.6235
G3 X286.0154 Y264.0671 I-12.1984 J-12.4081
G1 X286.2319 Y238.668
G3 X291.4329 Y226.4082 I17.3994 J0.1483
G1 X345.209 Y173.541
G1 X345.2158 Y172.7483
G1 X319.0241 Y172.5251
G1 X316.479 Y175.0272
G3 X286.8813 Y162.4708 I-12.1984 J-12.4081
G1 X287.0977 Y137.0717
G3 X289.2299 Y128.873 I17.3994 J0.1483
G1 F300.0 X291.3357 Y130.0243
G3 F800.0 X293.9813 Y126.5234 I13.1614 J7.1957
G1 X348.4664 Y72.9592
G1 X348.5021 Y68.7726
G1 X318.9163 Y68.5204
G1 X268.8619 Y117.7288
G1 X263.6309 Y731.4933
G1 X293.2166 Y731.7455
G1 X343.271 Y682.5371
G1 X343.3067 Y678.3504
G1 X313.721 Y678.0983
G1 X310.467 Y681.2972
G3 X284.9517 Y670.4728 I-10.5158 J-10.6966
G1 X285.1682 Y645.0737
G3 X289.6518 Y634.5049 I14.9995 J0.1278
G1 X344.1369 Y580.9408
G1 X344.1726 Y576.7541
G1 X314.5869 Y576.502
G1 X311.3329 Y579.7009
G3 X285.8176 Y568.8765 I-10.5158 J-10.6966
G1 X286.0341 Y543.4774
G3 X290.5177 Y532.9086 I14.9995 J0.1278
G1 X345.0028 Y479.3444
G1 X345.0385 Y475.1578
G1 X315.4528 Y474.9056
G1 X312.1988 Y478.1046
G3 X286.6835 Y467.2802 I-10.5158 J-10.6966
G1 X286.9 Y441.8811
G3 X291.3836 Y431.3123 I14.9995 J0.1278
G1 X345.8687 Y377.7481
G1 X345.9044 Y373.5615
G1 X316.3187 Y373.3093
G1 X313.0647 Y376.5083
G3 X287.5494 Y365.6839 I-10.5158 J-10.6966
G1 X287.7659 Y340.2848
G3 X292.2495 Y329.716 I14.9995 J0.1278
G1 X346.7346 Y276.1518
G1 X346.7703 Y271.9652
G1 X317.1846 Y271.713
G1 X313.9306 Y274.912
G3 X288.4153 Y264.0876 I-10.5158 J-10.6966
G1 X288.6318 Y238.6885
G3 X293.1154 Y228.1197 I14.9995 J0.1278
G1 X347.6005 Y174.5555
G1 X347.6362 Y170.3689
G1 X318.0504 Y170.1167
G1 X314.7965 Y173.3157
G3 X289.2812 Y162.4912 I-10.5158 J-10.6966
G1 X289.4977 Y137.0922
G3 X291.3357 Y130.0243 I14.9995 J0.1278
G1 F300.0 X293.4416 Y131.1756
G3 F800.0 X295.6638 Y128.2349 I11.0556 J6.0444
G1 X350.8578 Y73.9737
G1 X350.9224 Y66.3931
G1 X317.9427 Y66.112
G1 X266.4705 Y116.7143
G1 X261.2105 Y733.8728
G1 X294.1902 Y734.1538
G1 X345.6625 Y683.5516
G1 X345.7271 Y675.971
G1 X312.7474 Y675.6899
G1 X308.7845 Y679.5858
G3 X287.3516 Y670.4933 I-8.8333 J-8.9852
G1 X287.5681 Y645.0942
G3 X291.3344 Y636.2164 I12.5995 J0.1074
G1 X346.5284 Y581.9553
G1 X346.593 Y574.3747
G1 X313.6132 Y574.0936
G1 X309.6504 Y577.9895
G3 X288.2175 Y568.8969 I-8.8333 J-8.9852
G1 X288.434 Y543.4979
G3 X292.2003 Y534.6201 I12.5995 J0.1074
G1 X347.3942 Y480.359
G1 X347.4589 Y472.7783
G1 X314.4791 Y472.4973
G1 X310.5162 Y476.3932
G3 X289.0834 Y467.3006 I-8.8333 J-8.9852
G1 X289.2999 Y441.9016
G3 X293.0661 Y433.0238 I12.5995 J0.1074
G1 X348.2601 Y378.7627
G1 X348.3247 Y371.182
G1 X315.345 Y370.9009
G1 X311.3821 Y374.7969
G3 X289.9493 Y365.7043 I-8.8333 J-8.9852
G1 X290.1658 Y340.3052
G3 X293.932 Y331.4275 I12.5995 J0.1074
G1 X349.126 Y277.1664
G1 X349.1906 Y269.5857
G1 X316.2109 Y269.3046
G1 X312.248 Y273.2006
G3 X290.8152 Y264.108 I-8.8333 J-8.9852
G1 X291.0317 Y238.7089
G3 X294.7979 Y229.8312 I12.5995 J0.1074
G1 X349.9919 Y175.57
G1 X350.0565 Y167.9894
G1 X317.0768 Y167.7083
G1 X313.1139 Y171.6042
G3 X291.6811 Y162.5117 I-8.8333 J-8.9852
G1 X291.8976 Y137.1126
G3 X293.4416 Y131.1756 I12.5995 J0.1074
G1 F300.0 X295.5474 Y132.3269
G3 F800.0 X297.3464 Y129.9463 I8.9497 J4.8931
G1 X353.2493 Y74.9883
G1 X353.3428 Y64.0136
G1 X316.9691 Y63.7036
G1 X264.0791 Y115.6997
G1 X258.7902 Y736.2522
G1 X295.1639 Y736.5622
G1 X348.0539 Y684.5661
G1 X348.1474 Y673.5915
G1 X311.7737 Y673.2815
G1 X307.1019 Y677.8743
G3 X289.7515 Y670.5137 I-7.1508 J-7.2737
G1 X289.968 Y645.1146
G3 X293.0169 Y637.9279 I10.1996 J0.0869
G1 X348.9198 Y582.9698
G1 X349.0133 Y571.9952
G1 X312.6396 Y571.6852
G1 X307.9678 Y576.278
G3 X290.6174 Y568.9174 I-7.1508 J-7.2737
G1 X290.8339 Y543.5183
G3 X293.8828 Y536.3316 I10.1996 J0.0869
G1 X349.7857 Y481.3735
G1 X349.8792 Y470.3989
G1 X313.5055 Y470.0889
G1 X308.8337 Y474.6817
G3 X291.4833 Y467.3211 I-7.1508 J-7.2737
G1 X291.6998 Y441.922
G3 X294.7487 Y434.7352 I10.1996 J0.0869
G1 X350.6516 Y379.7772
G1 X350.7451 Y368.8026
G1 X314.3714 Y368.4926
G1 X309.6996 Y373.0854
G3 X292.3492 Y365.7248 I-7.1508 J-7.2737
G1 X292.5657 Y340.3257
G3 X295.6146 Y333.1389 I10.1996 J0.0869
G1 X351.5175 Y278.1809
G1 X351.611 Y267.2063
G1 X315.2373 Y266.8963
G1 X310.5655 Y271.4891
G3 X293.2151 Y264.1285 I-7.1508 J-7.2737
G1 X293.4316 Y238.7294
G3 X296.4805 Y231.5426 I10.1996 J0.0869
G1 X352.3834 Y176.5846
G1 X352.4769 Y165.61
G1 X316.1032 Y165.2999
G1 X311.4314 Y169.8928
G3 X294.081 Y162.5322 I-7.1508 J-7.2737
G1 X294.2975 Y137.1331
G3 X295.5474 Y132.3269 I10.1996 J0.0869
G1 F300.0 X297.6532 Y133.4782
G3 F800.0 X299.0289 Y131.6578 I6.8439 J3.7418
G1 X355.6407 Y76.0028
G1 X355.7632 Y61.6342
G1 X315.9955 Y61.2952
G1 X261.6876 Y114.6852
G1 X256.3698 Y738.6317
G1 X296.1375 Y738.9706
G1 X350.4453 Y685.5807
G1 X350.5678 Y671.212
G1 X310.8001 Y670.8731
G1 X305.4194 Y676.1629
G3 X292.1515 Y670.5342 I-5.4682 J-5.5622
G1 X292.3679 Y645.1351
G3 X294.6994 Y639.6393 I7.7997 J0.0665
G1 X351.3112 Y583.9843
G1 X351.4337 Y569.6157
G1 X311.666 Y569.2768
G1 X306.2853 Y574.5666
G3 X293.0173 Y568.9379 I-5.4682 J-5.5622
G1 X293.2338 Y543.5388
G3 X295.5653 Y538.043 I7.7997 J0.0665
G1 X352.1771 Y482.388
G1 X352.2996 Y468.0194
G1 X312.5319 Y467.6805
G1 X307.1512 Y472.9703
G3 X293.8832 Y467.3415 I-5.4682 J-5.5622
G1 X294.0997 Y441.9425
G3 X296.4312 Y436.4467 I7.7997 J0.0665
G1 X353.043 Y380.7917
G1 X353.1655 Y366.4231
G1 X313.3978 Y366.0842
G1 X308.0171 Y371.3739
G3 X294.7491 Y365.7452 I-5.4682 J-5.5622
G1 X294.9656 Y340.3462
G3 X297.2971 Y334.8504 I7.7997 J0.0665
G1 X353.9089 Y279.1954
G1 X354.0314 Y264.8268
G1 X314.2637 Y264.4879
G1 X308.883 Y269.7776
G3 X295.615 Y264.1489 I-5.4682 J-5.5622
G1 X295.8315 Y238.7498
G3 X298.163 Y233.2541 I7.7997 J0.0665
G1 X354.7748 Y177.5991
G1 X354.8973 Y163.2305
G1 X315.1296 Y162.8916
G1 X309.7489 Y168.1813
G3 X296.4809 Y162.5526 I-5.4682 J-5.5622
G1 X296.6974 Y137.1535
G3 X297.6532 Y133.4782 I7.7997 J0.0665
G1 F300.0 X299.759 Y134.6296
G3 F800.0 X300.7114 Y133.3692 I4.7381 J2.5905
G1 X358.0321 Y77.0173
G1 X358.1835 Y59.2547
G1 X315.0218 Y58.8869
G1 X259.2962 Y113.6707
G1 X253.9494 Y741.0111
G1 X297.1111 Y741.379
G1 X352.8368 Y686.5952
G1 X352.9882 Y668.8326
G1 X309.8265 Y668.4647
G1 X303.7369 Y674.4514
G3 X294.5514 Y670.5546 I-3.7857 J-3.8508
G1 X294.7678 Y645.1555
G3 X296.382 Y641.3508 I5.3998 J0.046
G1 X353.7027 Y584.9989
G1 X353.8541 Y567.2363
G1 X310.6924 Y566.8684
G1 X304.6028 Y572.8551
G3 X295.4173 Y568.9583 I-3.7857 J-3.8508
G1 X295.6337 Y543.5592
G3 X297.2478 Y539.7545 I5.3998 J0.046
G1 X354.5686 Y483.4026
G1 X354.72 Y465.64
G1 X311.5583 Y465.2721
G1 X305.4687 Y471.2588
G3 X296.2832 Y467.362 I-3.7857 J-3.8508
G1 X296.4996 Y441.9629
G3 X298.1137 Y438.1582 I5.3998 J0.046
G1 X355.4345 Y381.8063
G1 X355.5858 Y364.0437
G1 X312.4242 Y363.6758
G1 X306.3345 Y369.6625
G3 X297.149 Y365.7657 I-3.7857 J-3.8508
G1 X297.3655 Y340.3666
G3 X298.9796 Y336.5618 I5.3998 J0.046
G1 X356.3004 Y280.2099
G1 X356.4517 Y262.4473
G1 X313.2901 Y262.0795
G1 X307.2004 Y268.0662
G3 X298.0149 Y264.1694 I-3.7857 J-3.8508
G1 X298.2314 Y238.7703
G3 X299.8455 Y234.9655 I5.3998 J0.046
G1 X357.1662 Y178.6136
G1 X357.3176 Y160.851
G1 X314.156 Y160.4832
G1 X308.0663 Y166.4699
G3 X298.8808 Y162.5731 I-3.7857 J-3.8508
G1 X299.0973 Y137.174
G3 X299.759 Y134.6296 I5.3998 J0.046
G1 F300.0 X301.8648 Y135.7809
G3 F800.0 X302.3939 Y135.0807 I2.6323 J1.4391
G1 X360.4236 Y78.0319
G1 X360.6039 Y56.8753
G1 X314.0482 Y56.4785
G1 X256.9047 Y112.6561
G1 X251.5291 Y743.3906
G1 X298.0847 Y743.7874
G1 X355.2282 Y687.6097
G1 X355.4085 Y666.4531
G1 X308.8529 Y666.0563
G1 X302.0543 Y672.74
G3 X296.9513 Y670.5751 I-2.1032 J-2.1393
G1 X297.1678 Y645.176
G3 X298.0645 Y643.0622 I2.9999 J0.0256
G1 X356.0941 Y586.0134
G1 X356.2744 Y564.8568
G1 X309.7188 Y564.46
G1 X302.9202 Y571.1437
G3 X297.8172 Y568.9788 I-2.1032 J-2.1393
G1 X298.0336 Y543.5797
G3 X298.9304 Y541.4659 I2.9999 J0.0256
G1 X356.96 Y484.4171
G1 X357.1403 Y463.2605
G1 X310.5847 Y462.8637
G1 X303.7861 Y469.5473
G3 X298.6831 Y467.3824 I-2.1032 J-2.1393
G1 X298.8995 Y441.9834
G3 X299.7963 Y439.8696 I2.9999 J0.0256
G1 X357.8259 Y382.8208
G1 X358.0062 Y361.6642
G1 X311.4505 Y361.2674
G1 X304.652 Y367.951
G3 X299.549 Y365.7861 I-2.1032 J-2.1393
G1 X299.7654 Y340.3871
G3 X300.6622 Y338.2733 I2.9999 J0.0256
G1 X358.6918 Y281.2245
G1 X358.8721 Y260.0679
G1 X312.3164 Y259.6711
G1 X305.5179 Y266.3547
G3 X300.4149 Y264.1898 I-2.1032 J-2.1393
G1 X300.6313 Y238.7908
G3 X301.5281 Y236.677 I2.9999 J0.0256
G1 X359.5577 Y179.6282
G1 X359.738 Y158.4716
G1 X313.1823 Y158.0748
G1 X306.3838 Y164.7584
G3 X301.2807 Y162.5935 I-2.1032 J-2.1393
G1 X301.4972 Y137.1944
G3 X301.8648 Y135.7809 I2.9999 J0.0256
G0 Z11.0
G0 X280.8066 Y124.2677
G0 Z-5.0
G1 F300.0 Z-8.0
G3 F800.0 X283.85 Y119.8218 I23.6905 J12.9523
G1 X280.8191 Y122.8015
G1 X280.8066 Y124.2677
G0 Z11.0
G0 X290.9786 Y198.0012
G0 Z-5.0
G1 F300.0 Z-8.0
G1 F800.0 X290.9765 Y198.2497
G1 X291.1603 Y198.069
G3 X290.9786 Y198.0012 I13.1203 J-35.4499
G1 F300.0 X289.7787 Y197.991
G1 F800.0 X289.7518 Y201.1364
G1 X293.3889 Y197.5609
G3 X289.7937 Y196.2299 I10.8918 J-34.9418
G1 X289.7787 Y197.991
G1 F300.0 X287.3787 Y197.9705
G1 F800.0 X287.3026 Y206.9099
G1 X298.1334 Y196.2621
G3 X287.4264 Y192.3777 I6.1472 J-33.643
G1 X287.3787 Y197.9705
G1 F300.0 X284.9788 Y197.9501
G1 F800.0 X284.8533 Y212.6833
G1 X303.4427 Y194.408
G3 X285.064 Y187.956 I0.8379 J-31.789
G1 X284.9788 Y197.9501
G1 F300.0 X282.5789 Y197.9296
G1 F800.0 X282.4038 Y218.4753
G3 X283.0202 Y217.851 I21.2274 J20.341
G1 X309.8347 Y191.4897
G3 X282.7096 Y182.5953 I-5.554 J-28.8706
G1 X282.5789 Y197.9296
G1 F300.0 X280.179 Y197.9092
G1 F800.0 X279.9407 Y225.864
G3 X284.7027 Y219.5624 I23.6905 J12.9523
G1 X321.3244 Y183.5597
G3 X280.3728 Y175.1657 I-17.0438 J-20.9406
G1 X280.179 Y197.9092
G0 Z11.0
G0 X290.1127 Y299.5975
G0 Z-5.0
G1 F300.0 Z-8.0
G1 F800.0 X290.1106 Y299.846
G1 X290.2944 Y299.6653
G3 X290.1127 Y299.5975 I13.1203 J-35.4499
G1 F300.0 X288.9128 Y299.5873
G1 F800.0 X288.886 Y302.7328
G1 X292.523 Y299.1572
G3 X288.9278 Y297.8262 I10.8918 J-34.9418
G1 X288.9128 Y299.5873
G1 F300.0 X286.5128 Y299.5669
G1 F800.0 X286.4367 Y308.5062
G1 X297.2675 Y297.8584
G3 X286.5605 Y293.974 I6.1472 J-33.643
G1 X286.5128 Y299.5669
G1 F300.0 X284.1129 Y299.5464
G1 F800.0 X283.9874 Y314.2797
G1 X302.5769 Y296.0044
G3 X284.1981 Y289.5523 I0.8379 J-31.789
G1 X284.1129 Y299.5464
G1 F300.0 X281.713 Y299.526
G1 F800.0 X281.5379 Y320.0716
G3 X282.1543 Y319.4473 I21.2274 J20.341
G1 X308.9688 Y293.086
G3 X281.8437 Y284.1916 I-5.554 J-28.8706
G1 X281.713 Y299.526
G1 F300.0 X279.3131 Y299.5055
G1 F800.0 X279.0749 Y327.4604
G3 X283.8368 Y321.1587 I23.6905 J12.9523
G1 X320.4585 Y285.156
G3 X279.5069 Y276.762 I-17.0438 J-20.9406
G1 X279.3131 Y299.5055
G0 Z11.0
G0 X289.2468 Y401.1938
G0 Z-5.0
G1 F300.0 Z-8.0
G1 F800.0 X289.2447 Y401.4423
G1 X289.4285 Y401.2616
G3 X289.2468 Y401.1938 I13.1203 J-35.4499
G1 F300.0 X289.6691 Y400.0706
G3 F800.0 X288.0619 Y399.4225 I12.8797 J-34.2589
G1 X288.0201 Y404.3291
G1 X291.6571 Y400.7535
G3 X289.6691 Y400.0706 I10.8918 J-34.9418
G1 F300.0 X290.5137 Y397.8241
G3 F800.0 X285.6946 Y395.5703 I12.0352 J-32.0124
G1 X285.5708 Y410.1025
G1 X296.4016 Y399.4547
G3 X290.5137 Y397.8241 I6.1472 J-33.643
G1 F300.0 X291.3583 Y395.5776
G3 F800.0 X283.3322 Y391.1487 I11.1906 J-29.7659
G1 X283.1215 Y415.876
G1 X301.711 Y397.6007
G3 X291.3583 Y395.5776 I0.8379 J-31.789
G1 F300.0 X292.2028 Y393.3312
G3 F800.0 X280.9778 Y385.788 I10.346 J-27.5194
G1 X280.672 Y421.6679
G3 X281.2884 Y421.0436 I21.2274 J20.341
G1 X308.1029 Y394.6823
G3 X292.2028 Y393.3312 I-5.554 J-28.8706
G1 F300.0 X293.0474 Y391.0847
G3 F800.0 X278.6411 Y378.3583 I9.5014 J-25.273
G1 X278.209 Y429.0567
G3 X282.971 Y422.755 I23.6905 J12.9523
G1 X319.5926 Y386.7523
G3 X293.0474 Y391.0847 I-17.0438 J-20.9406
G0 Z11.0
G0 X288.3809 Y502.7902
G0 Z-5.0
G1 F300.0 Z-8.0
G1 F800.0 X288.3788 Y503.0387
G1 X288.5626 Y502.8579
G3 X288.3809 Y502.7902 I13.1203 J-35.4499
G1 F300.0 X288.8032 Y501.6669
G3 F800.0 X287.196 Y501.0188 I12.8797 J-34.2589
G1 X287.1542 Y505.9254
G1 X290.7912 Y502.3498
G3 X288.8032 Y501.6669 I10.8918 J-34.9418
G1 F300.0 X289.6478 Y499.4204
G3 F800.0 X284.8287 Y497.1666 I12.0352 J-32.0124
G1 X284.7049 Y511.6988
G1 X295.5357 Y501.051
G3 X289.6478 Y499.4204 I6.1472 J-33.643
G1 F300.0 X290.4924 Y497.1739
G3 F800.0 X282.4663 Y492.745 I11.1906 J-29.7659
G1 X282.2556 Y517.4723
G1 X300.8451 Y499.197
G3 X290.4924 Y497.1739 I0.8379 J-31.789
G1 F300.0 X291.3369 Y494.9275
G3 F800.0 X280.1119 Y487.3843 I10.346 J-27.5194
G1 X279.8061 Y523.2642
G3 X280.4225 Y522.6399 I21.2274 J20.341
G1 X307.237 Y496.2786
G3 X291.3369 Y494.9275 I-5.554 J-28.8706
G1 F300.0 X292.1815 Y492.681
G3 F800.0 X277.7752 Y479.9546 I9.5014 J-25.273
G1 X277.3431 Y530.653
G3 X282.1051 Y524.3513 I23.6905 J12.9523
G1 X318.7268 Y488.3486
G3 X292.1815 Y492.681 I-17.0438 J-20.9406
G0 Z11.0
G0 X287.515 Y604.3865
G0 Z-5.0
G1 F300.0 Z-8.0
G1 F800.0 X287.5129 Y604.635
G1 X287.6967 Y604.4543
G3 X287.515 Y604.3865 I13.1203 J-35.4499
G1 F300.0 X286.3151 Y604.3762
G1 F800.0 X286.2883 Y607.5217
G1 X289.9253 Y603.9461
G3 X286.3301 Y602.6152 I10.8918 J-34.9418
G1 X286.3151 Y604.3762
G1 F300.0 X283.9152 Y604.3558
G1 F800.0 X283.839 Y613.2951
G1 X294.6698 Y602.6473
G3 X283.9628 Y598.7629 I6.1472 J-33.643
G1 X283.9152 Y604.3558
G1 F300.0 X281.5153 Y604.3353
G1 F800.0 X281.3897 Y619.0686
G1 X299.9792 Y600.7933
G3 X281.6004 Y594.3413 I0.8379 J-31.789
G1 X281.5153 Y604.3353
G1 F300.0 X279.1153 Y604.3149
G1 F800.0 X278.9402 Y624.8605
G3 X279.5566 Y624.2362 I21.2274 J20.341
G1 X306.3711 Y597.8749
G3 X279.246 Y588.9806 I-5.554 J-28.8706
G1 X279.1153 Y604.3149
G1 F300.0 X276.7154 Y604.2944
G1 F800.0 X276.4772 Y632.2493
G3 X281.2392 Y625.9477 I23.6905 J12.9523
G1 X317.8609 Y589.9449
G3 X276.9093 Y581.5509 I-17.0438 J-20.9406
G1 X276.7154 Y604.2944
G0 Z11.0
G0 X286.6491 Y705.9828
G0 Z-5.0
G1 F300.0 Z-8.0
G1 F800.0 X286.647 Y706.2313
G1 X286.8308 Y706.0506
G3 X286.6491 Y705.9828 I13.1203 J-35.4499
G1 F300.0 X287.0714 Y704.8595
G3 F800.0 X285.4642 Y704.2115 I12.8797 J-34.2589
G1 X285.4224 Y709.118
G1 X289.0594 Y705.5424
G3 X287.0714 Y704.8595 I10.8918 J-34.9418
G1 F300.0 X287.916 Y702.6131
G3 F800.0 X283.0969 Y700.3592 I12.0352 J-32.0124
G1 X282.9938 Y712.4576
G1 X285.4276 Y712.4784
G1 X293.8039 Y704.2436
G3 X287.916 Y702.6131 I6.1472 J-33.643
G1 F300.0 X288.7606 Y700.3666
G3 F800.0 X280.7345 Y695.9376 I11.1906 J-29.7659
G1 X280.5735 Y714.8371
G1 X286.4013 Y714.8868
G1 X299.1133 Y702.3896
G3 X288.7606 Y700.3666 I0.8379 J-31.789
G1 F300.0 X289.6051 Y698.1201
G3 F800.0 X278.3801 Y690.5769 I10.346 J-27.5194
G1 X278.1531 Y717.2166
G1 X287.3749 Y717.2952
G1 X305.5052 Y699.4713
G3 X289.6051 Y698.1201 I-5.554 J-28.8706
G1 F300.0 X290.4497 Y695.8736
G3 F800.0 X276.0434 Y683.1472 I9.5014 J-25.273
G1 X275.7327 Y719.596
G1 X288.3485 Y719.7035
G1 X316.995 Y691.5412
G3 X290.4497 Y695.8736 I-17.0438 J-20.9406
G1 F300.0 X291.2943 Y693.6271
G3 F800.0 X275.3521 Y670.391 I8.6569 J-23.0265
G1 X275.5685 Y644.9919
G3 X282.9217 Y627.6591 I24.5991 J0.2097
G1 X325.1018 Y586.1919
G1 X318.4814 Y586.1355
G1 X318.063 Y586.5468
G3 X276.218 Y568.7947 I-17.2459 J-17.5424
G1 X276.4344 Y543.3956
G3 X283.7876 Y526.0628 I24.5991 J0.2097
G1 X325.9677 Y484.5956
G1 X319.3473 Y484.5392
G1 X318.9289 Y484.9505
G3 X277.0839 Y467.1984 I-17.2459 J-17.5424
G1 X277.3003 Y441.7993
G3 X284.6535 Y424.4665 I24.5991 J0.2097
G1 X326.8336 Y382.9993
G1 X320.2131 Y382.9429
G1 X319.7948 Y383.3542
G3 X277.9497 Y365.6021 I-17.2459 J-17.5424
G1 X278.1662 Y340.203
G3 X285.5194 Y322.8702 I24.5991 J0.2097
G1 X327.6995 Y281.403
G1 X321.079 Y281.3466
G1 X320.6607 Y281.7578
G3 X278.8156 Y264.0057 I-17.2459 J-17.5424
G1 X279.0321 Y238.6067
G3 X286.3853 Y221.2739 I24.5991 J0.2097
G1 X328.5654 Y179.8067
G1 X321.9449 Y179.7503
G1 X321.5266 Y180.1615
G3 X279.6815 Y162.4094 I-17.2459 J-17.5424
G1 X279.898 Y137.0104
G3 X287.2512 Y119.6776 I24.5991 J0.2097
G1 X329.4313 Y78.2104
G1 X322.8108 Y78.1539
G1 X278.4277 Y121.7869
G1 X273.3124 Y721.9755
G1 X289.3221 Y722.1119
G1 X324.2359 Y687.7882
G1 X317.6155 Y687.7318
G1 X317.1971 Y688.1431
G3 X291.2943 Y693.6271 I-17.2459 J-17.5424
G1 F300.0 X292.1389 Y691.3806
G3 F800.0 X277.752 Y670.4114 I7.8123 J-20.78
G1 X277.9685 Y645.0124
G3 X284.6042 Y629.3706 I22.1992 J0.1892
G1 X330.9162 Y583.8414
G1 X317.5077 Y583.7271
G1 X316.3805 Y584.8353
G3 X278.6179 Y568.8151 I-15.5634 J-15.831
G1 X278.8343 Y543.416
G3 X285.4701 Y527.7743 I22.1992 J0.1892
G1 X331.7821 Y482.2451
G1 X318.3736 Y482.1308
G1 X317.2464 Y483.239
G3 X279.4838 Y467.2188 I-15.5634 J-15.831
G1 X279.7002 Y441.8197
G3 X286.336 Y426.178 I22.1992 J0.1892
G1 X332.648 Y380.6488
G1 X319.2395 Y380.5345
G1 X318.1123 Y381.6427
G3 X280.3497 Y365.6225 I-15.5634 J-15.831
G1 X280.5661 Y340.2234
G3 X287.2019 Y324.5816 I22.1992 J0.1892
G1 X333.5138 Y279.0525
G1 X320.1054 Y278.9382
G1 X318.9782 Y280.0464
G3 X281.2156 Y264.0262 I-15.5634 J-15.831
G1 X281.432 Y238.6271
G3 X288.0678 Y222.9853 I22.1992 J0.1892
G1 X334.3797 Y177.4561
G1 X320.9713 Y177.3419
G1 X319.8441 Y178.4501
G3 X282.0814 Y162.4299 I-15.5634 J-15.831
G1 X282.2979 Y137.0308
G3 X288.9337 Y121.389 I22.1992 J0.1892
G1 X335.2456 Y75.8598
G1 X321.8372 Y75.7456
G1 X276.0363 Y120.7724
G1 X270.892 Y724.3549
G1 X290.2957 Y724.5203
G1 X330.0503 Y685.4377
G1 X316.6418 Y685.3234
G1 X315.5146 Y686.4316
G3 X292.1389 Y691.3806 I-15.5634 J-15.831
G1 F300.0 X292.9834 Y689.1341
G3 F800.0 X280.1519 Y670.4319 I6.9677 J-18.5335
G1 X280.3684 Y645.0328
G3 X286.2868 Y631.082 I19.7993 J0.1687
G1 X336.7305 Y581.4909
G1 X316.5341 Y581.3187
G1 X314.698 Y583.1239
G3 X281.0178 Y568.8356 I-13.8809 J-14.1195
G1 X281.2343 Y543.4365
G3 X287.1527 Y529.4857 I19.7993 J0.1687
G1 X337.5964 Y479.8945
G1 X317.4 Y479.7224
G1 X315.5638 Y481.5275
G3 X281.8837 Y467.2393 I-13.8809 J-14.1195
G1 X282.1002 Y441.8402
G3 X288.0185 Y427.8894 I19.7993 J0.1687
G1 X338.4623 Y378.2982
G1 X318.2659 Y378.1261
G1 X316.4297 Y379.9312
G3 X282.7496 Y365.643 I-13.8809 J-14.1195
G1 X282.966 Y340.2439
G3 X288.8844 Y326.2931 I19.7993 J0.1687
G1 X339.3282 Y276.7019
G1 X319.1318 Y276.5298
G1 X317.2956 Y278.3349
G3 X283.6155 Y264.0467 I-13.8809 J-14.1195
G1 X283.8319 Y238.6476
G3 X289.7503 Y224.6968 I19.7993 J0.1687
G1 X340.1941 Y175.1056
G1 X319.9977 Y174.9335
G1 X318.1615 Y176.7386
G3 X284.4814 Y162.4503 I-13.8809 J-14.1195
G1 X284.6978 Y137.0513
G3 X290.6162 Y123.1005 I19.7993 J0.1687
G1 X341.06 Y73.5093
G1 X320.8636 Y73.3372
G1 X273.6448 Y119.7579
G1 X268.4716 Y726.7344
G1 X291.2694 Y726.9287
G1 X335.8646 Y683.0872
G1 X315.6682 Y682.915
G1 X313.8321 Y684.7202
G3 X292.9834 Y689.1341 I-13.8809 J-14.1195
G1 F300.0 X293.828 Y686.8877
G3 F800.0 X282.5518 Y670.4523 I6.1232 J-16.287
G1 X282.7683 Y645.0533
G3 X287.9693 Y632.7935 I17.3994 J0.1483
G1 X341.7455 Y579.9262
G1 X341.7522 Y579.1336
G1 X315.5605 Y578.9103
G1 X313.0154 Y581.4124
G3 X283.4177 Y568.856 I-12.1984 J-12.4081
G1 X283.6342 Y543.457
G3 X288.8352 Y531.1972 I17.3994 J0.1483
G1 X342.6114 Y478.3299
G1 X342.6181 Y477.5373
G1 X316.4264 Y477.314
G1 X313.8813 Y479.8161
G3 X284.2836 Y467.2597 I-12.1984 J-12.4081
G1 X284.5001 Y441.8606
G3 X289.7011 Y429.6009 I17.3994 J0.1483
G1 X343.4773 Y376.7336
G1 X343.484 Y375.9409
G1 X317.2923 Y375.7177
G1 X314.7472 Y378.2198
G3 X285.1495 Y365.6634 I-12.1984 J-12.4081
G1 X285.366 Y340.2643
G3 X290.567 Y328.0046 I17.3994 J0.1483
G1 X344.3432 Y275.1373
G1 X344.3499 Y274.3446
G1 X318.1582 Y274.1214
G1 X315.6131 Y276.6235
G3 X286.0154 Y264.0671 I-12.1984 J-12.4081
G1 X286.2319 Y238.668
G3 X291.4329 Y226.4082 I17.3994 J0.1483
G1 X345.209 Y173.541
G1 X345.2158 Y172.7483
G1 X319.0241 Y172.5251
G1 X316.479 Y175.0272
G3 X286.8813 Y162.4708 I-12.1984 J-12.4081
G1 X287.0977 Y137.0717
G3 X292.2988 Y124.8119 I17.3994 J0.1483
G1 X346.0749 Y71.9447
G1 X346.0817 Y71.152
G1 X319.89 Y70.9288
G1 X271.2534 Y118.7433
G1 X266.0513 Y729.1138
G1 X292.243 Y729.3371
G1 X340.8796 Y681.5225
G1 X340.8863 Y680.7299
G1 X314.6946 Y680.5066
G1 X312.1495 Y683.0087
G3 X293.828 Y686.8877 I-12.1984 J-12.4081
G1 F300.0 X294.6726 Y684.6412
G3 F800.0 X284.9517 Y670.4728 I5.2786 J-14.0405
G1 X285.1682 Y645.0737
G3 X289.6518 Y634.5049 I14.9995 J0.1278
G1 X344.1369 Y580.9408
G1 X344.1726 Y576.7541
G1 X314.5869 Y576.502
G1 X311.3329 Y579.7009
G3 X285.8176 Y568.8765 I-10.5158 J-10.6966
G1 X286.0341 Y543.4774
G3 X290.5177 Y532.9086 I14.9995 J0.1278
G1 X345.0028 Y479.3444
G1 X345.0385 Y475.1578
G1 X315.4528 Y474.9056
G1 X312.1988 Y478.1046
G3 X286.6835 Y467.2802 I-10.5158 J-10.6966
G1 X286.9 Y441.8811
G3 X291.3836 Y431.3123 I14.9995 J0.1278
G1 X345.8687 Y377.7481
G1 X345.9044 Y373.5615
G1 X316.3187 Y373.3093
G1 X313.0647 Y376.5083
G3 X287.5494 Y365.6839 I-10.5158 J-10.6966
G1 X287.7659 Y340.2848
G3 X292.2495 Y329.716 I14.9995 J0.1278
G1 X346.7346 Y276.1518
G1 X346.7703 Y271.9652
G1 X317.1846 Y271.713
G1 X313.9306 Y274.912
G3 X288.4153 Y264.0876 I-10.5158 J-10.6966
G1 X288.6318 Y238.6885
G3 X293.1154 Y228.1197 I14.9995 J0.1278
G1 X347.6005 Y174.5555
G1 X347.6362 Y170.3689
G1 X318.0504 Y170.1167
G1 X314.7965 Y173.3157
G3 X289.2812 Y162.4912 I-10.5158 J-10.6966
G1 X289.4977 Y137.0922
G3 X293.9813 Y126.5234 I14.9995 J0.1278
G1 X348.4664 Y72.9592
G1 X348.5021 Y68.7726
G1 X318.9163 Y68.5204
G1 X268.8619 Y117.7288
G1 X263.6309 Y731.4933
G1 X293.2166 Y731.7455
G1 X343.271 Y682.5371
G1 X343.3067 Y678.3504
G1 X313.721 Y678.0983
G1 X310.467 Y681.2972
G3 X294.6726 Y684.6412 I-10.5158 J-10.6966
G1 F300.0 X295.5172 Y682.3947
G3 F800.0 X287.3516 Y670.4933 I4.434 J-11.794
G1 X287.5681 Y645.0942
G3 X291.3344 Y636.2164 I12.5995 J0.1074
G1 X346.5284 Y581.9553
G1 X346.593 Y574.3747
G1 X313.6132 Y574.0936
G1 X309.6504 Y577.9895
G3 X288.2175 Y568.8969 I-8.8333 J-8.9852
G1 X288.434 Y543.4979
G3 X292.2003 Y534.6201 I12.5995 J0.1074
G1 X347.3942 Y480.359
G1 X347.4589 Y472.7783
G1 X314.4791 Y472.4973
G1 X310.5162 Y476.3932
G3 X289.0834 Y467.3006 I-8.8333 J-8.9852
G1 X289.2999 Y441.9016
G3 X293.0661 Y433.0238 I12.5995 J0.1074
G1 X348.2601 Y378.7627
G1 X348.3247 Y371.182
G1 X315.345 Y370.9009
G1 X311.3821 Y374.7969
G3 X289.9493 Y365.7043 I-8.8333 J-8.9852
G1 X290.1658 Y340.3052
G3 X293.932 Y331.4275 I12.5995 J0.1074
G1 X349.126 Y277.1664
G1 X349.1906 Y269.5857
G1 X316.2109 Y269.3046
G1 X312.248 Y273.2006
G3 X290.8152 Y264.108 I-8.8333 J-8.9852
G1 X291.0317 Y238.7089
G3 X294.7979 Y229.8312 I12.5995 J0.1074
G1 X349.9919 Y175.57
G1 X350.0565 Y167.9894
G1 X317.0768 Y167.7083
G1 X313.1139 Y171.6042
G3 X291.6811 Y162.5117 I-8.8333 J-8.9852
G1 X291.8976 Y137.1126
G3 X295.6638 Y128.2349 I12.5995 J0.1074
G1 X350.8578 Y73.9737
G1 X350.9224 Y66.3931
G1 X317.9427 Y66.112
G1 X266.4705 Y116.7143
G1 X261.2105 Y733.8728
G1 X294.1902 Y734.1538
G1 X345.6625 Y683.5516
G1 X345.7271 Y675.971
G1 X312.7474 Y675.6899
G1 X308.7845 Y679.5858
G3 X295.5172 Y682.3947 I-8.8333 J-8.9852
G1 F300.0 X296.3617 Y680.1482
G3 F800.0 X289.7515 Y670.5137 I3.5894 J-9.5476
G1 X289.968 Y645.1146
G3 X293.0169 Y637.9279 I10.1996 J0.0869
G1 X348.9198 Y582.9698
G1 X349.0133 Y571.9952
G1 X312.6396 Y571.6852
G1 X307.9678 Y576.278
G3 X290.6174 Y568.9174 I-7.1508 J-7.2737
G1 X290.8339 Y543.5183
G3 X293.8828 Y536.3316 I10.1996 J0.0869
G1 X349.7857 Y481.3735
G1 X349.8792 Y470.3989
G1 X313.5055 Y470.0889
G1 X308.8337 Y474.6817
G3 X291.4833 Y467.3211 I-7.1508 J-7.2737
G1 X291.6998 Y441.922
G3 X294.7487 Y434.7352 I10.1996 J0.0869
G1 X350.6516 Y379.7772
G1 X350.7451 Y368.8026
G1 X314.3714 Y368.4926
G1 X309.6996 Y373.0854
G3 X292.3492 Y365.7248 I-7.1508 J-7.2737
G1 X292.5657 Y340.3257
G3 X295.6146 Y333.1389 I10.1996 J0.0869
G1 X351.5175 Y278.1809
G1 X351.611 Y267.2063
G1 X315.2373 Y266.8963
G1 X310.5655 Y271.4891
G3 X293.2151 Y264.1285 I-7.1508 J-7.2737
G1 X293.4316 Y238.7294
G3 X296.4805 Y231.5426 I10.1996 J0.0869
G1 X352.3834 Y176.5846
G1 X352.4769 Y165.61
G1 X316.1032 Y165.2999
G1 X311.4314 Y169.8928
G3 X294.081 Y162.5322 I-7.1508 J-7.2737
G1 X294.2975 Y137.1331
G3 X297.3464 Y129.9463 I10.1996 J0.0869
G1 X353.2493 Y74.9883
G1 X353.3428 Y64.0136
G1 X316.9691 Y63.7036
G1 X264.0791 Y115.6997
G1 X258.7902 Y736.2522
G1 X295.1639 Y736.5622
G1 X348.0539 Y684.5661
G1 X348.1474 Y673.5915
G1 X311.7737 Y673.2815
G1 X307.1019 Y677.8743
G3 X296.3617 Y680.1482 I-7.1508 J-7.2737
G1 F300.0 X297.2063 Y677.9017
G3 F800.0 X292.1515 Y670.5342 I2.7449 J-7.3011
G1 X292.3679 Y645.1351
G3 X294.6994 Y639.6393 I7.7997 J0.0665
G1 X351.3112 Y583.9843
G1 X351.4337 Y569.6157
G1 X311.666 Y569.2768
G1 X306.2853 Y574.5666
G3 X293.0173 Y568.9379 I-5.4682 J-5.5622
G1 X293.2338 Y543.5388
G3 X295.5653 Y538.043 I7.7997 J0.0665
G1 X352.1771 Y482.388
G1 X352.2996 Y468.0194
G1 X312.5319 Y467.6805
G1 X307.1512 Y472.9703
G3 X293.8832 Y467.3415 I-5.4682 J-5.5622
G1 X294.0997 Y441.9425
G3 X296.4312 Y436.4467 I7.7997 J0.0665
G1 X353.043 Y380.7917
G1 X353.1655 Y366.4231
G1 X313.3978 Y366.0842
G1 X308.0171 Y371.3739
G3 X294.7491 Y365.7452 I-5.4682 J-5.5622
G1 X294.9656 Y340.3462
G3 X297.2971 Y334.8504 I7.7997 J0.0665
G1 X353.9089 Y279.1954
G1 X354.0314 Y264.8268
G1 X314.2637 Y264.4879
G1 X308.883 Y269.7776
G3 X295.615 Y264.1489 I-5.4682 J-5.5622
G1 X295.8315 Y238.7498
G3 X298.163 Y233.2541 I7.7997 J0.0665
G1 X354.7748 Y177.5991
G1 X354.8973 Y163.2305
G1 X315.1296 Y162.8916
G1 X309.7489 Y168.1813
G3 X296.4809 Y162.5526 I-5.4682 J-5.5622
G1 X296.6974 Y137.1535
G3 X299.0289 Y131.6578 I7.7997 J0.0665
G1 X355.6407 Y76.0028
G1 X355.7632 Y61.6342
G1 X315.9955 Y61.2952
G1 X261.6876 Y114.6852
G1 X256.3698 Y738.6317
G1 X296.1375 Y738.9706
G1 X350.4453 Y685.5807
G1 X350.5678 Y671.212
G1 X310.8001 Y670.8731
G1 X305.4194 Y676.1629
G3 X297.2063 Y677.9017 I-5.4682 J-5.5622
G1 F300.0 X298.0509 Y675.6552
G3 F800.0 X294.5514 Y670.5546 I1.9003 J-5.0546
G1 X294.7678 Y645.1555
G3 X296.382 Y641.3508 I5.3998 J0.046
G1 X353.7027 Y584.9989
G1 X353.8541 Y567.2363
G1 X310.6924 Y566.8684
G1 X304.6028 Y572.8551
G3 X295.4173 Y568.9583 I-3.7857 J-3.8508
G1 X295.6337 Y543.5592
G3 X297.2478 Y539.7545 I5.3998 J0.046
G1 X354.5686 Y483.4026
G1 X354.72 Y465.64
G1 X311.5583 Y465.2721
G1 X305.4687 Y471.2588
G3 X296.2832 Y467.362 I-3.7857 J-3.8508
G1 X296.4996 Y441.9629
G3 X298.1137 Y438.1582 I5.3998 J0.046
G1 X355.4345 Y381.8063
G1 X355.5858 Y364.0437
G1 X312.4242 Y363.6758
G1 X306.3345 Y369.6625
G3 X297.149 Y365.7657 I-3.7857 J-3.8508
G1 X297.3655 Y340.3666
G3 X298.9796 Y336.5618 I5.3998 J0.046
G1 X356.3004 Y280.2099
G1 X356.4517 Y262.4473
G1 X313.2901 Y262.0795
G1 X307.2004 Y268.0662
G3 X298.0149 Y264.1694 I-3.7857 J-3.8508
G1 X298.2314 Y238.7703
G3 X299.8455 Y234.9655 I5.3998 J0.046
G1 X357.1662 Y178.6136
G1 X357.3176 Y160.851
G1 X314.156 Y160.4832
G1 X308.0663 Y166.4699
G3 X298.8808 Y162.5731 I-3.7857 J-3.8508
G1 X299.0973 Y137.174
G3 X300.7114 Y133.3692 I5.3998 J0.046
G1 X358.0321 Y77.0173
G1 X358.1835 Y59.2547
G1 X315.0218 Y58.8869
G1 X259.2962 Y113.6707
G1 X253.9494 Y741.0111
G1 X297.1111 Y741.379
G1 X352.8368 Y686.5952
G1 X352.9882 Y668.8326
G1 X309.8265 Y668.4647
G1 X303.7369 Y674.4514
G3 X298.0509 Y675.6552 I-3.7857 J-3.8508
G1 F300.0 X298.8955 Y673.4087
G3 F800.0 X296.9513 Y670.5751 I1.0557 J-2.8081
G1 X297.1678 Y645.176
G3 X298.0645 Y643.0622 I2.9999 J0.0256
G1 X356.0941 Y586.0134
G1 X356.2744 Y564.8568
G1 X309.7188 Y564.46
G1 X302.9202 Y571.1437
G3 X297.8172 Y568.9788 I-2.1032 J-2.1393
G1 X298.0336 Y543.5797
G3 X298.9304 Y541.4659 I2.9999 J0.0256
G1 X356.96 Y484.4171
G1 X357.1403 Y463.2605
G1 X310.5847 Y462.8637
G1 X303.7861 Y469.5473
G3 X298.6831 Y467.3824 I-2.1032 J-2.1393
G1 X298.8995 Y441.9834
G3 X299.7963 Y439.8696 I2.9999 J0.0256
G1 X357.8259 Y382.8208
G1 X358.0062 Y361.6642
G1 X311.4505 Y361.2674
G1 X304.652 Y367.951
G3 X299.549 Y365.7861 I-2.1032 J-2.1393
G1 X299.7654 Y340.3871
G3 X300.6622 Y338.2733 I2.9999 J0.0256
G1 X358.6918 Y281.2245
G1 X358.8721 Y260.0679
G1 X312.3164 Y259.6711
G1 X305.5179 Y266.3547
G3 X300.4149 Y264.1898 I-2.1032 J-2.1393
G1 X300.6313 Y238.7908
G3 X301.5281 Y236.677 I2.9999 J0.0256
G1 X359.5577 Y179.6282
G1 X359.738 Y158.4716
G1 X313.1823 Y158.0748
G1 X306.3838 Y164.7584
G3 X301.2807 Y162.5935 I-2.1032 J-2.1393
G1 X301.4972 Y137.1944
G3 X302.3939 Y135.0807 I2.9999 J0.0256
G1 X360.4236 Y78.0319
G1 X360.6039 Y56.8753
G1 X314.0482 Y56.4785
G1 X256.9047 Y112.6561
G1 X251.5291 Y743.3906
G1 X298.0847 Y743.7874
G1 X355.2282 Y687.6097
G1 X355.4085 Y666.4531
G1 X308.8529 Y666.0563
G1 X302.0543 Y672.74
G3 X298.8955 Y673.4087 I-2.1032 J-2.1393
G0 Z11.0
G0 X286.6491 Y705.9828
G0 Z-7.0
G1 F300.0 Z-10.0
G1 F800.0 X286.647 Y706.2313
G1 X286.8308 Y706.0506
G3 X286.6491 Y705.9828 I13.1203 J-35.4499
G1 F300.0 X287.0714 Y704.8595
G3 F800.0 X285.4642 Y704.2115 I12.8797 J-34.2589
G1 X285.4224 Y709.118
G1 X289.0594 Y705.5424
G3 X287.0714 Y704.8595 I10.8918 J-34.9418
G1 F300.0 X287.916 Y702.6131
G3 F800.0 X283.0969 Y700.3592 I12.0352 J-32.0124
G1 X282.9938 Y712.4576
G1 X285.4276 Y712.4784
G1 X293.8039 Y704.2436
G3 X287.916 Y702.6131 I6.1472 J-33.643
G1 F300.0 X288.7606 Y700.3666
G3 F800.0 X280.7345 Y695.9376 I11.1906 J-29.7659
G1 X280.5735 Y714.8371
G1 X286.4013 Y714.8868
G1 X299.1133 Y702.3896
G3 X288.7606 Y700.3666 I0.8379 J-31.789
G1 F300.0 X289.6051 Y698.1201
G3 F800.0 X278.3801 Y690.5769 I10.346 J-27.5194
G1 X278.1531 Y717.2166
G1 X287.3749 Y717.2952
G1 X305.5052 Y699.4713
G3 X289.6051 Y698.1201 I-5.554 J-28.8706
G1 F300.0 X290.4497 Y695.8736
G3 F800.0 X276.0434 Y683.1472 I9.5014 J-25.273
G1 X275.7327 Y719.596
G1 X288.3485 Y719.7035
G1 X316.995 Y691.5412
G3 X290.4497 Y695.8736 I-17.0438 J-20.9406
G0 Z11.0
G0 X287.5129 Y604.635
G0 Z-7.0
G1 F300.0 Z-10.0
G1 F800.0 X287.6967 Y604.4543
G3 X287.515 Y604.3865 I13.1203 J-35.4499
G1 X287.5129 Y604.635
G1 F300.0 X286.313 Y604.6247
G1 F800.0 X286.2883 Y607.5217
G1 X289.9253 Y603.9461
G3 X286.3301 Y602.6152 I10.8918 J-34.9418
G1 X286.313 Y604.6247
G1 F300.0 X283.913 Y604.6043
G1 F800.0 X283.839 Y613.2951
G1 X294.6698 Y602.6473
G3 X283.9628 Y598.7629 I6.1472 J-33.643
G1 X283.913 Y604.6043
G1 F300.0 X281.5131 Y604.5838
G1 F800.0 X281.3897 Y619.0686
G1 X299.9792 Y600.7933
G3 X281.6004 Y594.3413 I0.8379 J-31.789
G1 X281.5131 Y604.5838
G1 F300.0 X279.1132 Y604.5634
G1 F800.0 X278.9402 Y624.8605
G3 X279.5566 Y624.2362 I21.2274 J20.341
G1 X306.3711 Y597.8749
G3 X279.246 Y588.9806 I-5.554 J-28.8706
G1 X279.1132 Y604.5634
G1 F300.0 X276.7133 Y604.5429
G1 F800.0 X276.4772 Y632.2493
G3 X281.2392 Y625.9477 I23.6905 J12.9523
G1 X317.8609 Y589.9449
G3 X276.9093 Y581.5509 I-17.0438 J-20.9406
G1 X276.7133 Y604.5429
G0 Z11.0
G0 X288.3788 Y503.0387
G0 Z-7.0
G1 F300.0 Z-10.0
G1 F800.0 X288.5626 Y502.8579
G3 X288.3809 Y502.7902 I13.1203 J-35.4499
G1 X288.3788 Y503.0387
G1 F300.0 X289.2201 Y503.8944
G1 F800.0 X290.7912 Y502.3498
G3 X287.196 Y501.0188 I10.8918 J-34.9418
G1 X287.1542 Y505.9254
G1 X289.2201 Y503.8944
G1 F300.0 X290.9026 Y505.6058
G1 F800.0 X295.5357 Y501.051
G3 X284.8287 Y497.1666 I6.1472 J-33.643
G1 X284.7049 Y511.6988
G1 X290.9026 Y505.6058
G1 F300.0 X292.5851 Y507.3173
G1 F800.0 X300.8451 Y499.197
G3 X282.4663 Y492.745 I0.8379 J-31.789
G1 X282.2556 Y517.4723
G1 X292.5851 Y507.3173
G1 F300.0 X294.2677 Y509.0288
G1 F800.0 X307.237 Y496.2786
G3 X280.1119 Y487.3843 I-5.554 J-28.8706
G1 X279.8061 Y523.2642
G3 X280.4225 Y522.6399 I21.2274 J20.341
G1 X294.2677 Y509.0288
G1 F300.0 X295.9502 Y510.7402
G1 F800.0 X318.7268 Y488.3486
G3 X277.7752 Y479.9546 I-17.0438 J-20.9406
G1 X277.3431 Y530.653
G3 X282.1051 Y524.3513 I23.6905 J12.9523
G1 X295.9502 Y510.7402
G0 Z11.0
G0 X289.2447 Y401.4423
G0 Z-7.0
G1 F300.0 Z-10.0
G1 F800.0 X289.4285 Y401.2616
G3 X289.2468 Y401.1938 I13.1203 J-35.4499
G1 X289.2447 Y401.4423
G1 F300.0 X288.0447 Y401.4321
G1 F800.0 X288.0201 Y404.3291
G1 X291.6571 Y400.7535
G3 X288.0619 Y399.4225 I10.8918 J-34.9418
G1 X288.0447 Y401.4321
G1 F300.0 X285.6448 Y401.4117
G1 F800.0 X285.5708 Y410.1025
G1 X296.4016 Y399.4547
G3 X285.6946 Y395.5703 I6.1472 J-33.643
G1 X285.6448 Y401.4117
G1 F300.0 X283.2449 Y401.3912
G1 F800.0 X283.1215 Y415.876
G1 X301.711 Y397.6007
G3 X283.3322 Y391.1487 I0.8379 J-31.789
G1 X283.2449 Y401.3912
G1 F300.0 X280.845 Y401.3708
G1 F800.0 X280.672 Y421.6679
G3 X281.2884 Y421.0436 I21.2274 J20.341
G1 X308.1029 Y394.6823
G3 X280.9778 Y385.788 I-5.554 J-28.8706
G1 X280.845 Y401.3708
G1 F300.0 X278.4451 Y401.3503
G1 F800.0 X278.209 Y429.0567
G3 X282.971 Y422.755 I23.6905 J12.9523
G1 X319.5926 Y386.7523
G3 X278.6411 Y378.3583 I-17.0438 J-20.9406
G1 X278.4451 Y401.3503
G0 Z11.0
G0 X290.1106 Y299.846
G0 Z-7.0
G1 F300.0 Z-10.0
G1 F800.0 X290.2944 Y299.6653
G3 X290.1127 Y299.5975 I13.1203 J-35.4499
G1 X290.1106 Y299.846
G1 F300.0 X288.9106 Y299.8358
G1 F800.0 X288.886 Y302.7328
G1 X292.523 Y299.1572
G3 X288.9278 Y297.8262 I10.8918 J-34.9418
G1 X288.9106 Y299.8358
G1 F300.0 X286.5107 Y299.8154
G1 F800.0 X286.4367 Y308.5062
G1 X297.2675 Y297.8584
G3 X286.5605 Y293.974 I6.1472 J-33.643
G1 X286.5107 Y299.8154
G1 F300.0 X284.1108 Y299.7949
G1 F800.0 X283.9874 Y314.2797
G1 X302.5769 Y296.0044
G3 X284.1981 Y289.5523 I0.8379 J-31.789
G1 X284.1108 Y299.7949
G1 F300.0 X281.7109 Y299.7744
G1 F800.0 X281.5379 Y320.0716
G3 X282.1543 Y319.4473 I21.2274 J20.341
G1 X308.9688 Y293.086
G3 X281.8437 Y284.1916 I-5.554 J-28.8706
G1 X281.7109 Y299.7744
G1 F300.0 X279.311 Y299.754
G1 F800.0 X279.0749 Y327.4604
G3 X283.8368 Y321.1587 I23.6905 J12.9523
G1 X320.4585 Y285.156
G3 X279.5069 Y276.762 I-17.0438 J-20.9406
G1 X279.311 Y299.754
G0 Z11.0
G0 X290.9765 Y198.2497
G0 Z-7.0
G1 F300.0 Z-10.0
G1 F800.0 X291.1603 Y198.069
G3 X290.9786 Y198.0012 I13.1203 J-35.4499
G1 X290.9765 Y198.2497
G1 F300.0 X289.7765 Y198.2395
G1 F800.0 X289.7518 Y201.1364
G1 X293.3889 Y197.5609
G3 X289.7937 Y196.2299 I10.8918 J-34.9418
G1 X289.7765 Y198.2395
G1 F300.0 X287.3766 Y198.219
G1 F800.0 X287.3026 Y206.9099
G1 X298.1334 Y196.2621
G3 X287.4264 Y192.3777 I6.1472 J-33.643
G1 X287.3766 Y198.219
G1 F300.0 X284.9767 Y198.1986
G1 F800.0 X284.8533 Y212.6833
G1 X303.4427 Y194.408
G3 X285.064 Y187.956 I0.8379 J-31.789
G1 X284.9767 Y198.1986
G1 F300.0 X282.5768 Y198.1781
G1 F800.0 X282.4038 Y218.4753
G3 X283.0202 Y217.851 I21.2274 J20.341
G1 X309.8347 Y191.4897
G3 X282.7096 Y182.5953 I-5.554 J-28.8706
G1 X282.5768 Y198.1781
G1 F300.0 X280.1769 Y198.1577
G1 F800.0 X279.9407 Y225.864
G3 X284.7027 Y219.5624 I23.6905 J12.9523
G1 X321.3244 Y183.5597
G3 X280.3728 Y175.1657 I-17.0438 J-20.9406
G1 X280.1769 Y198.1577
G0 Z11.0
G0 X280.8066 Y124.2677
G0 Z-7.0
G1 F300.0 Z-10.0
G3 F800.0 X283.85 Y119.8218 I23.6905 J12.9523
G1 X280.8191 Y122.8015
G1 X280.8066 Y124.2677
G1 F300.0 X282.9125 Y125.419
G3 F800.0 X287.2512 Y119.6776 I21.5847 J11.801
G1 X329.4313 Y78.2104
G1 X322.8108 Y78.1539
G1 X278.4277 Y121.7869
G1 X273.3124 Y721.9755
G1 X289.3221 Y722.1119
G1 X324.2359 Y687.7882
G1 X317.6155 Y687.7318
G1 X317.1971 Y688.1431
G3 X275.3521 Y670.391 I-17.2459 J-17.5424
G1 X275.5685 Y644.9919
G3 X282.9217 Y627.6591 I24.5991 J0.2097
G1 X325.1018 Y586.1919
G1 X318.4814 Y586.1355
G1 X318.063 Y586.5468
G3 X276.218 Y568.7947 I-17.2459 J-17.5424
G1 X276.4344 Y543.3956
G3 X283.7876 Y526.0628 I24.5991 J0.2097
G1 X325.9677 Y484.5956
G1 X319.3473 Y484.5392
G1 X318.9289 Y484.9505
G3 X277.0839 Y467.1984 I-17.2459 J-17.5424
G1 X277.3003 Y441.7993
G3 X284.6535 Y424.4665 I24.5991 J0.2097
G1 X326.8336 Y382.9993
G1 X320.2131 Y382.9429
G1 X319.7948 Y383.3542
G3 X277.9497 Y365.6021 I-17.2459 J-17.5424
G1 X278.1662 Y340.203
G3 X285.5194 Y322.8702 I24.5991 J0.2097
G1 X327.6995 Y281.403
G1 X321.079 Y281.3466
G1 X320.6607 Y281.7578
G3 X278.8156 Y264.0057 I-17.2459 J-17.5424
G1 X279.0321 Y238.6067
G3 X286.3853 Y221.2739 I24.5991 J0.2097
G1 X328.5654 Y179.8067
G1 X321.9449 Y179.7503
G1 X321.5266 Y180.1615
G3 X279.6815 Y162.4094 I-17.2459 J-17.5424
G1 X279.898 Y137.0104
G3 X282.9125 Y125.419 I24.5991 J0.2097
G1 F300.0 X285.0183 Y126.5704
G3 F800.0 X288.9337 Y121.389 I19.4788 J10.6496
G1 X335.2456 Y75.8598
G1 X321.8372 Y75.7456
G1 X276.0363 Y120.7724
G1 X270.892 Y724.3549
G1 X290.2957 Y724.5203
G1 X330.0503 Y685.4377
G1 X316.6418 Y685.3234
G1 X315.5146 Y686.4316
G3 X277.752 Y670.4114 I-15.5634 J-15.831
G1 X277.9685 Y645.0124
G3 X284.6042 Y629.3706 I22.1992 J0.1892
G1 X330.9162 Y583.8414
G1 X317.5077 Y583.7271
G1 X316.3805 Y584.8353
G3 X278.6179 Y568.8151 I-15.5634 J-15.831
G1 X278.8343 Y543.416
G3 X285.4701 Y527.7743 I22.1992 J0.1892
G1 X331.7821 Y482.2451
G1 X318.3736 Y482.1308
G1 X317.2464 Y483.239
G3 X279.4838 Y467.2188 I-15.5634 J-15.831
G1 X279.7002 Y441.8197
G3 X286.336 Y426.178 I22.1992 J0.1892
G1 X332.648 Y380.6488
G1 X319.2395 Y380.5345
G1 X318.1123 Y381.6427
G3 X280.3497 Y365.6225 I-15.5634 J-15.831
G1 X280.5661 Y340.2234
G3 X287.2019 Y324.5816 I22.1992 J0.1892
G1 X333.5138 Y279.0525
G1 X320.1054 Y278.9382
G1 X318.9782 Y280.0464
G3 X281.2156 Y264.0262 I-15.5634 J-15.831
G1 X281.432 Y238.6271
G3 X288.0678 Y222.9853 I22.1992 J0.1892
G1 X334.3797 Y177.4561
G1 X320.9713 Y177.3419
G1 X319.8441 Y178.4501
G3 X282.0814 Y162.4299 I-15.5634 J-15.831
G1 X282.2979 Y137.0308
G3 X285.0183 Y126.5704 I22.1992 J0.1892
G1 F300.0 X287.1241 Y127.7217
G3 F800.0 X290.6162 Y123.1005 I17.373 J9.4983
G1 X341.06 Y73.5093
G1 X320.8636 Y73.3372
G1 X273.6448 Y119.7579
G1 X268.4716 Y726.7344
G1 X291.2694 Y726.9287
G1 X335.8646 Y683.0872
G1 X315.6682 Y682.915
G1 X313.8321 Y684.7202
G3 X280.1519 Y670.4319 I-13.8809 J-14.1195
G1 X280.3684 Y645.0328
G3 X286.2868 Y631.082 I19.7993 J0.1687
G1 X336.7305 Y581.4909
G1 X316.5341 Y581.3187
G1 X314.698 Y583.1239
G3 X281.0178 Y568.8356 I-13.8809 J-14.1195
G1 X281.2343 Y543.4365
G3 X287.1527 Y529.4857 I19.7993 J0.1687
G1 X337.5964 Y479.8945
G1 X317.4 Y479.7224
G1 X315.5638 Y481.5275
G3 X281.8837 Y467.2393 I-13.8809 J-14.1195
G1 X282.1002 Y441.8402
G3 X288.0185 Y427.8894 I19.7993 J0.1687
G1 X338.4623 Y378.2982
G1 X318.2659 Y378.1261
G1 X316.4297 Y379.9312
G3 X282.7496 Y365.643 I-13.8809 J-14.1195
G1 X282.966 Y340.2439
G3 X288.8844 Y326.2931 I19.7993 J0.1687
G1 X339.3282 Y276.7019
G1 X319.1318 Y276.5298
G1 X317.2956 Y278.3349
G3 X283.6155 Y264.0467 I-13.8809 J-14.1195
G1 X283.8319 Y238.6476
G3 X289.7503 Y224.6968 I19.7993 J0.1687
G1 X340.1941 Y175.1056
G1 X319.9977 Y174.9335
G1 X318.1615 Y176.7386
G3 X284.4814 Y162.4503 I-13.8809 J-14.1195
G1 X284.6978 Y137.0513
G3 X287.1241 Y127.7217 I19.7993 J0.1687
G1 F300.0 X289.2299 Y128.873
G3 F800.0 X292.2988 Y124.8119 I15.2672 J8.347
G1 X346.0749 Y71.9447
G1 X346.0817 Y71.152
G1 X319.89 Y70.9288
G1 X271.2534 Y118.7433
G1 X266.0513 Y729.1138
G1 X292.243 Y729.3371
G1 X340.8796 Y681.5225
G1 X340.8863 Y680.7299
G1 X314.6946 Y680.5066
G1 X312.1495 Y683.0087
G3 X282.5518 Y670.4523 I-12.1984 J-12.4081
G1 X282.7683 Y645.0533
G3 X287.9693 Y632.7935 I17.3994 J0.1483
G1 X341.7455 Y579.9262
G1 X341.7522 Y579.1336
G1 X315.5605 Y578.9103
G1 X313.0154 Y581.4124
G3 X283.4177 Y568.856 I-12.1984 J-12.4081
G1 X283.6342 Y543.457
G3 X288.8352 Y531.1972 I17.3994 J0.1483
G1 X342.6114 Y478.3299
G1 X342.6181 Y477.5373
G1 X316.4264 Y477.314
G1 X313.8813 Y479.8161
G3 X284.2836 Y467.2597 I-12.1984 J-12.4081
G1 X284.5001 Y441.8606
G3 X289.7011 Y429.6009 I17.3994 J0.1483
G1 X343.4773 Y376.7336
G1 X343.484 Y375.9409
G1 X317.2923 Y375.7177
G1 X314.7472 Y378.2198
G3 X285.1495 Y365.6634 I-12.1984 J-12.4081
G1 X285.366 Y340.2643
G3 X290.567 Y328.0046 I17.3994 J0.1483
G1 X344.3432 Y275.1373
G1 X344.3499 Y274.3446
G1 X318.1582 Y274.1214
G1 X315.6131 Y276.6235
G3 X286.0154 Y264.0671 I-12.1984 J-12.4081
G1 X286.2319 Y238.668
G3 X291.4329 Y226.4082 I17.3994 J0.1483
G1 X345.209 Y173.541
G1 X345.2158 Y172.7483
G1 X319.0241 Y172.5251
G1 X316.479 Y175.0272
G3 X286.8813 Y162.4708 I-12.1984 J-12.4081
G1 X287.0977 Y137.0717
G3 X289.2299 Y128.873 I17.3994 J0.1483
G1 F300.0 X291.3357 Y130.0243
G3 F800.0 X293.9813 Y126.5234 I13.1614 J7.1957
G1 X348.4664 Y72.9592
G1 X348.5021 Y68.7726
G1 X318.9163 Y68.5204
G1 X268.8619 Y117.7288
G1 X263.6309 Y731.4933
G1 X293.2166 Y731.7455
G1 X343.271 Y682.5371
G1 X343.3067 Y678.3504
G1 X313.721 Y678.0983
G1 X310.467 Y681.2972
G3 X284.9517 Y670.4728 I-10.5158 J-10.6966
G1 X285.1682 Y645.0737
G3 X289.6518 Y634.5049 I14.9995 J0.1278
G1 X344.1369 Y580.9408
G1 X344.1726 Y576.7541
G1 X314.5869 Y576.502
G1 X311.3329 Y579.7009
G3 X285.8176 Y568.8765 I-10.5158 J-10.6966
G1 X286.0341 Y543.4774
G3 X290.5177 Y532.9086 I14.9995 J0.1278
G1 X345.0028 Y479.3444
G1 X345.0385 Y475.1578
G1 X315.4528 Y474.9056
G1 X312.1988 Y478.1046
G3 X286.6835 Y467.2802 I-10.5158 J-10.6966
G1 X286.9 Y441.8811
G3 X291.3836 Y431.3123 I14.9995 J0.1278
G1 X345.8687 Y377.7481
G1 X345.9044 Y373.5615
G1 X316.3187 Y373.3093
G1 X313.0647 Y376.5083
G3 X287.5494 Y365.6839 I-10.5158 J-10.6966
G1 X287.7659 Y340.2848
G3 X292.2495 Y329.716 I14.9995 J0.1278
G1 X346.7346 Y276.1518
G1 X346.7703 Y271.9652
G1 X317.1846 Y271.713
G1 X313.9306 Y274.912
G3 X288.4153 Y264.0876 I-10.5158 J-10.6966
G1 X288.6318 Y238.6885
G3 X293.1154 Y228.1197 I14.9995 J0.1278
G1 X347.6005 Y174.5555
G1 X347.6362 Y170.3689
G1 X318.0504 Y170.1167
G1 X314.7965 Y173.3157
G3 X289.2812 Y162.4912 I-10.5158 J-10.6966
G1 X289.4977 Y137.0922
G3 X291.3357 Y130.0243 I14.9995 J0.1278
G1 F300.0 X293.4416 Y131.1756
G3 F800.0 X295.6638 Y128.2349 I11.0556 J6.0444
G1 X350.8578 Y73.9737
G1 X350.9224 Y66.3931
G1 X317.9427 Y66.112
G1 X266.4705 Y116.7143
G1 X261.2105 Y733.8728
G1 X294.1902 Y734.1538
G1 X345.6625 Y683.5516
G1 X345.7271 Y675.971
G1 X312.7474 Y675.6899
G1 X308.7845 Y679.5858
G3 X287.3516 Y670.4933 I-8.8333 J-8.9852
G1 X287.5681 Y645.0942
G3 X291.3344 Y636.2164 I12.5995 J0.1074
G1 X346.5284 Y581.9553
G1 X346.593 Y574.3747
G1 X313.6132 Y574.0936
G1 X309.6504 Y577.9895
G3 X288.2175 Y568.8969 I-8.8333 J-8.9852
G1 X288.434 Y543.4979
G3 X292.2003 Y534.6201 I12.5995 J0.1074
G1 X347.3942 Y480.359
G1 X347.4589 Y472.7783
G1 X314.4791 Y472.4973
G1 X310.5162 Y476.3932
G3 X289.0834 Y467.3006 I-8.8333 J-8.9852
G1 X289.2999 Y441.9016
G3 X293.0661 Y433.0238 I12.5995 J0.1074
G1 X348.2601 Y378.7627
G1 X348.3247 Y371.182
G1 X315.345 Y370.9009
G1 X311.3821 Y374.7969
G3 X289.9493 Y365.7043 I-8.8333 J-8.9852
G1 X290.1658 Y340.3052
G3 X293.932 Y331.4275 I12.5995 J0.1074
G1 X349.126 Y277.1664
G1 X349.1906 Y269.5857
G1 X316.2109 Y269.3046
G1 X312.248 Y273.2006
G3 X290.8152 Y264.108 I-8.8333 J-8.9852
G1 X291.0317 Y238.7089
G3 X294.7979 Y229.8312 I12.5995 J0.1074
G1 X349.9919 Y175.57
G1 X350.0565 Y167.9894
G1 X317.0768 Y167.7083
G1 X313.1139 Y171.6042
G3 X291.6811 Y162.5117 I-8.8333 J-8.9852
G1 X291.8976 Y137.1126
G3 X293.4416 Y131.1756 I12.5995 J0.1074
G1 F300.0 X295.5474 Y132.3269
G3 F800.0 X297.3464 Y129.9463 I8.9497 J4.8931
G1 X353.2493 Y74.9883
G1 X353.3428 Y64.0136
G1 X316.9691 Y63.7036
G1 X264.0791 Y115.6997
G1 X258.7902 Y736.2522
G1 X295.1639 Y736.5622
G1 X348.0539 Y684.5661
G1 X348.1474 Y673.5915
G1 X311.7737 Y673.2815
G1 X307.1019 Y677.8743
G3 X289.7515 Y670.5137 I-7.1508 J-7.2737
G1 X289.968 Y645.1146
G3 X293.0169 Y637.9279 I10.1996 J0.0869
G1 X348.9198 Y582.9698
G1 X349.0133 Y571.9952
G1 X312.6396 Y571.6852
G1 X307.9678 Y576.278
G3 X290.6174 Y568.9174 I-7.1508 J-7.2737
G1 X290.8339 Y543.5183
G3 X293.8828 Y536.3316 I10.1996 J0.0869
G1 X349.7857 Y481.3735
G1 X349.8792 Y470.3989
G1 X313.5055 Y470.0889
G1 X308.8337 Y474.6817
G3 X291.4833 Y467.3211 I-7.1508 J-7.2737
G1 X291.6998 Y441.922
G3 X294.7487 Y434.7352 I10.1996 J0.0869
G1 X350.6516 Y379.7772
G1 X350.7451 Y368.8026
G1 X314.3714 Y368.4926
G1 X309.6996 Y373.0854
G3 X292.3492 Y365.7248 I-7.1508 J-7.2737
G1 X292.5657 Y340.3257
G3 X295.6146 Y333.1389 I10.1996 J0.0869
G1 X351.5175 Y278.1809
G1 X351.611 Y267.2063
G1 X315.2373 Y266.8963
G1 X310.5655 Y271.4891
G3 X293.2151 Y264.1285 I-7.1508 J-7.2737
G1 X293.4316 Y238.7294
G3 X296.4805 Y231.5426 I10.1996 J0.0869
G1 X352.3834 Y176.5846
G1 X352.4769 Y165.61
G1 X316.1032 Y165.2999
G1 X311.4314 Y169.8928
G3 X294.081 Y162.5322 I-7.1508 J-7.2737
G1 X294.2975 Y137.1331
G3 X295.5474 Y132.3269 I10.1996 J0.0869
G1 F300.0 X297.6532 Y133.4782
G3 F800.0 X299.0289 Y131.6578 I6.8439 J3.7418
G1 X355.6407 Y76.0028
G1 X355.7632 Y61.6342
G1 X315.9955 Y61.2952
G1 X261.6876 Y114.6852
G1 X256.3698 Y738.6317
G1 X296.1375 Y738.9706
G1 X350.4453 Y685.5807
G1 X350.5678 Y671.212
G1 X310.8001 Y670.8731
G1 X305.4194 Y676.1629
G3 X292.1515 Y670.5342 I-5.4682 J-5.5622
G1 X292.3679 Y645.1351
G3 X294.6994 Y639.6393 I7.7997 J0.0665
G1 X351.3112 Y583.9843
G1 X351.4337 Y569.6157
G1 X311.666 Y569.2768
G1 X306.2853 Y574.5666
G3 X293.0173 Y568.9379 I-5.4682 J-5.5622
G1 X293.2338 Y543.5388
G3 X295.5653 Y538.043 I7.7997 J0.0665
G1 X352.1771 Y482.388
G1 X352.2996 Y468.0194
G1 X312.5319 Y467.6805
G1 X307.1512 Y472.9703
G3 X293.8832 Y467.3415 I-5.4682 J-5.5622
G1 X294.0997 Y441.9425
G3 X296.4312 Y436.4467 I7.7997 J0.0665
G1 X353.043 Y380.7917
G1 X353.1655 Y366.4231
G1 X313.3978 Y366.0842
G1 X308.0171 Y371.3739
G3 X294.7491 Y365.7452 I-5.4682 J-5.5622
G1 X294.9656 Y340.3462
G3 X297.2971 Y334.8504 I7.7997 J0.0665
G1 X353.9089 Y279.1954
G1 X354.0314 Y264.8268
G1 X314.2637 Y264.4879
G1 X308.883 Y269.7776
G3 X295.615 Y264.1489 I-5.4682 J-5.5622
G1 X295.8315 Y238.7498
G3 X298.163 Y233.2541 I7.7997 J0.0665
G1 X354.7748 Y177.5991
G1 X354.8973 Y163.2305
G1 X315.1296 Y162.8916
G1 X309.7489 Y168.1813
G3 X296.4809 Y162.5526 I-5.4682 J-5.5622
G1 X296.6974 Y137.1535
G3 X297.6532 Y133.4782 I7.7997 J0.0665
G1 F300.0 X299.759 Y134.6296
G3 F800.0 X300.7114 Y133.3692 I4.7381 J2.5905
G1 X358.0321 Y77.0173
G1 X358.1835 Y59.2547
G1 X315.0218 Y58.8869
G1 X259.2962 Y113.6707
G1 X253.9494 Y741.0111
G1 X297.1111 Y741.379
G1 X352.8368 Y686.5952
G1 X352.9882 Y668.8326
G1 X309.8265 Y668.4647
G1 X303.7369 Y674.4514
G3 X294.5514 Y670.5546 I-3.7857 J-3.8508
G1 X294.7678 Y645.1555
G3 X296.382 Y641.3508 I5.3998 J0.046
G1 X353.7027 Y584.9989
G1 X353.8541 Y567.2363
G1 X310.6924 Y566.8684
G1 X304.6028 Y572.8551
G3 X295.4173 Y568.9583 I-3.7857 J-3.8508
G1 X295.6337 Y543.5592
G3 X297.2478 Y539.7545 I5.3998 J0.046
G1 X354.5686 Y483.4026
G1 X354.72 Y465.64
G1 X311.5583 Y465.2721
G1 X305.4687 Y471.2588
G3 X296.2832 Y467.362 I-3.7857 J-3.8508
G1 X296.4996 Y441.9629
G3 X298.1137 Y438.1582 I5.3998 J0.046
G1 X355.4345 Y381.8063
G1 X355.5858 Y364.0437
G1 X312.4242 Y363.6758
G1 X306.3345 Y369.6625
G3 X297.149 Y365.7657 I-3.7857 J-3.8508
G1 X297.3655 Y340.3666
G3 X298.9796 Y336.5618 I5.3998 J0.046
G1 X356.3004 Y280.2099
G1 X356.4517 Y262.4473
G1 X313.2901 Y262.0795
G1 X307.2004 Y268.0662
G3 X298.0149 Y264.1694 I-3.7857 J-3.8508
G1 X298.2314 Y238.7703
G3 X299.8455 Y234.9655 I5.3998 J0.046
G1 X357.1662 Y178.6136
G1 X357.3176 Y160.851
G1 X314.156 Y160.4832
G1 X308.0663 Y166.4699
G3 X298.8808 Y162.5731 I-3.7857 J-3.8508
G1 X299.0973 Y137.174
G3 X299.759 Y134.6296 I5.3998 J0.046
G1 F300.0 X301.8648 Y135.7809
G3 F800.0 X302.3939 Y135.0807 I2.6323 J1.4391
G1 X360.4236 Y78.0319
G1 X360.6039 Y56.8753
G1 X314.0482 Y56.4785
G1 X256.9047 Y112.6561
G1 X251.5291 Y743.3906
G1 X298.0847 Y743.7874
G1 X355.2282 Y687.6097
G1 X355.4085 Y666.4531
G1 X308.8529 Y666.0563
G1 X302.0543 Y672.74
G3 X296.9513 Y670.5751 I-2.1032 J-2.1393
G1 X297.1678 Y645.176
G3 X298.0645 Y643.0622 I2.9999 J0.0256
G1 X356.0941 Y586.0134
G1 X356.2744 Y564.8568
G1 X309.7188 Y564.46
G1 X302.9202 Y571.1437
G3 X297.8172 Y568.9788 I-2.1032 J-2.1393
G1 X298.0336 Y543.5797
G3 X298.9304 Y541.4659 I2.9999 J0.0256
G1 X356.96 Y484.4171
G1 X357.1403 Y463.2605
G1 X310.5847 Y462.8637
G1 X303.7861 Y469.5473
G3 X298.6831 Y467.3824 I-2.1032 J-2.1393
G1 X298.8995 Y441.9834
G3 X299.7963 Y439.8696 I2.9999 J0.0256
G1 X357.8259 Y382.8208
G1 X358.0062 Y361.6642
G1 X311.4505 Y361.2674
G1 X304.652 Y367.951
G3 X299.549 Y365.7861 I-2.1032 J-2.1393
G1 X299.7654 Y340.3871
G3 X300.6622 Y338.2733 I2.9999 J0.0256
G1 X358.6918 Y281.2245
G1 X358.8721 Y260.0679
G1 X312.3164 Y259.6711
G1 X305.5179 Y266.3547
G3 X300.4149 Y264.1898 I-2.1032 J-2.1393
G1 X300.6313 Y238.7908
G3 X301.5281 Y236.677 I2.9999 J0.0256
G1 X359.5577 Y179.6282
G1 X359.738 Y158.4716
G1 X313.1823 Y158.0748
G1 X306.3838 Y164.7584
G3 X301.2807 Y162.5935 I-2.1032 J-2.1393
G1 X301.4972 Y137.1944
G3 X301.8648 Y135.7809 I2.9999 J0.0256
G0 Z11.0
G0 X570.7791 Y126.7391
G0 Z1.0
G1 F300.0 Z-2.0
G3 F800.0 X573.8225 Y122.2932 I23.6905 J12.9523
G1 X570.7916 Y125.2729
G1 X570.7791 Y126.7391
G0 Z11.0
G0 X580.9511 Y200.4726
G0 Z1.0
G1 F300.0 Z-2.0
G1 F800.0 X580.949 Y200.7211
G1 X581.1328 Y200.5404
G3 X580.9511 Y200.4726 I13.1203 J-35.4499
G1 F300.0 X581.3734 Y199.3494
G3 F800.0 X579.7661 Y198.7013 I12.8797 J-34.2589
G1 X579.7243 Y203.6078
G1 X583.3613 Y200.0323
G3 X581.3734 Y199.3494 I10.8918 J-34.9418
G1 F300.0 X582.2179 Y197.1029
G3 F800.0 X577.3989 Y194.8491 I12.0352 J-32.0124
G1 X577.275 Y209.3813
G1 X588.1059 Y198.7335
G3 X582.2179 Y197.1029 I6.1472 J-33.643
G1 F300.0 X583.0625 Y194.8564
G3 F800.0 X575.0365 Y190.4274 I11.1906 J-29.7659
G1 X574.8257 Y215.1547
G1 X593.4152 Y196.8794
G3 X583.0625 Y194.8564 I0.8379 J-31.789
G1 F300.0 X583.9071 Y192.6099
G3 F800.0 X572.6821 Y185.0667 I10.346 J-27.5194
G1 X572.3763 Y220.9467
G3 X572.9927 Y220.3224 I21.2274 J20.341
G1 X599.8071 Y193.9611
G3 X583.9071 Y192.6099 I-5.554 J-28.8706
G1 F300.0 X584.7517 Y190.3634
G3 F800.0 X570.3453 Y177.6371 I9.5014 J-25.273
G1 X569.9132 Y228.3354
G3 X574.6752 Y222.0338 I23.6905 J12.9523
G1 X611.2969 Y186.0311
G3 X584.7517 Y190.3634 I-17.0438 J-20.9406
G0 Z11.0
G0 X580.0852 Y302.0689
G0 Z1.0
G1 F300.0 Z-2.0
G1 F800.0 X580.0831 Y302.3174
G1 X580.2669 Y302.1367
G3 X580.0852 Y302.0689 I13.1203 J-35.4499
G1 F300.0 X578.8852 Y302.0587
G1 F800.0 X578.8584 Y305.2042
G1 X582.4955 Y301.6286
G3 X578.9002 Y300.2976 I10.8918 J-34.9418
G1 X578.8852 Y302.0587
G1 F300.0 X576.4853 Y302.0383
G1 F800.0 X576.4091 Y310.9776
G1 X587.24 Y300.3298
G3 X576.533 Y296.4454 I6.1472 J-33.643
G1 X576.4853 Y302.0383
G1 F300.0 X574.0854 Y302.0178
G1 F800.0 X573.9598 Y316.7511
G1 X592.5493 Y298.4758
G3 X574.1706 Y292.0237 I0.8379 J-31.789
G1 X574.0854 Y302.0178
G1 F300.0 X571.6855 Y301.9974
G1 F800.0 X571.5104 Y322.543
G3 X572.1268 Y321.9187 I21.2274 J20.341
G1 X598.9412 Y295.5574
G3 X571.8162 Y286.663 I-5.554 J-28.8706
G1 X571.6855 Y301.9974
G1 F300.0 X569.2856 Y301.9769
G1 F800.0 X569.0473 Y329.9318
G3 X573.8093 Y323.6301 I23.6905 J12.9523
G1 X610.431 Y287.6274
G3 X569.4794 Y279.2334 I-17.0438 J-20.9406
G1 X569.2856 Y301.9769
G0 Z11.0
G0 X579.2193 Y403.6653
G0 Z1.0
G1 F300.0 Z-2.0
G1 F800.0 X579.2172 Y403.9137
G1 X579.401 Y403.733
G3 X579.2193 Y403.6653 I13.1203 J-35.4499
G1 F300.0 X578.0193 Y403.655
G1 F800.0 X577.9925 Y406.8005
G1 X581.6296 Y403.2249
G3 X578.0343 Y401.8939 I10.8918 J-34.9418
G1 X578.0193 Y403.655
G1 F300.0 X575.6194 Y403.6346
G1 F800.0 X575.5432 Y412.5739
G1 X586.3741 Y401.9261
G3 X575.6671 Y398.0417 I6.1472 J-33.643
G1 X575.6194 Y403.6346
G1 F300.0 X573.2195 Y403.6141
G1 F800.0 X573.0939 Y418.3474
G1 X591.6834 Y400.0721
G3 X573.3047 Y393.6201 I0.8379 J-31.789
