( Made using CamBam - http://www.cambam.co.uk )
( ParametricStandingDeskHutch_back 12/26/2015 10:52:54 PM )
( T6 : 6.0 )
G21 G90 G64 G40
G0 Z15.0
( T6 : 6.0 )
T6 M6
( Profile5 )
G17
M3 S1000
G0 X1019.55 Y1390.05
G0 Z1.0
G1 F300.0 Z-1.0
G1 F800.0 X1032.6
G1 X1033.4787 Y1390.9287
G1 X1032.6 Y1390.05
G1 Y1374.0
G3 X1035.6261 Y1371.0001 I3.0 J0.0
G1 X1036.0691 Y1371.004
G3 X1036.1216 Y1371.0049 I-0.0261 J2.9999
G1 X1036.5646 Y1371.0165
G3 X1036.6168 Y1371.0183 I-0.0786 J2.999
G1 X1037.0598 Y1371.0377
G3 X1037.1119 Y1371.0404 I-0.1308 J2.9971
G1 X1037.5549 Y1371.0674
G3 X1037.6074 Y1371.0711 I-0.1829 J2.9944
G1 X1038.0494 Y1371.1059
G3 X1038.1017 Y1371.1105 I-0.2354 J2.9907
G1 X1038.5427 Y1371.153
G3 X1038.595 Y1371.1585 I-0.2877 J2.9862
G1 X1039.035 Y1371.2086
G3 X1039.0861 Y1371.2149 I-0.34 J2.9807
G1 X1039.5261 Y1371.2728
G3 X1039.5789 Y1371.2802 I-0.3911 J2.9744
G1 X1040.0169 Y1371.3457
G3 X1040.0673 Y1371.3537 I-0.4439 J2.967
G1 X1040.5053 Y1371.4269
G3 X1040.5575 Y1371.4361 I-0.4943 J2.959
G1 X1040.9935 Y1371.5169
G3 X1041.0456 Y1371.527 I-0.5465 J2.9498
G1 X1041.4796 Y1371.6154
G3 X1041.53 Y1371.6261 I-0.5986 J2.9397
G1 X1041.963 Y1371.722
G3 X1042.0145 Y1371.7339 I-0.649 J2.929
G1 X1042.4455 Y1371.8374
G3 X1042.4964 Y1371.8501 I-0.7005 J2.9171
G1 X1042.9254 Y1371.9611
G3 X1042.976 Y1371.9747 I-0.7514 J2.9044
G1 X1043.403 Y1372.0931
G3 X1043.4531 Y1372.1075 I-0.802 J2.8908
G1 X1043.8781 Y1372.2334
G3 X1043.9277 Y1372.2486 I-0.8521 J2.8764
G1 X1044.3507 Y1372.3819
G3 X1044.4017 Y1372.3985 I-0.9017 J2.8613
G1 X1044.8217 Y1372.5391
G3 X1044.8702 Y1372.5558 I-0.9527 J2.8447
G1 X1045.2882 Y1372.7038
G3 X1045.3359 Y1372.7211 I-1.0012 J2.828
G1 X1045.7519 Y1372.8764
G3 X1045.8153 Y1372.9009 I-1.0489 J2.8107
G1 X1046.2223 Y1373.0633
G3 X1046.257 Y1373.0775 I-1.1123 J2.7862
G1 X1046.667 Y1373.2471
G3 X1046.7077 Y1373.2643 I-1.147 J2.7721
G1 X1047.1177 Y1373.4411
G3 X1047.1828 Y1373.4701 I-1.1877 J2.7549
G1 X1047.5828 Y1373.6539
G3 X1047.6218 Y1373.6722 I-1.2528 J2.7259
G1 X1048.0218 Y1373.863
G3 X1048.0598 Y1373.8815 I-1.2918 J2.7076
G1 X1048.4598 Y1374.0793
G3 X1048.5242 Y1374.1121 I-1.3298 J2.6891
G1 X1048.9142 Y1374.3168
G3 X1048.9503 Y1374.336 I-1.3942 J2.6563
G1 X1049.3403 Y1374.5475
G3 X1049.3753 Y1374.5668 I-1.4303 J2.6371
G1 X1049.7653 Y1374.7851
G3 X1049.8284 Y1374.8215 I-1.4653 J2.6178
G1 X1050.2084 Y1375.0465
G3 X1050.2414 Y1375.0663 I-1.5284 J2.5815
G1 X1050.6214 Y1375.2979
G3 X1050.6839 Y1375.3371 I-1.5614 J2.5616
G1 X1051.0539 Y1375.5753
G3 X1051.0848 Y1375.5954 I-1.6239 J2.5225
G1 X1051.4548 Y1375.8401
G3 X1051.4846 Y1375.8601 I-1.6548 J2.5023
G1 X1051.8546 Y1376.1112
G3 X1051.915 Y1376.1533 I-1.6846 J2.4823
G1 X1052.275 Y1376.4107
G3 X1052.3027 Y1376.4307 I-1.745 J2.4403
G1 X1052.6627 Y1376.6944
G3 X1052.7219 Y1376.7389 I-1.7727 J2.4202
G1 X1053.0719 Y1377.0087
G3 X1053.1306 Y1377.0552 I-1.8319 J2.3758
G1 X1053.4664 Y1377.3278
G1 X1053.8121 Y1377.6063
G3 X1053.9022 Y1377.6818 I-1.8821 J2.3362
G1 X1054.2268 Y1377.965
G1 X1054.5613 Y1378.254
G3 X1054.65 Y1378.3338 I-1.9613 J2.2701
G1 X1054.97 Y1378.6333
G3 X1054.9904 Y1378.6525 I-2.05 J2.1903
G1 X1055.3104 Y1378.9577
G3 X1055.3298 Y1378.9764 I-2.0704 J2.1711
G1 X1055.6498 Y1379.2871
G3 X1055.7022 Y1379.3393 I-2.0898 J2.1523
G1 X1056.0122 Y1379.6555
G3 X1056.0298 Y1379.6735 I-2.1422 J2.1002
G1 X1056.3398 Y1379.9951
G3 X1056.3901 Y1380.0486 I-2.1598 J2.0821
G1 X1056.6901 Y1380.3754
G3 X1056.7395 Y1380.4306 I-2.2101 J2.0287
G1 X1057.0295 Y1380.7626
G3 X1057.0442 Y1380.7796 I-2.2595 J1.9735
G1 X1057.3342 Y1381.1166
G3 X1057.3815 Y1381.173 I-2.2742 J1.9565
G1 X1057.6615 Y1381.515
G3 X1057.6745 Y1381.5311 I-2.3215 J1.9002
G1 X1057.9545 Y1381.8781
G3 X1057.9997 Y1381.9354 I-2.3345 J1.8841
G1 X1058.2697 Y1382.2871
G3 X1058.3134 Y1382.3455 I-2.3797 J1.8268
G1 X1058.5734 Y1382.7018
G3 X1058.5841 Y1382.7166 I-2.4234 J1.7684
G1 X1058.8441 Y1383.0775
G3 X1058.886 Y1383.1371 I-2.4341 J1.7536
G1 X1059.136 Y1383.5025
G3 X1059.1763 Y1383.563 I-2.476 J1.694
G1 X1059.4163 Y1383.9327
G3 X1059.4245 Y1383.9454 I-2.5163 J1.6335
G1 X1059.6645 Y1384.3192
G3 X1059.7029 Y1384.3806 I-2.5245 J1.6208
G1 X1059.9329 Y1384.7586
G3 X1059.9401 Y1384.7706 I-2.5629 J1.5594
G1 X1060.1701 Y1385.1526
G3 X1060.2061 Y1385.2139 I-2.5701 J1.5474
G1 X1060.4261 Y1385.5997
G3 X1060.4608 Y1385.6624 I-2.6061 J1.4861
G1 X1060.6708 Y1386.052
G3 X1060.704 Y1386.1153 I-2.6408 J1.4234
G1 X1060.904 Y1386.5085
G3 X1060.9089 Y1386.5183 I-2.674 J1.3601
G1 X1061.1089 Y1386.9151
G3 X1061.14 Y1386.9785 I-2.6789 J1.3503
G1 X1061.33 Y1387.3786
G3 X1061.3596 Y1387.4431 I-2.71 J1.2869
G1 X1061.5396 Y1387.8465
G3 X1061.5431 Y1387.8542 I-2.7396 J1.2224
G1 X1061.7231 Y1388.2607
G3 X1061.7508 Y1388.3254 I-2.7431 J1.2147
G1 X1061.9208 Y1388.735
G3 X1061.947 Y1388.8001 I-2.7708 J1.15
G1 X1062.107 Y1389.2126
G3 X1062.1093 Y1389.2188 I-2.797 J1.0849
G1 X1062.2693 Y1389.634
G3 X1062.2936 Y1389.6992 I-2.7993 J1.0787
G1 X1062.4436 Y1390.1171
G3 X1062.4663 Y1390.1827 I-2.8236 J1.0135
G1 X1062.6063 Y1390.6031
G3 X1062.6275 Y1390.6693 I-2.8463 J0.9479
G1 X1062.7575 Y1391.0921
G3 X1062.7588 Y1391.0963 I-2.8675 J0.8817
G1 X1062.8888 Y1391.5213
G3 X1062.9252 Y1391.6507 I-2.8688 J0.8775
G1 X1063.0275 Y1392.048
G1 X1063.1392 Y1392.4474
G3 X1063.1724 Y1392.5772 I-2.8892 J0.8078
G1 X1063.2724 Y1393.0082
G3 X1063.2872 Y1393.0754 I-2.9224 J0.678
G1 X1063.3772 Y1393.5082
G3 X1063.3776 Y1393.5105 I-2.9372 J0.6108
G1 X1063.4676 Y1393.945
G3 X1063.4807 Y1394.0118 I-2.9376 J0.6085
G1 X1063.5607 Y1394.4476
G3 X1063.561 Y1394.4494 I-2.9507 J0.5417
G1 X1063.641 Y1394.8867
G3 X1063.6623 Y1395.0198 I-2.951 J0.5399
G1 X1063.7223 Y1395.4582
G3 X1063.7224 Y1395.4592 I-2.9723 J0.4068
G1 X1063.7824 Y1395.8987
G3 X1063.7909 Y1395.9662 I-2.9724 J0.4058
G1 X1063.8409 Y1396.4067
G3 X1063.8477 Y1396.4741 I-2.9809 J0.3383
G1 X1063.8877 Y1396.9153
G1 X1063.8878 Y1396.9158
G1 X1063.9278 Y1397.3578
G3 X1063.9331 Y1397.4253 I-2.9878 J0.2704
G1 X1063.9631 Y1397.8678
G3 X1063.9692 Y1398.003 I-2.9931 J0.2029
G1 X1063.9785 Y1398.412
G1 X1063.997 Y1398.8215
G3 X1064.0 Y1398.9567 I-2.997 J0.1352
G1 Y1399.4
G1 Y1475.6
G1 Y1476.043
G3 X1063.9969 Y1476.1783 I-3.0 J0.0
G1 X1063.9785 Y1476.5875
G1 X1063.9692 Y1476.9967
G3 X1063.9631 Y1477.1317 I-2.9992 J-0.0677
G1 X1063.9331 Y1477.5747
G3 X1063.9278 Y1477.6424 I-2.9931 J-0.2027
G1 X1063.8878 Y1478.0844
G3 X1063.8877 Y1478.085 I-2.9878 J-0.2704
G1 X1063.8477 Y1478.526
G3 X1063.8408 Y1478.5937 I-2.9877 J-0.271
G1 X1063.7908 Y1479.0337
G3 X1063.7825 Y1479.1003 I-2.9808 J-0.3387
G1 X1063.7225 Y1479.5403
G3 X1063.7222 Y1479.5422 I-2.9725 J-0.4053
G1 X1063.6622 Y1479.9802
G3 X1063.6412 Y1480.112 I-2.9722 J-0.4072
G1 X1063.5612 Y1480.55
G3 X1063.5607 Y1480.5524 I-2.9512 J-0.539
G1 X1063.4807 Y1480.9884
G3 X1063.4675 Y1481.0562 I-2.9507 J-0.5414
G1 X1063.3775 Y1481.4902
G3 X1063.3772 Y1481.4915 I-2.9375 J-0.6092
G1 X1063.2872 Y1481.9245
G3 X1063.2724 Y1481.992 I-2.9372 J-0.6105
G1 X1063.1724 Y1482.423
G3 X1063.1391 Y1482.5531 I-2.9224 J-0.678
G1 X1063.0274 Y1482.9524
G1 X1062.9252 Y1483.3494
G3 X1062.8888 Y1483.4785 I-2.9052 J-0.7484
G1 X1062.7588 Y1483.9035
G3 X1062.7576 Y1483.9073 I-2.8688 J-0.8775
G1 X1062.6276 Y1484.3303
G3 X1062.606 Y1484.3977 I-2.8676 J-0.8813
G1 X1062.466 Y1484.8177
G3 X1062.4437 Y1484.8823 I-2.846 J-0.9487
G1 X1062.2937 Y1485.3003
G3 X1062.27 Y1485.3639 I-2.8237 J-1.0133
G1 X1062.11 Y1485.7799
G3 X1062.1065 Y1485.789 I-2.8 J-1.0769
G1 X1061.9465 Y1486.201
G3 X1061.9212 Y1486.264 I-2.7965 J-1.086
G1 X1061.7512 Y1486.674
G3 X1061.7225 Y1486.7409 I-2.7712 J-1.149
G1 X1061.5425 Y1487.1469
G3 X1061.5403 Y1487.1519 I-2.7425 J-1.2159
G1 X1061.3603 Y1487.5559
G3 X1061.3298 Y1487.6222 I-2.7403 J-1.2209
G1 X1061.1398 Y1488.0222
G3 X1061.1078 Y1488.0874 I-2.7098 J-1.2872
G1 X1060.9078 Y1488.4834
G3 X1060.9051 Y1488.4889 I-2.6778 J-1.3524
G1 X1060.7051 Y1488.8829
G3 X1060.6699 Y1488.9501 I-2.6751 J-1.3579
G1 X1060.4599 Y1489.3391
G3 X1060.4264 Y1489.3995 I-2.6399 J-1.4251
G1 X1060.2064 Y1489.7855
G3 X1060.1701 Y1489.8474 I-2.6064 J-1.4855
G1 X1059.9401 Y1490.2294
G3 X1059.9329 Y1490.2414 I-2.5701 J-1.5474
G1 X1059.7029 Y1490.6194
G3 X1059.6649 Y1490.6802 I-2.5629 J-1.5594
G1 X1059.4249 Y1491.0542
G3 X1059.4149 Y1491.0697 I-2.5249 J-1.6202
G1 X1059.1749 Y1491.4387
G3 X1059.1372 Y1491.4951 I-2.5149 J-1.6357
G1 X1058.8872 Y1491.8611
G3 X1058.8443 Y1491.9223 I-2.4772 J-1.6921
G1 X1058.5843 Y1492.2833
G3 X1058.5727 Y1492.2994 I-2.4343 J-1.7533
G1 X1058.3127 Y1492.6554
G3 X1058.2704 Y1492.7119 I-2.4227 J-1.7694
G1 X1058.0004 Y1493.0639
G3 X1057.9547 Y1493.1219 I-2.3804 J-1.8259
G1 X1057.6747 Y1493.4689
G3 X1057.6613 Y1493.4855 I-2.3347 J-1.8839
G1 X1057.3813 Y1493.8275
G3 X1057.334 Y1493.8838 I-2.3213 J-1.9005
G1 X1057.044 Y1494.2208
G3 X1057.0294 Y1494.2376 I-2.274 J-1.9568
G1 X1056.7394 Y1494.5696
G3 X1056.6906 Y1494.6241 I-2.2594 J-1.9736
G1 X1056.3906 Y1494.9511
G3 X1056.338 Y1495.007 I-2.2106 J-2.0281
G1 X1056.028 Y1495.328
G3 X1056.0149 Y1495.3415 I-2.158 J-2.084
G1 X1055.7049 Y1495.6585
G3 X1055.6474 Y1495.7157 I-2.1449 J-2.0975
G1 X1055.3274 Y1496.0257
G3 X1055.3098 Y1496.0426 I-2.0874 J-2.1547
G1 X1054.9898 Y1496.3476
G3 X1054.9718 Y1496.3646 I-2.0698 J-2.1716
G1 X1054.6518 Y1496.6646
G3 X1054.5622 Y1496.7453 I-2.0518 J-2.1886
G1 X1054.2274 Y1497.0348
G1 X1053.9026 Y1497.3183
G3 X1053.8122 Y1497.3941 I-1.9726 J-2.2603
G1 X1053.4644 Y1497.6743
G1 X1053.1266 Y1497.9475
G3 X1053.0724 Y1497.9903 I-1.8866 J-2.3325
G1 X1052.7224 Y1498.2603
G3 X1052.6641 Y1498.3042 I-1.8324 J-2.3753
G1 X1052.3041 Y1498.5682
G3 X1052.2731 Y1498.5907 I-1.7741 J-2.4192
G1 X1051.9131 Y1498.8477
G3 X1051.8588 Y1498.8855 I-1.7431 J-2.4417
G1 X1051.4888 Y1499.1375
G3 X1051.4516 Y1499.1625 I-1.6888 J-2.4795
G1 X1051.0816 Y1499.4065
G3 X1051.053 Y1499.4251 I-1.6516 J-2.5045
G1 X1050.683 Y1499.6631
G3 X1050.6233 Y1499.7005 I-1.623 J-2.5231
G1 X1050.2433 Y1499.9325
G3 X1050.2085 Y1499.9534 I-1.5633 J-2.5605
G1 X1049.8285 Y1500.1784
G3 X1049.7638 Y1500.2157 I-1.5285 J-2.5814
G1 X1049.3738 Y1500.4337
G3 X1049.3428 Y1500.4508 I-1.4638 J-2.6187
G1 X1048.9528 Y1500.6628
G3 X1048.9158 Y1500.6825 I-1.4328 J-2.6358
G1 X1048.5258 Y1500.8875
G3 X1048.4555 Y1500.9233 I-1.3958 J-2.6555
G1 X1048.0555 Y1501.1203
G3 X1048.0227 Y1501.1362 I-1.3255 J-2.6913
G1 X1047.6227 Y1501.3272
G3 X1047.5837 Y1501.3455 I-1.2927 J-2.7072
G1 X1047.1837 Y1501.5295
G3 X1047.1191 Y1501.5583 I-1.2537 J-2.7255
G1 X1046.7091 Y1501.7353
G3 X1046.6633 Y1501.7546 I-1.1891 J-2.7543
G1 X1046.2533 Y1501.9236
G3 X1046.2254 Y1501.935 I-1.1433 J-2.7736
G1 X1045.8184 Y1502.098
G3 X1045.7504 Y1502.1242 I-1.1154 J-2.785
G1 X1045.3344 Y1502.2792
G3 X1045.2883 Y1502.296 I-1.0474 J-2.8112
G1 X1044.8703 Y1502.444
G3 X1044.8238 Y1502.46 I-1.0013 J-2.828
G1 X1044.4038 Y1502.601
G3 X1044.3488 Y1502.6189 I-0.9548 J-2.844
G1 X1043.9258 Y1502.7519
G3 X1043.8787 Y1502.7663 I-0.8998 J-2.8619
G1 X1043.4537 Y1502.8923
G3 X1043.4064 Y1502.9059 I-0.8527 J-2.8763
G1 X1042.9794 Y1503.0249
G3 X1042.9255 Y1503.0394 I-0.8054 J-2.8899
G1 X1042.4965 Y1503.1504
G3 X1042.4423 Y1503.1638 I-0.7515 J-2.9044
G1 X1042.0113 Y1503.2668
G3 X1041.9634 Y1503.2779 I-0.6973 J-2.9178
G1 X1041.5304 Y1503.3739
G3 X1041.4772 Y1503.3852 I-0.6494 J-2.9289
G1 X1041.0432 Y1503.4732
G3 X1040.995 Y1503.4825 I-0.5962 J-2.9402
G1 X1040.559 Y1503.5635
G3 X1040.5042 Y1503.5732 I-0.548 J-2.9495
G1 X1040.0662 Y1503.6462
G3 X1040.02 Y1503.6535 I-0.4932 J-2.9592
G1 X1039.582 Y1503.7195
G3 X1039.5271 Y1503.7273 I-0.447 J-2.9665
G1 X1039.0871 Y1503.7853
G3 X1039.0337 Y1503.7918 I-0.3921 J-2.9743
G1 X1038.5937 Y1503.8418
G3 X1038.5394 Y1503.8475 I-0.3387 J-2.9808
G1 X1038.0984 Y1503.8895
G3 X1038.0508 Y1503.8936 I-0.2844 J-2.9865
G1 X1037.6088 Y1503.9286
G3 X1037.5545 Y1503.9324 I-0.2368 J-2.9906
G1 X1037.1115 Y1503.9594
G3 X1037.0643 Y1503.9619 I-0.1825 J-2.9944
G1 X1036.6213 Y1503.9819
G3 X1036.5605 Y1503.9841 I-0.1353 J-2.9969
G1 X1036.1175 Y1503.9951
G3 X1036.0701 Y1503.9959 I-0.0745 J-2.9991
G1 X1035.6271 Y1503.9999
G3 X1032.6 Y1501.0 I-0.0271 J-2.9999
G1 Y1484.95
G1 X1033.4787 Y1484.0713
G1 X1032.6 Y1484.95
G1 X1019.55
G1 X1018.6713 Y1484.0713
G1 X1019.55 Y1484.95
G1 Y1501.0
G3 X1016.55 Y1504.0 I-3.0 J0.0
G1 X89.45
G3 X86.45 Y1501.0 I0.0 J-3.0
G1 Y1484.95
G1 X87.3287 Y1484.0713
G1 X86.45 Y1484.95
G1 X73.4
G1 X72.5213 Y1484.0713
G1 X73.4 Y1484.95
G1 Y1501.0
G3 X70.3729 Y1503.9999 I-3.0 J0.0
G1 X69.9296 Y1503.9959
G3 X69.8823 Y1503.9951 I0.0271 J-2.9999
G1 X69.4391 Y1503.9841
G3 X69.3781 Y1503.9819 I0.0744 J-2.9991
G1 X68.9353 Y1503.9619
G3 X68.888 Y1503.9594 I0.1354 J-2.9969
G1 X68.4455 Y1503.9324
G3 X68.3914 Y1503.9286 I0.1827 J-2.9944
G1 X67.9494 Y1503.8936
G3 X67.9019 Y1503.8895 I0.2368 J-2.9906
G1 X67.4607 Y1503.8475
G3 X67.4067 Y1503.8419 I0.2843 J-2.9865
G1 X66.9662 Y1503.7919
G3 X66.912 Y1503.7852 I0.3383 J-2.9809
G1 X66.4725 Y1503.7272
G3 X66.4184 Y1503.7196 I0.3925 J-2.9742
G1 X65.98 Y1503.6536
G3 X65.9326 Y1503.6461 I0.4466 J-2.9666
G1 X65.4953 Y1503.5731
G3 X65.4411 Y1503.5635 I0.494 J-2.9591
G1 X65.0053 Y1503.4825
G3 X64.958 Y1503.4733 I0.5482 J-2.9495
G1 X64.5235 Y1503.3853
G3 X64.4694 Y1503.3738 I0.5955 J-2.9403
G1 X64.0366 Y1503.2778
G3 X63.9889 Y1503.2668 I0.6496 J-2.9288
G1 X63.5579 Y1503.1638
G3 X63.5041 Y1503.1504 I0.6973 J-2.9178
G1 X63.0749 Y1503.0394
G3 X63.021 Y1503.025 I0.7511 J-2.9044
G1 X62.5938 Y1502.906
G3 X62.5461 Y1502.8923 I0.805 J-2.89
G1 X62.1211 Y1502.7663
G3 X62.0736 Y1502.7517 I0.8527 J-2.8763
G1 X61.6508 Y1502.6187
G3 X61.597 Y1502.6013 I0.9002 J-2.8617
G1 X61.1766 Y1502.4603
G3 X61.1291 Y1502.4439 I0.954 J-2.8443
G1 X60.7112 Y1502.2959
G3 X60.6635 Y1502.2785 I1.0015 J-2.8279
G1 X60.2483 Y1502.1235
G3 X60.195 Y1502.1031 I1.0492 J-2.8105
G1 X59.7825 Y1501.9401
G3 X59.7408 Y1501.9232 I1.1025 J-2.7901
G1 X59.3312 Y1501.7542
G3 X59.2777 Y1501.7316 I1.1442 J-2.7732
G1 X58.8712 Y1501.5546
G3 X58.8239 Y1501.5335 I1.1977 J-2.7506
G1 X58.4205 Y1501.3495
G3 X58.3731 Y1501.3273 I1.245 J-2.7295
G1 X57.973 Y1501.1363
G3 X57.9313 Y1501.1161 I1.2924 J-2.7073
G1 X57.5345 Y1500.9191
G3 X57.4817 Y1500.8922 I1.3341 J-2.6871
G1 X57.0885 Y1500.6872
G3 X57.0415 Y1500.6621 I1.3869 J-2.6602
G1 X56.6519 Y1500.4501
G3 X56.6099 Y1500.4269 I1.4339 J-2.6351
G1 X56.2241 Y1500.2089
G3 X56.1775 Y1500.1819 I1.4759 J-2.6119
G1 X55.7955 Y1499.9569
G3 X55.7487 Y1499.9288 I1.5225 J-2.5849
G1 X55.3707 Y1499.6968
G3 X55.3288 Y1499.6706 I1.5693 J-2.5568
G1 X54.955 Y1499.4326
G3 X54.9137 Y1499.4058 I1.6112 J-2.5306
G1 X54.544 Y1499.1618
G3 X54.4933 Y1499.1276 I1.6525 J-2.5038
G1 X54.1279 Y1498.8756
G3 X54.0909 Y1498.8497 I1.7032 J-2.4696
G1 X53.73 Y1498.5927
G3 X53.6842 Y1498.5594 I1.7402 J-2.4437
G1 X53.3279 Y1498.2954
G3 X53.2871 Y1498.2647 I1.786 J-2.4104
G1 X52.9354 Y1497.9947
G3 X52.8987 Y1497.966 I1.8268 J-2.3797
G1 X52.5517 Y1497.691
G3 X52.5069 Y1497.6548 I1.8635 J-2.351
G1 X52.1649 Y1497.3728
G3 X52.1244 Y1497.3389 I1.9083 J-2.3148
G1 X51.7873 Y1497.0509
G3 X51.7473 Y1497.016 I1.9488 J-2.2809
G1 X51.4153 Y1496.722
G3 X51.3754 Y1496.6861 I1.9888 J-2.246
G1 X51.0486 Y1496.3861
G3 X51.0127 Y1496.3526 I2.0287 J-2.2101
G1 X50.6911 Y1496.0476
G3 X50.6555 Y1496.0132 I2.0645 J-2.1766
G1 X50.3393 Y1495.7032
G3 X50.297 Y1495.661 I2.1002 J-2.1422
G1 X49.9863 Y1495.344
G3 X49.9545 Y1495.311 I2.1425 J-2.1
G1 X49.6493 Y1494.99
G3 X49.6113 Y1494.9493 I2.1743 J-2.067
G1 X49.3118 Y1494.6223
G3 X49.2773 Y1494.5839 I2.2123 J-2.0263
G1 X48.9836 Y1494.2519
G3 X48.9494 Y1494.2126 I2.2468 J-1.9879
G1 X48.6615 Y1493.8756
G3 X48.6277 Y1493.8354 I2.281 J-1.9486
G1 X48.3458 Y1493.4934
G3 X48.3125 Y1493.4524 I2.3147 J-1.9084
G1 X48.0365 Y1493.1054
G3 X48.0037 Y1493.0633 I2.348 J-1.8674
G1 X47.7338 Y1492.7113
G3 X47.7039 Y1492.6716 I2.3808 J-1.8253
G1 X47.4402 Y1492.3156
G3 X47.4084 Y1492.2718 I2.4107 J-1.7856
G1 X47.151 Y1491.9108
G3 X47.1198 Y1491.8662 I2.4426 J-1.7418
G1 X46.8687 Y1491.5002
G3 X46.8422 Y1491.4609 I2.4738 J-1.6972
G1 X46.5975 Y1491.0919
G3 X46.5674 Y1491.0455 I2.5003 J-1.6579
G1 X46.3292 Y1490.6715
G3 X46.3016 Y1490.6275 I2.5304 J-1.6115
G1 X46.07 Y1490.2495
G3 X46.043 Y1490.2045 I2.5579 J-1.5675
G1 X45.818 Y1489.8225
G3 X45.7916 Y1489.7768 I2.585 J-1.5225
G1 X45.5733 Y1489.3908
G3 X45.5491 Y1489.3471 I2.6113 J-1.4768
G1 X45.3376 Y1488.9581
G3 X45.311 Y1488.9081 I2.6356 J-1.4331
G1 X45.1063 Y1488.5141
G3 X45.0846 Y1488.4716 I2.6621 J-1.3831
G1 X44.8868 Y1488.0756
G3 X44.863 Y1488.0268 I2.6838 J-1.3406
G1 X44.6722 Y1487.6268
G3 X44.6492 Y1487.5775 I2.7076 J-1.2918
G1 X44.4654 Y1487.1735
G3 X44.4453 Y1487.1286 I2.7306 J-1.2425
G1 X44.2686 Y1486.7226
G3 X44.2471 Y1486.672 I2.7506 J-1.1976
G1 X44.0775 Y1486.262
G3 X44.0587 Y1486.2156 I2.7721 J-1.147
G1 X43.8962 Y1485.8036
G3 X43.8764 Y1485.7519 I2.7908 J-1.1006
G1 X43.7211 Y1485.3359
G3 X43.7038 Y1485.2882 I2.8107 J-1.0489
G1 X43.5558 Y1484.8702
G3 X43.5391 Y1484.8217 I2.828 J-1.0012
G1 X43.3985 Y1484.4017
G3 X43.3819 Y1484.3507 I2.8447 J-0.9527
G1 X43.2486 Y1483.9277
G3 X43.2334 Y1483.8781 I2.8613 J-0.9017
G1 X43.1075 Y1483.4531
G3 X43.0931 Y1483.403 I2.8764 J-0.8521
G1 X42.9747 Y1482.976
G3 X42.9611 Y1482.9254 I2.8908 J-0.802
G1 X42.8501 Y1482.4964
G3 X42.8374 Y1482.4455 I2.9044 J-0.7514
G1 X42.7339 Y1482.0145
G3 X42.722 Y1481.963 I2.9171 J-0.7005
G1 X42.6261 Y1481.53
G3 X42.6154 Y1481.4796 I2.929 J-0.649
G1 X42.527 Y1481.0456
G3 X42.5169 Y1480.9935 I2.9397 J-0.5986
G1 X42.4361 Y1480.5575
G3 X42.4269 Y1480.5053 I2.9498 J-0.5465
G1 X42.3537 Y1480.0673
G3 X42.3457 Y1480.0169 I2.959 J-0.4943
G1 X42.2802 Y1479.5789
G3 X42.2728 Y1479.5261 I2.967 J-0.4439
G1 X42.2149 Y1479.0861
G3 X42.2086 Y1479.035 I2.9744 J-0.3911
G1 X42.1585 Y1478.595
G3 X42.153 Y1478.5427 I2.9807 J-0.34
G1 X42.1105 Y1478.1017
G3 X42.1059 Y1478.0494 I2.9862 J-0.2877
G1 X42.0711 Y1477.6074
G3 X42.0674 Y1477.5549 I2.9907 J-0.2354
G1 X42.0404 Y1477.1119
G3 X42.0377 Y1477.0598 I2.9944 J-0.1829
G1 X42.0183 Y1476.6168
G3 X42.0165 Y1476.5646 I2.9971 J-0.1308
G1 X42.0049 Y1476.1216
G3 X42.004 Y1476.0691 I2.999 J-0.0786
G1 X42.0001 Y1475.6261
G3 X42.0 Y1475.6 I2.9999 J-0.0261
G1 Y1399.4
G3 X42.0001 Y1399.3739 I3.0 J0.0
G1 X42.004 Y1398.9306
G3 X42.0049 Y1398.8781 I2.9999 J0.0261
G1 X42.0165 Y1398.4349
G3 X42.0183 Y1398.3826 I2.999 J0.0786
G1 X42.0377 Y1397.9398
G3 X42.0404 Y1397.8876 I2.9971 J0.1309
G1 X42.0675 Y1397.4451
G3 X42.0711 Y1397.3928 I2.9944 J0.1831
G1 X42.1059 Y1396.9508
G3 X42.1105 Y1396.8987 I2.9907 J0.2354
G1 X42.1529 Y1396.4575
G3 X42.1584 Y1396.4054 I2.9862 J0.2875
G1 X42.2086 Y1395.9649
G3 X42.215 Y1395.9129 I2.9807 J0.3396
G1 X42.2728 Y1395.4734
G3 X42.2801 Y1395.4215 I2.9743 J0.3916
G1 X42.3457 Y1394.9831
G3 X42.3538 Y1394.9315 I2.967 J0.4435
G1 X42.427 Y1394.4942
G3 X42.4361 Y1394.4425 I2.9589 J0.4951
G1 X42.5169 Y1394.0067
G3 X42.5269 Y1393.9555 I2.9498 J0.5468
G1 X42.6152 Y1393.521
G3 X42.6261 Y1393.4697 I2.9398 J0.598
G1 X42.7221 Y1393.0369
G3 X42.7339 Y1392.9857 I2.9289 J0.6493
G1 X42.8374 Y1392.5547
G3 X42.85 Y1392.5041 I2.9171 J0.7005
G1 X42.961 Y1392.0749
G3 X42.9746 Y1392.0243 I2.9045 J0.7511
G1 X43.093 Y1391.5971
G3 X43.1075 Y1391.5467 I2.8909 J0.8017
G1 X43.2334 Y1391.1217
G3 X43.2487 Y1391.0717 I2.8764 J0.8521
G1 X43.382 Y1390.6489
G3 X43.3982 Y1390.5991 I2.8611 J0.9021
G1 X43.5388 Y1390.1787
G3 X43.5559 Y1390.1292 I2.845 J0.9519
G1 X43.7039 Y1389.7113
G3 X43.7218 Y1389.6621 I2.8279 J1.0014
G1 X43.877 Y1389.2469
G3 X43.8958 Y1389.198 I2.81 J1.0506
G1 X44.0582 Y1388.7855
G3 X44.0779 Y1388.737 I2.7913 J1.0995
G1 X44.2475 Y1388.3274
G3 X44.268 Y1388.279 I2.7717 J1.148
G1 X44.4448 Y1387.8725
G3 X44.4661 Y1387.8248 I2.7511 J1.1964
G1 X44.6499 Y1387.4214
G3 X44.672 Y1387.374 I2.7299 J1.2441
G1 X44.8629 Y1386.9739
G3 X44.8857 Y1386.927 I2.7078 J1.2915
G1 X45.0836 Y1386.5302
G3 X45.1074 Y1386.4833 I2.6849 J1.3384
G1 X45.3121 Y1386.0901
G3 X45.3366 Y1386.044 I2.661 J1.3853
G1 X45.5482 Y1385.6544
G3 X45.5737 Y1385.6084 I2.6365 J1.4314
G1 X45.792 Y1385.2226
G3 X45.818 Y1385.1775 I2.611 J1.4774
G1 X46.043 Y1384.7955
G3 X46.07 Y1384.7505 I2.585 J1.5225
G1 X46.3016 Y1384.3725
G3 X46.3296 Y1384.3278 I2.5579 J1.5675
G1 X46.5677 Y1383.954
G3 X46.596 Y1383.9105 I2.53 J1.6122
G1 X46.8407 Y1383.5408
G3 X46.87 Y1383.4974 I2.5017 J1.6557
G1 X47.1211 Y1383.132
G3 X47.1512 Y1383.089 I2.4725 J1.6991
G1 X47.4086 Y1382.7281
G3 X47.4395 Y1382.6856 I2.4423 J1.7421
G1 X47.7032 Y1382.3293
G3 X47.7346 Y1382.2876 I2.4115 J1.7846
G1 X48.0044 Y1381.9359
G3 X48.0367 Y1381.8946 I2.3801 J1.8263
G1 X48.3127 Y1381.5477
G3 X48.3456 Y1381.5071 I2.3478 J1.8675
G1 X48.6276 Y1381.165
G3 X48.6613 Y1381.1248 I2.3149 J1.9082
G1 X48.9492 Y1380.7877
G3 X48.9835 Y1380.7483 I2.2812 J1.9484
G1 X49.2772 Y1380.4162
G3 X49.3123 Y1380.3772 I2.2469 J1.9878
G1 X49.6118 Y1380.0504
G3 X49.6475 Y1380.0121 I2.2118 J2.0268
G1 X49.9527 Y1379.6906
G3 X49.989 Y1379.653 I2.1761 J2.0651
G1 X50.2997 Y1379.3368
G3 X50.3368 Y1379.2997 I2.1398 J2.1027
G1 X50.653 Y1378.989
G3 X50.6906 Y1378.9527 I2.1027 J2.1398
G1 X51.0121 Y1378.6475
G3 X51.0504 Y1378.6118 I2.0651 J2.1761
G1 X51.3772 Y1378.3123
G3 X51.4162 Y1378.2772 I2.0268 J2.2118
G1 X51.7483 Y1377.9835
G3 X51.7877 Y1377.9492 I1.9878 J2.2469
G1 X52.1248 Y1377.6613
G3 X52.165 Y1377.6276 I1.9484 J2.2812
G1 X52.5071 Y1377.3456
G3 X52.5477 Y1377.3127 I1.9082 J2.3149
G1 X52.8946 Y1377.0367
G3 X52.9359 Y1377.0044 I1.8675 J2.3478
G1 X53.2876 Y1376.7346
G3 X53.3293 Y1376.7032 I1.8263 J2.3801
G1 X53.6856 Y1376.4395
G3 X53.7281 Y1376.4086 I1.7846 J2.4115
G1 X54.089 Y1376.1512
G3 X54.132 Y1376.1211 I1.7421 J2.4423
G1 X54.4974 Y1375.87
G3 X54.5408 Y1375.8407 I1.6991 J2.4725
G1 X54.9105 Y1375.596
G3 X54.954 Y1375.5677 I1.6557 J2.5017
G1 X55.3278 Y1375.3296
G3 X55.3725 Y1375.3016 I1.6122 J2.53
G1 X55.7505 Y1375.07
G3 X55.7955 Y1375.043 I1.5675 J2.5579
G1 X56.1775 Y1374.818
G3 X56.2226 Y1374.792 I1.5225 J2.585
G1 X56.6084 Y1374.5737
G3 X56.6544 Y1374.5482 I1.4774 J2.611
G1 X57.044 Y1374.3366
G3 X57.0901 Y1374.3121 I1.4314 J2.6365
G1 X57.4833 Y1374.1074
G3 X57.5302 Y1374.0836 I1.3853 J2.661
G1 X57.927 Y1373.8857
G3 X57.9739 Y1373.8629 I1.3384 J2.6849
G1 X58.374 Y1373.672
G3 X58.4214 Y1373.6499 I1.2915 J2.7078
G1 X58.8248 Y1373.4661
G3 X58.8725 Y1373.4448 I1.2441 J2.7299
G1 X59.279 Y1373.268
G3 X59.3274 Y1373.2475 I1.1964 J2.7511
G1 X59.737 Y1373.0779
G3 X59.7855 Y1373.0582 I1.148 J2.7717
G1 X60.198 Y1372.8958
G3 X60.2469 Y1372.877 I1.0995 J2.7913
G1 X60.6621 Y1372.7218
G3 X60.7113 Y1372.7039 I1.0506 J2.81
G1 X61.1292 Y1372.5559
G3 X61.1787 Y1372.5388 I1.0014 J2.8279
G1 X61.5991 Y1372.3982
G3 X61.6489 Y1372.382 I0.9519 J2.845
G1 X62.0717 Y1372.2487
G3 X62.1217 Y1372.2334 I0.9021 J2.8611
G1 X62.5467 Y1372.1075
G3 X62.5971 Y1372.093 I0.8521 J2.8764
G1 X63.0243 Y1371.9746
G3 X63.0749 Y1371.961 I0.8017 J2.8909
G1 X63.5041 Y1371.85
G3 X63.5547 Y1371.8374 I0.7511 J2.9045
G1 X63.9857 Y1371.7339
G3 X64.0369 Y1371.7221 I0.7005 J2.9171
G1 X64.4697 Y1371.6261
G3 X64.521 Y1371.6152 I0.6493 J2.9289
G1 X64.9555 Y1371.5269
G3 X65.0067 Y1371.5169 I0.598 J2.9398
G1 X65.4425 Y1371.4361
G3 X65.4942 Y1371.427 I0.5468 J2.9498
G1 X65.9315 Y1371.3538
G3 X65.9831 Y1371.3457 I0.4951 J2.9589
G1 X66.4215 Y1371.2801
G3 X66.4734 Y1371.2728 I0.4435 J2.967
G1 X66.9129 Y1371.215
G3 X66.9649 Y1371.2086 I0.3916 J2.9743
G1 X67.4054 Y1371.1584
G3 X67.4575 Y1371.1529 I0.3396 J2.9807
G1 X67.8987 Y1371.1105
G3 X67.9508 Y1371.1059 I0.2875 J2.9862
G1 X68.3928 Y1371.0711
G3 X68.4451 Y1371.0675 I0.2354 J2.9907
G1 X68.8876 Y1371.0404
G3 X68.9398 Y1371.0377 I0.1831 J2.9944
G1 X69.3826 Y1371.0183
G3 X69.4349 Y1371.0165 I0.1309 J2.9971
G1 X69.8781 Y1371.0049
G3 X69.9306 Y1371.004 I0.0786 J2.999
G1 X70.3739 Y1371.0001
G3 X73.4 Y1374.0 I0.0261 J2.9999
G1 Y1390.05
G1 X72.5213 Y1390.9287
G1 X73.4 Y1390.05
G1 X86.45
G1 X87.3287 Y1390.9287
G1 X86.45 Y1390.05
G1 Y1374.0
G3 X89.45 Y1371.0 I3.0 J0.0
G1 X1016.55
G3 X1019.55 Y1374.0 I0.0 J3.0
G1 Y1390.05
G1 X1018.6713 Y1390.9287
G1 X1019.55 Y1390.05
G1 F300.0 Z-2.0
G1 F800.0 X1032.6
G1 X1033.4787 Y1390.9287
G1 X1032.6 Y1390.05
G1 Y1374.0
G3 X1035.6261 Y1371.0001 I3.0 J0.0
G1 X1036.0691 Y1371.004
G3 X1036.1216 Y1371.0049 I-0.0261 J2.9999
G1 X1036.5646 Y1371.0165
G3 X1036.6168 Y1371.0183 I-0.0786 J2.999
G1 X1037.0598 Y1371.0377
G3 X1037.1119 Y1371.0404 I-0.1308 J2.9971
G1 X1037.5549 Y1371.0674
G3 X1037.6074 Y1371.0711 I-0.1829 J2.9944
G1 X1038.0494 Y1371.1059
G3 X1038.1017 Y1371.1105 I-0.2354 J2.9907
G1 X1038.5427 Y1371.153
G3 X1038.595 Y1371.1585 I-0.2877 J2.9862
G1 X1039.035 Y1371.2086
G3 X1039.0861 Y1371.2149 I-0.34 J2.9807
G1 X1039.5261 Y1371.2728
G3 X1039.5789 Y1371.2802 I-0.3911 J2.9744
G1 X1040.0169 Y1371.3457
G3 X1040.0673 Y1371.3537 I-0.4439 J2.967
G1 X1040.5053 Y1371.4269
G3 X1040.5575 Y1371.4361 I-0.4943 J2.959
G1 X1040.9935 Y1371.5169
G3 X1041.0456 Y1371.527 I-0.5465 J2.9498
G1 X1041.4796 Y1371.6154
G3 X1041.53 Y1371.6261 I-0.5986 J2.9397
G1 X1041.963 Y1371.722
G3 X1042.0145 Y1371.7339 I-0.649 J2.929
G1 X1042.4455 Y1371.8374
G3 X1042.4964 Y1371.8501 I-0.7005 J2.9171
G1 X1042.9254 Y1371.9611
G3 X1042.976 Y1371.9747 I-0.7514 J2.9044
G1 X1043.403 Y1372.0931
G3 X1043.4531 Y1372.1075 I-0.802 J2.8908
G1 X1043.8781 Y1372.2334
G3 X1043.9277 Y1372.2486 I-0.8521 J2.8764
G1 X1044.3507 Y1372.3819
G3 X1044.4017 Y1372.3985 I-0.9017 J2.8613
G1 X1044.8217 Y1372.5391
G3 X1044.8702 Y1372.5558 I-0.9527 J2.8447
G1 X1045.2882 Y1372.7038
G3 X1045.3359 Y1372.7211 I-1.0012 J2.828
G1 X1045.7519 Y1372.8764
G3 X1045.8153 Y1372.9009 I-1.0489 J2.8107
G1 X1046.2223 Y1373.0633
G3 X1046.257 Y1373.0775 I-1.1123 J2.7862
G1 X1046.667 Y1373.2471
G3 X1046.7077 Y1373.2643 I-1.147 J2.7721
G1 X1047.1177 Y1373.4411
G3 X1047.1828 Y1373.4701 I-1.1877 J2.7549
G1 X1047.5828 Y1373.6539
G3 X1047.6218 Y1373.6722 I-1.2528 J2.7259
G1 X1048.0218 Y1373.863
G3 X1048.0598 Y1373.8815 I-1.2918 J2.7076
G1 X1048.4598 Y1374.0793
G3 X1048.5242 Y1374.1121 I-1.3298 J2.6891
G1 X1048.9142 Y1374.3168
G3 X1048.9503 Y1374.336 I-1.3942 J2.6563
G1 X1049.3403 Y1374.5475
G3 X1049.3753 Y1374.5668 I-1.4303 J2.6371
G1 X1049.7653 Y1374.7851
G3 X1049.8284 Y1374.8215 I-1.4653 J2.6178
G1 X1050.2084 Y1375.0465
G3 X1050.2414 Y1375.0663 I-1.5284 J2.5815
G1 X1050.6214 Y1375.2979
G3 X1050.6839 Y1375.3371 I-1.5614 J2.5616
G1 X1051.0539 Y1375.5753
G3 X1051.0848 Y1375.5954 I-1.6239 J2.5225
G1 X1051.4548 Y1375.8401
G3 X1051.4846 Y1375.8601 I-1.6548 J2.5023
G1 X1051.8546 Y1376.1112
G3 X1051.915 Y1376.1533 I-1.6846 J2.4823
G1 X1052.275 Y1376.4107
G3 X1052.3027 Y1376.4307 I-1.745 J2.4403
G1 X1052.6627 Y1376.6944
G3 X1052.7219 Y1376.7389 I-1.7727 J2.4202
G1 X1053.0719 Y1377.0087
G3 X1053.1306 Y1377.0552 I-1.8319 J2.3758
G1 X1053.4664 Y1377.3278
G1 X1053.8121 Y1377.6063
G3 X1053.9022 Y1377.6818 I-1.8821 J2.3362
G1 X1054.2268 Y1377.965
G1 X1054.5613 Y1378.254
G3 X1054.65 Y1378.3338 I-1.9613 J2.2701
G1 X1054.97 Y1378.6333
G3 X1054.9904 Y1378.6525 I-2.05 J2.1903
G1 X1055.3104 Y1378.9577
G3 X1055.3298 Y1378.9764 I-2.0704 J2.1711
G1 X1055.6498 Y1379.2871
G3 X1055.7022 Y1379.3393 I-2.0898 J2.1523
G1 X1056.0122 Y1379.6555
G3 X1056.0298 Y1379.6735 I-2.1422 J2.1002
G1 X1056.3398 Y1379.9951
G3 X1056.3901 Y1380.0486 I-2.1598 J2.0821
G1 X1056.6901 Y1380.3754
G3 X1056.7395 Y1380.4306 I-2.2101 J2.0287
G1 X1057.0295 Y1380.7626
G3 X1057.0442 Y1380.7796 I-2.2595 J1.9735
G1 X1057.3342 Y1381.1166
G3 X1057.3815 Y1381.173 I-2.2742 J1.9565
G1 X1057.6615 Y1381.515
G3 X1057.6745 Y1381.5311 I-2.3215 J1.9002
G1 X1057.9545 Y1381.8781
G3 X1057.9997 Y1381.9354 I-2.3345 J1.8841
G1 X1058.2697 Y1382.2871
G3 X1058.3134 Y1382.3455 I-2.3797 J1.8268
G1 X1058.5734 Y1382.7018
G3 X1058.5841 Y1382.7166 I-2.4234 J1.7684
G1 X1058.8441 Y1383.0775
G3 X1058.886 Y1383.1371 I-2.4341 J1.7536
G1 X1059.136 Y1383.5025
G3 X1059.1763 Y1383.563 I-2.476 J1.694
G1 X1059.4163 Y1383.9327
G3 X1059.4245 Y1383.9454 I-2.5163 J1.6335
G1 X1059.6645 Y1384.3192
G3 X1059.7029 Y1384.3806 I-2.5245 J1.6208
G1 X1059.9329 Y1384.7586
G3 X1059.9401 Y1384.7706 I-2.5629 J1.5594
G1 X1060.1701 Y1385.1526
G3 X1060.2061 Y1385.2139 I-2.5701 J1.5474
G1 X1060.4261 Y1385.5997
G3 X1060.4608 Y1385.6624 I-2.6061 J1.4861
G1 X1060.6708 Y1386.052
G3 X1060.704 Y1386.1153 I-2.6408 J1.4234
G1 X1060.904 Y1386.5085
G3 X1060.9089 Y1386.5183 I-2.674 J1.3601
G1 X1061.1089 Y1386.9151
G3 X1061.14 Y1386.9785 I-2.6789 J1.3503
G1 X1061.33 Y1387.3786
G3 X1061.3596 Y1387.4431 I-2.71 J1.2869
G1 X1061.5396 Y1387.8465
G3 X1061.5431 Y1387.8542 I-2.7396 J1.2224
G1 X1061.7231 Y1388.2607
G3 X1061.7508 Y1388.3254 I-2.7431 J1.2147
G1 X1061.9208 Y1388.735
G3 X1061.947 Y1388.8001 I-2.7708 J1.15
G1 X1062.107 Y1389.2126
G3 X1062.1093 Y1389.2188 I-2.797 J1.0849
G1 X1062.2693 Y1389.634
G3 X1062.2936 Y1389.6992 I-2.7993 J1.0787
G1 X1062.4436 Y1390.1171
G3 X1062.4663 Y1390.1827 I-2.8236 J1.0135
G1 X1062.6063 Y1390.6031
G3 X1062.6275 Y1390.6693 I-2.8463 J0.9479
G1 X1062.7575 Y1391.0921
G3 X1062.7588 Y1391.0963 I-2.8675 J0.8817
G1 X1062.8888 Y1391.5213
G3 X1062.9252 Y1391.6507 I-2.8688 J0.8775
G1 X1063.0275 Y1392.048
G1 X1063.1392 Y1392.4474
G3 X1063.1724 Y1392.5772 I-2.8892 J0.8078
G1 X1063.2724 Y1393.0082
G3 X1063.2872 Y1393.0754 I-2.9224 J0.678
G1 X1063.3772 Y1393.5082
G3 X1063.3776 Y1393.5105 I-2.9372 J0.6108
G1 X1063.4676 Y1393.945
G3 X1063.4807 Y1394.0118 I-2.9376 J0.6085
G1 X1063.5607 Y1394.4476
G3 X1063.561 Y1394.4494 I-2.9507 J0.5417
G1 X1063.641 Y1394.8867
G3 X1063.6623 Y1395.0198 I-2.951 J0.5399
G1 X1063.7223 Y1395.4582
G3 X1063.7224 Y1395.4592 I-2.9723 J0.4068
G1 X1063.7824 Y1395.8987
G3 X1063.7909 Y1395.9662 I-2.9724 J0.4058
G1 X1063.8409 Y1396.4067
G3 X1063.8477 Y1396.4741 I-2.9809 J0.3383
G1 X1063.8877 Y1396.9153
G1 X1063.8878 Y1396.9158
G1 X1063.9278 Y1397.3578
G3 X1063.9331 Y1397.4253 I-2.9878 J0.2704
G1 X1063.9631 Y1397.8678
G3 X1063.9692 Y1398.003 I-2.9931 J0.2029
G1 X1063.9785 Y1398.412
G1 X1063.997 Y1398.8215
G3 X1064.0 Y1398.9567 I-2.997 J0.1352
G1 Y1399.4
G1 Y1475.6
G1 Y1476.043
G3 X1063.9969 Y1476.1783 I-3.0 J0.0
G1 X1063.9785 Y1476.5875
G1 X1063.9692 Y1476.9967
G3 X1063.9631 Y1477.1317 I-2.9992 J-0.0677
G1 X1063.9331 Y1477.5747
G3 X1063.9278 Y1477.6424 I-2.9931 J-0.2027
G1 X1063.8878 Y1478.0844
G3 X1063.8877 Y1478.085 I-2.9878 J-0.2704
G1 X1063.8477 Y1478.526
G3 X1063.8408 Y1478.5937 I-2.9877 J-0.271
G1 X1063.7908 Y1479.0337
G3 X1063.7825 Y1479.1003 I-2.9808 J-0.3387
G1 X1063.7225 Y1479.5403
G3 X1063.7222 Y1479.5422 I-2.9725 J-0.4053
G1 X1063.6622 Y1479.9802
G3 X1063.6412 Y1480.112 I-2.9722 J-0.4072
G1 X1063.5612 Y1480.55
G3 X1063.5607 Y1480.5524 I-2.9512 J-0.539
G1 X1063.4807 Y1480.9884
G3 X1063.4675 Y1481.0562 I-2.9507 J-0.5414
G1 X1063.3775 Y1481.4902
G3 X1063.3772 Y1481.4915 I-2.9375 J-0.6092
G1 X1063.2872 Y1481.9245
G3 X1063.2724 Y1481.992 I-2.9372 J-0.6105
G1 X1063.1724 Y1482.423
G3 X1063.1391 Y1482.5531 I-2.9224 J-0.678
G1 X1063.0274 Y1482.9524
G1 X1062.9252 Y1483.3494
G3 X1062.8888 Y1483.4785 I-2.9052 J-0.7484
G1 X1062.7588 Y1483.9035
G3 X1062.7576 Y1483.9073 I-2.8688 J-0.8775
G1 X1062.6276 Y1484.3303
G3 X1062.606 Y1484.3977 I-2.8676 J-0.8813
G1 X1062.466 Y1484.8177
G3 X1062.4437 Y1484.8823 I-2.846 J-0.9487
G1 X1062.2937 Y1485.3003
G3 X1062.27 Y1485.3639 I-2.8237 J-1.0133
G1 X1062.11 Y1485.7799
G3 X1062.1065 Y1485.789 I-2.8 J-1.0769
G1 X1061.9465 Y1486.201
G3 X1061.9212 Y1486.264 I-2.7965 J-1.086
G1 X1061.7512 Y1486.674
G3 X1061.7225 Y1486.7409 I-2.7712 J-1.149
G1 X1061.5425 Y1487.1469
G3 X1061.5403 Y1487.1519 I-2.7425 J-1.2159
G1 X1061.3603 Y1487.5559
G3 X1061.3298 Y1487.6222 I-2.7403 J-1.2209
G1 X1061.1398 Y1488.0222
G3 X1061.1078 Y1488.0874 I-2.7098 J-1.2872
G1 X1060.9078 Y1488.4834
G3 X1060.9051 Y1488.4889 I-2.6778 J-1.3524
G1 X1060.7051 Y1488.8829
G3 X1060.6699 Y1488.9501 I-2.6751 J-1.3579
G1 X1060.4599 Y1489.3391
G3 X1060.4264 Y1489.3995 I-2.6399 J-1.4251
G1 X1060.2064 Y1489.7855
G3 X1060.1701 Y1489.8474 I-2.6064 J-1.4855
G1 X1059.9401 Y1490.2294
G3 X1059.9329 Y1490.2414 I-2.5701 J-1.5474
G1 X1059.7029 Y1490.6194
G3 X1059.6649 Y1490.6802 I-2.5629 J-1.5594
G1 X1059.4249 Y1491.0542
G3 X1059.4149 Y1491.0697 I-2.5249 J-1.6202
G1 X1059.1749 Y1491.4387
G3 X1059.1372 Y1491.4951 I-2.5149 J-1.6357
G1 X1058.8872 Y1491.8611
G3 X1058.8443 Y1491.9223 I-2.4772 J-1.6921
G1 X1058.5843 Y1492.2833
G3 X1058.5727 Y1492.2994 I-2.4343 J-1.7533
G1 X1058.3127 Y1492.6554
G3 X1058.2704 Y1492.7119 I-2.4227 J-1.7694
G1 X1058.0004 Y1493.0639
G3 X1057.9547 Y1493.1219 I-2.3804 J-1.8259
G1 X1057.6747 Y1493.4689
G3 X1057.6613 Y1493.4855 I-2.3347 J-1.8839
G1 X1057.3813 Y1493.8275
G3 X1057.334 Y1493.8838 I-2.3213 J-1.9005
G1 X1057.044 Y1494.2208
G3 X1057.0294 Y1494.2376 I-2.274 J-1.9568
G1 X1056.7394 Y1494.5696
G3 X1056.6906 Y1494.6241 I-2.2594 J-1.9736
G1 X1056.3906 Y1494.9511
G3 X1056.338 Y1495.007 I-2.2106 J-2.0281
G1 X1056.028 Y1495.328
G3 X1056.0149 Y1495.3415 I-2.158 J-2.084
G1 X1055.7049 Y1495.6585
G3 X1055.6474 Y1495.7157 I-2.1449 J-2.0975
G1 X1055.3274 Y1496.0257
G3 X1055.3098 Y1496.0426 I-2.0874 J-2.1547
G1 X1054.9898 Y1496.3476
G3 X1054.9718 Y1496.3646 I-2.0698 J-2.1716
G1 X1054.6518 Y1496.6646
G3 X1054.5622 Y1496.7453 I-2.0518 J-2.1886
G1 X1054.2274 Y1497.0348
G1 X1053.9026 Y1497.3183
G3 X1053.8122 Y1497.3941 I-1.9726 J-2.2603
G1 X1053.4644 Y1497.6743
G1 X1053.1266 Y1497.9475
G3 X1053.0724 Y1497.9903 I-1.8866 J-2.3325
G1 X1052.7224 Y1498.2603
G3 X1052.6641 Y1498.3042 I-1.8324 J-2.3753
G1 X1052.3041 Y1498.5682
G3 X1052.2731 Y1498.5907 I-1.7741 J-2.4192
G1 X1051.9131 Y1498.8477
G3 X1051.8588 Y1498.8855 I-1.7431 J-2.4417
G1 X1051.4888 Y1499.1375
G3 X1051.4516 Y1499.1625 I-1.6888 J-2.4795
G1 X1051.0816 Y1499.4065
G3 X1051.053 Y1499.4251 I-1.6516 J-2.5045
G1 X1050.683 Y1499.6631
G3 X1050.6233 Y1499.7005 I-1.623 J-2.5231
G1 X1050.2433 Y1499.9325
G3 X1050.2085 Y1499.9534 I-1.5633 J-2.5605
G1 X1049.8285 Y1500.1784
G3 X1049.7638 Y1500.2157 I-1.5285 J-2.5814
G1 X1049.3738 Y1500.4337
G3 X1049.3428 Y1500.4508 I-1.4638 J-2.6187
G1 X1048.9528 Y1500.6628
G3 X1048.9158 Y1500.6825 I-1.4328 J-2.6358
G1 X1048.5258 Y1500.8875
G3 X1048.4555 Y1500.9233 I-1.3958 J-2.6555
G1 X1048.0555 Y1501.1203
G3 X1048.0227 Y1501.1362 I-1.3255 J-2.6913
G1 X1047.6227 Y1501.3272
G3 X1047.5837 Y1501.3455 I-1.2927 J-2.7072
G1 X1047.1837 Y1501.5295
G3 X1047.1191 Y1501.5583 I-1.2537 J-2.7255
G1 X1046.7091 Y1501.7353
G3 X1046.6633 Y1501.7546 I-1.1891 J-2.7543
G1 X1046.2533 Y1501.9236
G3 X1046.2254 Y1501.935 I-1.1433 J-2.7736
G1 X1045.8184 Y1502.098
G3 X1045.7504 Y1502.1242 I-1.1154 J-2.785
G1 X1045.3344 Y1502.2792
G3 X1045.2883 Y1502.296 I-1.0474 J-2.8112
G1 X1044.8703 Y1502.444
G3 X1044.8238 Y1502.46 I-1.0013 J-2.828
G1 X1044.4038 Y1502.601
G3 X1044.3488 Y1502.6189 I-0.9548 J-2.844
G1 X1043.9258 Y1502.7519
G3 X1043.8787 Y1502.7663 I-0.8998 J-2.8619
G1 X1043.4537 Y1502.8923
G3 X1043.4064 Y1502.9059 I-0.8527 J-2.8763
G1 X1042.9794 Y1503.0249
G3 X1042.9255 Y1503.0394 I-0.8054 J-2.8899
G1 X1042.4965 Y1503.1504
G3 X1042.4423 Y1503.1638 I-0.7515 J-2.9044
G1 X1042.0113 Y1503.2668
G3 X1041.9634 Y1503.2779 I-0.6973 J-2.9178
G1 X1041.5304 Y1503.3739
G3 X1041.4772 Y1503.3852 I-0.6494 J-2.9289
G1 X1041.0432 Y1503.4732
G3 X1040.995 Y1503.4825 I-0.5962 J-2.9402
G1 X1040.559 Y1503.5635
G3 X1040.5042 Y1503.5732 I-0.548 J-2.9495
G1 X1040.0662 Y1503.6462
G3 X1040.02 Y1503.6535 I-0.4932 J-2.9592
G1 X1039.582 Y1503.7195
G3 X1039.5271 Y1503.7273 I-0.447 J-2.9665
G1 X1039.0871 Y1503.7853
G3 X1039.0337 Y1503.7918 I-0.3921 J-2.9743
G1 X1038.5937 Y1503.8418
G3 X1038.5394 Y1503.8475 I-0.3387 J-2.9808
G1 X1038.0984 Y1503.8895
G3 X1038.0508 Y1503.8936 I-0.2844 J-2.9865
G1 X1037.6088 Y1503.9286
G3 X1037.5545 Y1503.9324 I-0.2368 J-2.9906
G1 X1037.1115 Y1503.9594
G3 X1037.0643 Y1503.9619 I-0.1825 J-2.9944
G1 X1036.6213 Y1503.9819
G3 X1036.5605 Y1503.9841 I-0.1353 J-2.9969
G1 X1036.1175 Y1503.9951
G3 X1036.0701 Y1503.9959 I-0.0745 J-2.9991
G1 X1035.6271 Y1503.9999
G3 X1032.6 Y1501.0 I-0.0271 J-2.9999
G1 Y1484.95
G1 X1033.4787 Y1484.0713
G1 X1032.6 Y1484.95
G1 X1019.55
G1 X1018.6713 Y1484.0713
G1 X1019.55 Y1484.95
G1 Y1501.0
G3 X1016.55 Y1504.0 I-3.0 J0.0
G1 X89.45
G3 X86.45 Y1501.0 I0.0 J-3.0
G1 Y1484.95
G1 X87.3287 Y1484.0713
G1 X86.45 Y1484.95
G1 X73.4
G1 X72.5213 Y1484.0713
G1 X73.4 Y1484.95
G1 Y1501.0
G3 X70.3729 Y1503.9999 I-3.0 J0.0
G1 X69.9296 Y1503.9959
G3 X69.8823 Y1503.9951 I0.0271 J-2.9999
G1 X69.4391 Y1503.9841
G3 X69.3781 Y1503.9819 I0.0744 J-2.9991
G1 X68.9353 Y1503.9619
G3 X68.888 Y1503.9594 I0.1354 J-2.9969
G1 X68.4455 Y1503.9324
G3 X68.3914 Y1503.9286 I0.1827 J-2.9944
G1 X67.9494 Y1503.8936
G3 X67.9019 Y1503.8895 I0.2368 J-2.9906
G1 X67.4607 Y1503.8475
G3 X67.4067 Y1503.8419 I0.2843 J-2.9865
G1 X66.9662 Y1503.7919
G3 X66.912 Y1503.7852 I0.3383 J-2.9809
G1 X66.4725 Y1503.7272
G3 X66.4184 Y1503.7196 I0.3925 J-2.9742
G1 X65.98 Y1503.6536
G3 X65.9326 Y1503.6461 I0.4466 J-2.9666
G1 X65.4953 Y1503.5731
G3 X65.4411 Y1503.5635 I0.494 J-2.9591
G1 X65.0053 Y1503.4825
G3 X64.958 Y1503.4733 I0.5482 J-2.9495
G1 X64.5235 Y1503.3853
G3 X64.4694 Y1503.3738 I0.5955 J-2.9403
G1 X64.0366 Y1503.2778
G3 X63.9889 Y1503.2668 I0.6496 J-2.9288
G1 X63.5579 Y1503.1638
G3 X63.5041 Y1503.1504 I0.6973 J-2.9178
G1 X63.0749 Y1503.0394
G3 X63.021 Y1503.025 I0.7511 J-2.9044
G1 X62.5938 Y1502.906
G3 X62.5461 Y1502.8923 I0.805 J-2.89
G1 X62.1211 Y1502.7663
G3 X62.0736 Y1502.7517 I0.8527 J-2.8763
G1 X61.6508 Y1502.6187
G3 X61.597 Y1502.6013 I0.9002 J-2.8617
G1 X61.1766 Y1502.4603
G3 X61.1291 Y1502.4439 I0.954 J-2.8443
G1 X60.7112 Y1502.2959
G3 X60.6635 Y1502.2785 I1.0015 J-2.8279
G1 X60.2483 Y1502.1235
G3 X60.195 Y1502.1031 I1.0492 J-2.8105
G1 X59.7825 Y1501.9401
G3 X59.7408 Y1501.9232 I1.1025 J-2.7901
G1 X59.3312 Y1501.7542
G3 X59.2777 Y1501.7316 I1.1442 J-2.7732
G1 X58.8712 Y1501.5546
G3 X58.8239 Y1501.5335 I1.1977 J-2.7506
G1 X58.4205 Y1501.3495
G3 X58.3731 Y1501.3273 I1.245 J-2.7295
G1 X57.973 Y1501.1363
G3 X57.9313 Y1501.1161 I1.2924 J-2.7073
G1 X57.5345 Y1500.9191
G3 X57.4817 Y1500.8922 I1.3341 J-2.6871
G1 X57.0885 Y1500.6872
G3 X57.0415 Y1500.6621 I1.3869 J-2.6602
G1 X56.6519 Y1500.4501
G3 X56.6099 Y1500.4269 I1.4339 J-2.6351
G1 X56.2241 Y1500.2089
G3 X56.1775 Y1500.1819 I1.4759 J-2.6119
G1 X55.7955 Y1499.9569
G3 X55.7487 Y1499.9288 I1.5225 J-2.5849
G1 X55.3707 Y1499.6968
G3 X55.3288 Y1499.6706 I1.5693 J-2.5568
G1 X54.955 Y1499.4326
G3 X54.9137 Y1499.4058 I1.6112 J-2.5306
G1 X54.544 Y1499.1618
G3 X54.4933 Y1499.1276 I1.6525 J-2.5038
G1 X54.1279 Y1498.8756
G3 X54.0909 Y1498.8497 I1.7032 J-2.4696
G1 X53.73 Y1498.5927
G3 X53.6842 Y1498.5594 I1.7402 J-2.4437
G1 X53.3279 Y1498.2954
G3 X53.2871 Y1498.2647 I1.786 J-2.4104
G1 X52.9354 Y1497.9947
G3 X52.8987 Y1497.966 I1.8268 J-2.3797
G1 X52.5517 Y1497.691
G3 X52.5069 Y1497.6548 I1.8635 J-2.351
G1 X52.1649 Y1497.3728
G3 X52.1244 Y1497.3389 I1.9083 J-2.3148
G1 X51.7873 Y1497.0509
G3 X51.7473 Y1497.016 I1.9488 J-2.2809
G1 X51.4153 Y1496.722
G3 X51.3754 Y1496.6861 I1.9888 J-2.246
G1 X51.0486 Y1496.3861
G3 X51.0127 Y1496.3526 I2.0287 J-2.2101
G1 X50.6911 Y1496.0476
G3 X50.6555 Y1496.0132 I2.0645 J-2.1766
G1 X50.3393 Y1495.7032
G3 X50.297 Y1495.661 I2.1002 J-2.1422
G1 X49.9863 Y1495.344
G3 X49.9545 Y1495.311 I2.1425 J-2.1
G1 X49.6493 Y1494.99
G3 X49.6113 Y1494.9493 I2.1743 J-2.067
G1 X49.3118 Y1494.6223
G3 X49.2773 Y1494.5839 I2.2123 J-2.0263
G1 X48.9836 Y1494.2519
G3 X48.9494 Y1494.2126 I2.2468 J-1.9879
G1 X48.6615 Y1493.8756
G3 X48.6277 Y1493.8354 I2.281 J-1.9486
G1 X48.3458 Y1493.4934
G3 X48.3125 Y1493.4524 I2.3147 J-1.9084
G1 X48.0365 Y1493.1054
G3 X48.0037 Y1493.0633 I2.348 J-1.8674
G1 X47.7338 Y1492.7113
G3 X47.7039 Y1492.6716 I2.3808 J-1.8253
G1 X47.4402 Y1492.3156
G3 X47.4084 Y1492.2718 I2.4107 J-1.7856
G1 X47.151 Y1491.9108
G3 X47.1198 Y1491.8662 I2.4426 J-1.7418
G1 X46.8687 Y1491.5002
G3 X46.8422 Y1491.4609 I2.4738 J-1.6972
G1 X46.5975 Y1491.0919
G3 X46.5674 Y1491.0455 I2.5003 J-1.6579
G1 X46.3292 Y1490.6715
G3 X46.3016 Y1490.6275 I2.5304 J-1.6115
G1 X46.07 Y1490.2495
G3 X46.043 Y1490.2045 I2.5579 J-1.5675
G1 X45.818 Y1489.8225
G3 X45.7916 Y1489.7768 I2.585 J-1.5225
G1 X45.5733 Y1489.3908
G3 X45.5491 Y1489.3471 I2.6113 J-1.4768
G1 X45.3376 Y1488.9581
G3 X45.311 Y1488.9081 I2.6356 J-1.4331
G1 X45.1063 Y1488.5141
G3 X45.0846 Y1488.4716 I2.6621 J-1.3831
G1 X44.8868 Y1488.0756
G3 X44.863 Y1488.0268 I2.6838 J-1.3406
G1 X44.6722 Y1487.6268
G3 X44.6492 Y1487.5775 I2.7076 J-1.2918
G1 X44.4654 Y1487.1735
G3 X44.4453 Y1487.1286 I2.7306 J-1.2425
G1 X44.2686 Y1486.7226
G3 X44.2471 Y1486.672 I2.7506 J-1.1976
G1 X44.0775 Y1486.262
G3 X44.0587 Y1486.2156 I2.7721 J-1.147
G1 X43.8962 Y1485.8036
G3 X43.8764 Y1485.7519 I2.7908 J-1.1006
G1 X43.7211 Y1485.3359
G3 X43.7038 Y1485.2882 I2.8107 J-1.0489
G1 X43.5558 Y1484.8702
G3 X43.5391 Y1484.8217 I2.828 J-1.0012
G1 X43.3985 Y1484.4017
G3 X43.3819 Y1484.3507 I2.8447 J-0.9527
G1 X43.2486 Y1483.9277
G3 X43.2334 Y1483.8781 I2.8613 J-0.9017
G1 X43.1075 Y1483.4531
G3 X43.0931 Y1483.403 I2.8764 J-0.8521
G1 X42.9747 Y1482.976
G3 X42.9611 Y1482.9254 I2.8908 J-0.802
G1 X42.8501 Y1482.4964
G3 X42.8374 Y1482.4455 I2.9044 J-0.7514
G1 X42.7339 Y1482.0145
G3 X42.722 Y1481.963 I2.9171 J-0.7005
G1 X42.6261 Y1481.53
G3 X42.6154 Y1481.4796 I2.929 J-0.649
G1 X42.527 Y1481.0456
G3 X42.5169 Y1480.9935 I2.9397 J-0.5986
G1 X42.4361 Y1480.5575
G3 X42.4269 Y1480.5053 I2.9498 J-0.5465
G1 X42.3537 Y1480.0673
G3 X42.3457 Y1480.0169 I2.959 J-0.4943
G1 X42.2802 Y1479.5789
G3 X42.2728 Y1479.5261 I2.967 J-0.4439
G1 X42.2149 Y1479.0861
G3 X42.2086 Y1479.035 I2.9744 J-0.3911
G1 X42.1585 Y1478.595
G3 X42.153 Y1478.5427 I2.9807 J-0.34
G1 X42.1105 Y1478.1017
G3 X42.1059 Y1478.0494 I2.9862 J-0.2877
G1 X42.0711 Y1477.6074
G3 X42.0674 Y1477.5549 I2.9907 J-0.2354
G1 X42.0404 Y1477.1119
G3 X42.0377 Y1477.0598 I2.9944 J-0.1829
G1 X42.0183 Y1476.6168
G3 X42.0165 Y1476.5646 I2.9971 J-0.1308
G1 X42.0049 Y1476.1216
G3 X42.004 Y1476.0691 I2.999 J-0.0786
G1 X42.0001 Y1475.6261
G3 X42.0 Y1475.6 I2.9999 J-0.0261
G1 Y1399.4
G3 X42.0001 Y1399.3739 I3.0 J0.0
G1 X42.004 Y1398.9306
G3 X42.0049 Y1398.8781 I2.9999 J0.0261
G1 X42.0165 Y1398.4349
G3 X42.0183 Y1398.3826 I2.999 J0.0786
G1 X42.0377 Y1397.9398
G3 X42.0404 Y1397.8876 I2.9971 J0.1309
G1 X42.0675 Y1397.4451
G3 X42.0711 Y1397.3928 I2.9944 J0.1831
G1 X42.1059 Y1396.9508
G3 X42.1105 Y1396.8987 I2.9907 J0.2354
G1 X42.1529 Y1396.4575
G3 X42.1584 Y1396.4054 I2.9862 J0.2875
G1 X42.2086 Y1395.9649
G3 X42.215 Y1395.9129 I2.9807 J0.3396
G1 X42.2728 Y1395.4734
G3 X42.2801 Y1395.4215 I2.9743 J0.3916
G1 X42.3457 Y1394.9831
G3 X42.3538 Y1394.9315 I2.967 J0.4435
G1 X42.427 Y1394.4942
G3 X42.4361 Y1394.4425 I2.9589 J0.4951
G1 X42.5169 Y1394.0067
G3 X42.5269 Y1393.9555 I2.9498 J0.5468
G1 X42.6152 Y1393.521
G3 X42.6261 Y1393.4697 I2.9398 J0.598
G1 X42.7221 Y1393.0369
G3 X42.7339 Y1392.9857 I2.9289 J0.6493
G1 X42.8374 Y1392.5547
G3 X42.85 Y1392.5041 I2.9171 J0.7005
G1 X42.961 Y1392.0749
G3 X42.9746 Y1392.0243 I2.9045 J0.7511
G1 X43.093 Y1391.5971
G3 X43.1075 Y1391.5467 I2.8909 J0.8017
G1 X43.2334 Y1391.1217
G3 X43.2487 Y1391.0717 I2.8764 J0.8521
G1 X43.382 Y1390.6489
G3 X43.3982 Y1390.5991 I2.8611 J0.9021
G1 X43.5388 Y1390.1787
G3 X43.5559 Y1390.1292 I2.845 J0.9519
G1 X43.7039 Y1389.7113
G3 X43.7218 Y1389.6621 I2.8279 J1.0014
G1 X43.877 Y1389.2469
G3 X43.8958 Y1389.198 I2.81 J1.0506
G1 X44.0582 Y1388.7855
G3 X44.0779 Y1388.737 I2.7913 J1.0995
G1 X44.2475 Y1388.3274
G3 X44.268 Y1388.279 I2.7717 J1.148
G1 X44.4448 Y1387.8725
G3 X44.4661 Y1387.8248 I2.7511 J1.1964
G1 X44.6499 Y1387.4214
G3 X44.672 Y1387.374 I2.7299 J1.2441
G1 X44.8629 Y1386.9739
G3 X44.8857 Y1386.927 I2.7078 J1.2915
G1 X45.0836 Y1386.5302
G3 X45.1074 Y1386.4833 I2.6849 J1.3384
G1 X45.3121 Y1386.0901
G3 X45.3366 Y1386.044 I2.661 J1.3853
G1 X45.5482 Y1385.6544
G3 X45.5737 Y1385.6084 I2.6365 J1.4314
G1 X45.792 Y1385.2226
G3 X45.818 Y1385.1775 I2.611 J1.4774
G1 X46.043 Y1384.7955
G3 X46.07 Y1384.7505 I2.585 J1.5225
G1 X46.3016 Y1384.3725
G3 X46.3296 Y1384.3278 I2.5579 J1.5675
G1 X46.5677 Y1383.954
G3 X46.596 Y1383.9105 I2.53 J1.6122
G1 X46.8407 Y1383.5408
G3 X46.87 Y1383.4974 I2.5017 J1.6557
G1 X47.1211 Y1383.132
G3 X47.1512 Y1383.089 I2.4725 J1.6991
G1 X47.4086 Y1382.7281
G3 X47.4395 Y1382.6856 I2.4423 J1.7421
G1 X47.7032 Y1382.3293
G3 X47.7346 Y1382.2876 I2.4115 J1.7846
G1 X48.0044 Y1381.9359
G3 X48.0367 Y1381.8946 I2.3801 J1.8263
G1 X48.3127 Y1381.5477
G3 X48.3456 Y1381.5071 I2.3478 J1.8675
G1 X48.6276 Y1381.165
G3 X48.6613 Y1381.1248 I2.3149 J1.9082
G1 X48.9492 Y1380.7877
G3 X48.9835 Y1380.7483 I2.2812 J1.9484
G1 X49.2772 Y1380.4162
G3 X49.3123 Y1380.3772 I2.2469 J1.9878
G1 X49.6118 Y1380.0504
G3 X49.6475 Y1380.0121 I2.2118 J2.0268
G1 X49.9527 Y1379.6906
G3 X49.989 Y1379.653 I2.1761 J2.0651
G1 X50.2997 Y1379.3368
G3 X50.3368 Y1379.2997 I2.1398 J2.1027
G1 X50.653 Y1378.989
G3 X50.6906 Y1378.9527 I2.1027 J2.1398
G1 X51.0121 Y1378.6475
G3 X51.0504 Y1378.6118 I2.0651 J2.1761
G1 X51.3772 Y1378.3123
G3 X51.4162 Y1378.2772 I2.0268 J2.2118
G1 X51.7483 Y1377.9835
G3 X51.7877 Y1377.9492 I1.9878 J2.2469
G1 X52.1248 Y1377.6613
G3 X52.165 Y1377.6276 I1.9484 J2.2812
G1 X52.5071 Y1377.3456
G3 X52.5477 Y1377.3127 I1.9082 J2.3149
G1 X52.8946 Y1377.0367
G3 X52.9359 Y1377.0044 I1.8675 J2.3478
G1 X53.2876 Y1376.7346
G3 X53.3293 Y1376.7032 I1.8263 J2.3801
G1 X53.6856 Y1376.4395
G3 X53.7281 Y1376.4086 I1.7846 J2.4115
G1 X54.089 Y1376.1512
G3 X54.132 Y1376.1211 I1.7421 J2.4423
G1 X54.4974 Y1375.87
G3 X54.5408 Y1375.8407 I1.6991 J2.4725
G1 X54.9105 Y1375.596
G3 X54.954 Y1375.5677 I1.6557 J2.5017
G1 X55.3278 Y1375.3296
G3 X55.3725 Y1375.3016 I1.6122 J2.53
G1 X55.7505 Y1375.07
G3 X55.7955 Y1375.043 I1.5675 J2.5579
G1 X56.1775 Y1374.818
G3 X56.2226 Y1374.792 I1.5225 J2.585
G1 X56.6084 Y1374.5737
G3 X56.6544 Y1374.5482 I1.4774 J2.611
G1 X57.044 Y1374.3366
G3 X57.0901 Y1374.3121 I1.4314 J2.6365
G1 X57.4833 Y1374.1074
G3 X57.5302 Y1374.0836 I1.3853 J2.661
G1 X57.927 Y1373.8857
G3 X57.9739 Y1373.8629 I1.3384 J2.6849
G1 X58.374 Y1373.672
G3 X58.4214 Y1373.6499 I1.2915 J2.7078
G1 X58.8248 Y1373.4661
G3 X58.8725 Y1373.4448 I1.2441 J2.7299
G1 X59.279 Y1373.268
G3 X59.3274 Y1373.2475 I1.1964 J2.7511
G1 X59.737 Y1373.0779
G3 X59.7855 Y1373.0582 I1.148 J2.7717
G1 X60.198 Y1372.8958
G3 X60.2469 Y1372.877 I1.0995 J2.7913
G1 X60.6621 Y1372.7218
G3 X60.7113 Y1372.7039 I1.0506 J2.81
G1 X61.1292 Y1372.5559
G3 X61.1787 Y1372.5388 I1.0014 J2.8279
G1 X61.5991 Y1372.3982
G3 X61.6489 Y1372.382 I0.9519 J2.845
G1 X62.0717 Y1372.2487
G3 X62.1217 Y1372.2334 I0.9021 J2.8611
G1 X62.5467 Y1372.1075
G3 X62.5971 Y1372.093 I0.8521 J2.8764
G1 X63.0243 Y1371.9746
G3 X63.0749 Y1371.961 I0.8017 J2.8909
G1 X63.5041 Y1371.85
G3 X63.5547 Y1371.8374 I0.7511 J2.9045
G1 X63.9857 Y1371.7339
G3 X64.0369 Y1371.7221 I0.7005 J2.9171
G1 X64.4697 Y1371.6261
G3 X64.521 Y1371.6152 I0.6493 J2.9289
G1 X64.9555 Y1371.5269
G3 X65.0067 Y1371.5169 I0.598 J2.9398
G1 X65.4425 Y1371.4361
G3 X65.4942 Y1371.427 I0.5468 J2.9498
G1 X65.9315 Y1371.3538
G3 X65.9831 Y1371.3457 I0.4951 J2.9589
G1 X66.4215 Y1371.2801
G3 X66.4734 Y1371.2728 I0.4435 J2.967
G1 X66.9129 Y1371.215
G3 X66.9649 Y1371.2086 I0.3916 J2.9743
G1 X67.4054 Y1371.1584
G3 X67.4575 Y1371.1529 I0.3396 J2.9807
G1 X67.8987 Y1371.1105
G3 X67.9508 Y1371.1059 I0.2875 J2.9862
G1 X68.3928 Y1371.0711
G3 X68.4451 Y1371.0675 I0.2354 J2.9907
G1 X68.8876 Y1371.0404
G3 X68.9398 Y1371.0377 I0.1831 J2.9944
G1 X69.3826 Y1371.0183
G3 X69.4349 Y1371.0165 I0.1309 J2.9971
G1 X69.8781 Y1371.0049
G3 X69.9306 Y1371.004 I0.0786 J2.999
G1 X70.3739 Y1371.0001
G3 X73.4 Y1374.0 I0.0261 J2.9999
G1 Y1390.05
G1 X72.5213 Y1390.9287
G1 X73.4 Y1390.05
G1 X86.45
G1 X87.3287 Y1390.9287
G1 X86.45 Y1390.05
G1 Y1374.0
G3 X89.45 Y1371.0 I3.0 J0.0
G1 X1016.55
G3 X1019.55 Y1374.0 I0.0 J3.0
G1 Y1390.05
G1 X1018.6713 Y1390.9287
G1 X1019.55 Y1390.05
G1 F300.0 Z-3.0
G1 F800.0 X1032.6
G1 X1033.4787 Y1390.9287
G1 X1032.6 Y1390.05
G1 Y1374.0
G3 X1035.6261 Y1371.0001 I3.0 J0.0
G1 X1036.0691 Y1371.004
G3 X1036.1216 Y1371.0049 I-0.0261 J2.9999
G1 X1036.5646 Y1371.0165
G3 X1036.6168 Y1371.0183 I-0.0786 J2.999
G1 X1037.0598 Y1371.0377
G3 X1037.1119 Y1371.0404 I-0.1308 J2.9971
G1 X1037.5549 Y1371.0674
G3 X1037.6074 Y1371.0711 I-0.1829 J2.9944
G1 X1038.0494 Y1371.1059
G3 X1038.1017 Y1371.1105 I-0.2354 J2.9907
G1 X1038.5427 Y1371.153
G3 X1038.595 Y1371.1585 I-0.2877 J2.9862
G1 X1039.035 Y1371.2086
G3 X1039.0861 Y1371.2149 I-0.34 J2.9807
G1 X1039.5261 Y1371.2728
G3 X1039.5789 Y1371.2802 I-0.3911 J2.9744
G1 X1040.0169 Y1371.3457
G3 X1040.0673 Y1371.3537 I-0.4439 J2.967
G1 X1040.5053 Y1371.4269
G3 X1040.5575 Y1371.4361 I-0.4943 J2.959
G1 X1040.9935 Y1371.5169
G3 X1041.0456 Y1371.527 I-0.5465 J2.9498
G1 X1041.4796 Y1371.6154
G3 X1041.53 Y1371.6261 I-0.5986 J2.9397
G1 X1041.963 Y1371.722
G3 X1042.0145 Y1371.7339 I-0.649 J2.929
G1 X1042.4455 Y1371.8374
G3 X1042.4964 Y1371.8501 I-0.7005 J2.9171
G1 X1042.9254 Y1371.9611
G3 X1042.976 Y1371.9747 I-0.7514 J2.9044
G1 X1043.403 Y1372.0931
G3 X1043.4531 Y1372.1075 I-0.802 J2.8908
G1 X1043.8781 Y1372.2334
G3 X1043.9277 Y1372.2486 I-0.8521 J2.8764
G1 X1044.3507 Y1372.3819
G3 X1044.4017 Y1372.3985 I-0.9017 J2.8613
G1 X1044.8217 Y1372.5391
G3 X1044.8702 Y1372.5558 I-0.9527 J2.8447
G1 X1045.2882 Y1372.7038
G3 X1045.3359 Y1372.7211 I-1.0012 J2.828
G1 X1045.7519 Y1372.8764
G3 X1045.8153 Y1372.9009 I-1.0489 J2.8107
G1 X1046.2223 Y1373.0633
G3 X1046.257 Y1373.0775 I-1.1123 J2.7862
G1 X1046.667 Y1373.2471
G3 X1046.7077 Y1373.2643 I-1.147 J2.7721
G1 X1047.1177 Y1373.4411
G3 X1047.1828 Y1373.4701 I-1.1877 J2.7549
G1 X1047.5828 Y1373.6539
G3 X1047.6218 Y1373.6722 I-1.2528 J2.7259
G1 X1048.0218 Y1373.863
G3 X1048.0598 Y1373.8815 I-1.2918 J2.7076
G1 X1048.4598 Y1374.0793
G3 X1048.5242 Y1374.1121 I-1.3298 J2.6891
G1 X1048.9142 Y1374.3168
G3 X1048.9503 Y1374.336 I-1.3942 J2.6563
G1 X1049.3403 Y1374.5475
G3 X1049.3753 Y1374.5668 I-1.4303 J2.6371
G1 X1049.7653 Y1374.7851
G3 X1049.8284 Y1374.8215 I-1.4653 J2.6178
G1 X1050.2084 Y1375.0465
G3 X1050.2414 Y1375.0663 I-1.5284 J2.5815
G1 X1050.6214 Y1375.2979
G3 X1050.6839 Y1375.3371 I-1.5614 J2.5616
G1 X1051.0539 Y1375.5753
G3 X1051.0848 Y1375.5954 I-1.6239 J2.5225
G1 X1051.4548 Y1375.8401
G3 X1051.4846 Y1375.8601 I-1.6548 J2.5023
G1 X1051.8546 Y1376.1112
G3 X1051.915 Y1376.1533 I-1.6846 J2.4823
G1 X1052.275 Y1376.4107
G3 X1052.3027 Y1376.4307 I-1.745 J2.4403
G1 X1052.6627 Y1376.6944
G3 X1052.7219 Y1376.7389 I-1.7727 J2.4202
G1 X1053.0719 Y1377.0087
G3 X1053.1306 Y1377.0552 I-1.8319 J2.3758
G1 X1053.4664 Y1377.3278
G1 X1053.8121 Y1377.6063
G3 X1053.9022 Y1377.6818 I-1.8821 J2.3362
G1 X1054.2268 Y1377.965
G1 X1054.5613 Y1378.254
G3 X1054.65 Y1378.3338 I-1.9613 J2.2701
G1 X1054.97 Y1378.6333
G3 X1054.9904 Y1378.6525 I-2.05 J2.1903
G1 X1055.3104 Y1378.9577
G3 X1055.3298 Y1378.9764 I-2.0704 J2.1711
G1 X1055.6498 Y1379.2871
G3 X1055.7022 Y1379.3393 I-2.0898 J2.1523
G1 X1056.0122 Y1379.6555
G3 X1056.0298 Y1379.6735 I-2.1422 J2.1002
G1 X1056.3398 Y1379.9951
G3 X1056.3901 Y1380.0486 I-2.1598 J2.0821
G1 X1056.6901 Y1380.3754
G3 X1056.7395 Y1380.4306 I-2.2101 J2.0287
G1 X1057.0295 Y1380.7626
G3 X1057.0442 Y1380.7796 I-2.2595 J1.9735
G1 X1057.3342 Y1381.1166
G3 X1057.3815 Y1381.173 I-2.2742 J1.9565
G1 X1057.6615 Y1381.515
G3 X1057.6745 Y1381.5311 I-2.3215 J1.9002
G1 X1057.9545 Y1381.8781
G3 X1057.9997 Y1381.9354 I-2.3345 J1.8841
G1 X1058.2697 Y1382.2871
G3 X1058.3134 Y1382.3455 I-2.3797 J1.8268
G1 X1058.5734 Y1382.7018
G3 X1058.5841 Y1382.7166 I-2.4234 J1.7684
G1 X1058.8441 Y1383.0775
G3 X1058.886 Y1383.1371 I-2.4341 J1.7536
G1 X1059.136 Y1383.5025
G3 X1059.1763 Y1383.563 I-2.476 J1.694
G1 X1059.4163 Y1383.9327
G3 X1059.4245 Y1383.9454 I-2.5163 J1.6335
G1 X1059.6645 Y1384.3192
G3 X1059.7029 Y1384.3806 I-2.5245 J1.6208
G1 X1059.9329 Y1384.7586
G3 X1059.9401 Y1384.7706 I-2.5629 J1.5594
G1 X1060.1701 Y1385.1526
G3 X1060.2061 Y1385.2139 I-2.5701 J1.5474
G1 X1060.4261 Y1385.5997
G3 X1060.4608 Y1385.6624 I-2.6061 J1.4861
G1 X1060.6708 Y1386.052
G3 X1060.704 Y1386.1153 I-2.6408 J1.4234
G1 X1060.904 Y1386.5085
G3 X1060.9089 Y1386.5183 I-2.674 J1.3601
G1 X1061.1089 Y1386.9151
G3 X1061.14 Y1386.9785 I-2.6789 J1.3503
G1 X1061.33 Y1387.3786
G3 X1061.3596 Y1387.4431 I-2.71 J1.2869
G1 X1061.5396 Y1387.8465
G3 X1061.5431 Y1387.8542 I-2.7396 J1.2224
G1 X1061.7231 Y1388.2607
G3 X1061.7508 Y1388.3254 I-2.7431 J1.2147
G1 X1061.9208 Y1388.735
G3 X1061.947 Y1388.8001 I-2.7708 J1.15
G1 X1062.107 Y1389.2126
G3 X1062.1093 Y1389.2188 I-2.797 J1.0849
G1 X1062.2693 Y1389.634
G3 X1062.2936 Y1389.6992 I-2.7993 J1.0787
G1 X1062.4436 Y1390.1171
G3 X1062.4663 Y1390.1827 I-2.8236 J1.0135
G1 X1062.6063 Y1390.6031
G3 X1062.6275 Y1390.6693 I-2.8463 J0.9479
G1 X1062.7575 Y1391.0921
G3 X1062.7588 Y1391.0963 I-2.8675 J0.8817
G1 X1062.8888 Y1391.5213
G3 X1062.9252 Y1391.6507 I-2.8688 J0.8775
G1 X1063.0275 Y1392.048
G1 X1063.1392 Y1392.4474
G3 X1063.1724 Y1392.5772 I-2.8892 J0.8078
G1 X1063.2724 Y1393.0082
G3 X1063.2872 Y1393.0754 I-2.9224 J0.678
G1 X1063.3772 Y1393.5082
G3 X1063.3776 Y1393.5105 I-2.9372 J0.6108
G1 X1063.4676 Y1393.945
G3 X1063.4807 Y1394.0118 I-2.9376 J0.6085
G1 X1063.5607 Y1394.4476
G3 X1063.561 Y1394.4494 I-2.9507 J0.5417
G1 X1063.641 Y1394.8867
G3 X1063.6623 Y1395.0198 I-2.951 J0.5399
G1 X1063.7223 Y1395.4582
G3 X1063.7224 Y1395.4592 I-2.9723 J0.4068
G1 X1063.7824 Y1395.8987
G3 X1063.7909 Y1395.9662 I-2.9724 J0.4058
G1 X1063.8409 Y1396.4067
G3 X1063.8477 Y1396.4741 I-2.9809 J0.3383
G1 X1063.8877 Y1396.9153
G1 X1063.8878 Y1396.9158
G1 X1063.9278 Y1397.3578
G3 X1063.9331 Y1397.4253 I-2.9878 J0.2704
G1 X1063.9631 Y1397.8678
G3 X1063.9692 Y1398.003 I-2.9931 J0.2029
G1 X1063.9785 Y1398.412
G1 X1063.997 Y1398.8215
G3 X1064.0 Y1398.9567 I-2.997 J0.1352
G1 Y1399.4
G1 Y1475.6
G1 Y1476.043
G3 X1063.9969 Y1476.1783 I-3.0 J0.0
G1 X1063.9785 Y1476.5875
G1 X1063.9692 Y1476.9967
G3 X1063.9631 Y1477.1317 I-2.9992 J-0.0677
G1 X1063.9331 Y1477.5747
G3 X1063.9278 Y1477.6424 I-2.9931 J-0.2027
G1 X1063.8878 Y1478.0844
G3 X1063.8877 Y1478.085 I-2.9878 J-0.2704
G1 X1063.8477 Y1478.526
G3 X1063.8408 Y1478.5937 I-2.9877 J-0.271
G1 X1063.7908 Y1479.0337
G3 X1063.7825 Y1479.1003 I-2.9808 J-0.3387
G1 X1063.7225 Y1479.5403
G3 X1063.7222 Y1479.5422 I-2.9725 J-0.4053
G1 X1063.6622 Y1479.9802
G3 X1063.6412 Y1480.112 I-2.9722 J-0.4072
G1 X1063.5612 Y1480.55
G3 X1063.5607 Y1480.5524 I-2.9512 J-0.539
G1 X1063.4807 Y1480.9884
G3 X1063.4675 Y1481.0562 I-2.9507 J-0.5414
G1 X1063.3775 Y1481.4902
G3 X1063.3772 Y1481.4915 I-2.9375 J-0.6092
G1 X1063.2872 Y1481.9245
G3 X1063.2724 Y1481.992 I-2.9372 J-0.6105
G1 X1063.1724 Y1482.423
G3 X1063.1391 Y1482.5531 I-2.9224 J-0.678
G1 X1063.0274 Y1482.9524
G1 X1062.9252 Y1483.3494
G3 X1062.8888 Y1483.4785 I-2.9052 J-0.7484
G1 X1062.7588 Y1483.9035
G3 X1062.7576 Y1483.9073 I-2.8688 J-0.8775
G1 X1062.6276 Y1484.3303
G3 X1062.606 Y1484.3977 I-2.8676 J-0.8813
G1 X1062.466 Y1484.8177
G3 X1062.4437 Y1484.8823 I-2.846 J-0.9487
G1 X1062.2937 Y1485.3003
G3 X1062.27 Y1485.3639 I-2.8237 J-1.0133
G1 X1062.11 Y1485.7799
G3 X1062.1065 Y1485.789 I-2.8 J-1.0769
G1 X1061.9465 Y1486.201
G3 X1061.9212 Y1486.264 I-2.7965 J-1.086
G1 X1061.7512 Y1486.674
G3 X1061.7225 Y1486.7409 I-2.7712 J-1.149
G1 X1061.5425 Y1487.1469
G3 X1061.5403 Y1487.1519 I-2.7425 J-1.2159
G1 X1061.3603 Y1487.5559
G3 X1061.3298 Y1487.6222 I-2.7403 J-1.2209
G1 X1061.1398 Y1488.0222
G3 X1061.1078 Y1488.0874 I-2.7098 J-1.2872
G1 X1060.9078 Y1488.4834
G3 X1060.9051 Y1488.4889 I-2.6778 J-1.3524
G1 X1060.7051 Y1488.8829
G3 X1060.6699 Y1488.9501 I-2.6751 J-1.3579
G1 X1060.4599 Y1489.3391
G3 X1060.4264 Y1489.3995 I-2.6399 J-1.4251
G1 X1060.2064 Y1489.7855
G3 X1060.1701 Y1489.8474 I-2.6064 J-1.4855
G1 X1059.9401 Y1490.2294
G3 X1059.9329 Y1490.2414 I-2.5701 J-1.5474
G1 X1059.7029 Y1490.6194
G3 X1059.6649 Y1490.6802 I-2.5629 J-1.5594
G1 X1059.4249 Y1491.0542
G3 X1059.4149 Y1491.0697 I-2.5249 J-1.6202
G1 X1059.1749 Y1491.4387
G3 X1059.1372 Y1491.4951 I-2.5149 J-1.6357
G1 X1058.8872 Y1491.8611
G3 X1058.8443 Y1491.9223 I-2.4772 J-1.6921
G1 X1058.5843 Y1492.2833
G3 X1058.5727 Y1492.2994 I-2.4343 J-1.7533
G1 X1058.3127 Y1492.6554
G3 X1058.2704 Y1492.7119 I-2.4227 J-1.7694
G1 X1058.0004 Y1493.0639
G3 X1057.9547 Y1493.1219 I-2.3804 J-1.8259
G1 X1057.6747 Y1493.4689
G3 X1057.6613 Y1493.4855 I-2.3347 J-1.8839
G1 X1057.3813 Y1493.8275
G3 X1057.334 Y1493.8838 I-2.3213 J-1.9005
G1 X1057.044 Y1494.2208
G3 X1057.0294 Y1494.2376 I-2.274 J-1.9568
G1 X1056.7394 Y1494.5696
G3 X1056.6906 Y1494.6241 I-2.2594 J-1.9736
G1 X1056.3906 Y1494.9511
G3 X1056.338 Y1495.007 I-2.2106 J-2.0281
G1 X1056.028 Y1495.328
G3 X1056.0149 Y1495.3415 I-2.158 J-2.084
G1 X1055.7049 Y1495.6585
G3 X1055.6474 Y1495.7157 I-2.1449 J-2.0975
G1 X1055.3274 Y1496.0257
G3 X1055.3098 Y1496.0426 I-2.0874 J-2.1547
G1 X1054.9898 Y1496.3476
G3 X1054.9718 Y1496.3646 I-2.0698 J-2.1716
G1 X1054.6518 Y1496.6646
G3 X1054.5622 Y1496.7453 I-2.0518 J-2.1886
G1 X1054.2274 Y1497.0348
G1 X1053.9026 Y1497.3183
G3 X1053.8122 Y1497.3941 I-1.9726 J-2.2603
G1 X1053.4644 Y1497.6743
G1 X1053.1266 Y1497.9475
G3 X1053.0724 Y1497.9903 I-1.8866 J-2.3325
G1 X1052.7224 Y1498.2603
G3 X1052.6641 Y1498.3042 I-1.8324 J-2.3753
G1 X1052.3041 Y1498.5682
G3 X1052.2731 Y1498.5907 I-1.7741 J-2.4192
G1 X1051.9131 Y1498.8477
G3 X1051.8588 Y1498.8855 I-1.7431 J-2.4417
G1 X1051.4888 Y1499.1375
G3 X1051.4516 Y1499.1625 I-1.6888 J-2.4795
G1 X1051.0816 Y1499.4065
G3 X1051.053 Y1499.4251 I-1.6516 J-2.5045
G1 X1050.683 Y1499.6631
G3 X1050.6233 Y1499.7005 I-1.623 J-2.5231
G1 X1050.2433 Y1499.9325
G3 X1050.2085 Y1499.9534 I-1.5633 J-2.5605
G1 X1049.8285 Y1500.1784
G3 X1049.7638 Y1500.2157 I-1.5285 J-2.5814
G1 X1049.3738 Y1500.4337
G3 X1049.3428 Y1500.4508 I-1.4638 J-2.6187
G1 X1048.9528 Y1500.6628
G3 X1048.9158 Y1500.6825 I-1.4328 J-2.6358
G1 X1048.5258 Y1500.8875
G3 X1048.4555 Y1500.9233 I-1.3958 J-2.6555
G1 X1048.0555 Y1501.1203
G3 X1048.0227 Y1501.1362 I-1.3255 J-2.6913
G1 X1047.6227 Y1501.3272
G3 X1047.5837 Y1501.3455 I-1.2927 J-2.7072
G1 X1047.1837 Y1501.5295
G3 X1047.1191 Y1501.5583 I-1.2537 J-2.7255
G1 X1046.7091 Y1501.7353
G3 X1046.6633 Y1501.7546 I-1.1891 J-2.7543
G1 X1046.2533 Y1501.9236
G3 X1046.2254 Y1501.935 I-1.1433 J-2.7736
G1 X1045.8184 Y1502.098
G3 X1045.7504 Y1502.1242 I-1.1154 J-2.785
G1 X1045.3344 Y1502.2792
G3 X1045.2883 Y1502.296 I-1.0474 J-2.8112
G1 X1044.8703 Y1502.444
G3 X1044.8238 Y1502.46 I-1.0013 J-2.828
G1 X1044.4038 Y1502.601
G3 X1044.3488 Y1502.6189 I-0.9548 J-2.844
G1 X1043.9258 Y1502.7519
G3 X1043.8787 Y1502.7663 I-0.8998 J-2.8619
G1 X1043.4537 Y1502.8923
G3 X1043.4064 Y1502.9059 I-0.8527 J-2.8763
G1 X1042.9794 Y1503.0249
G3 X1042.9255 Y1503.0394 I-0.8054 J-2.8899
G1 X1042.4965 Y1503.1504
G3 X1042.4423 Y1503.1638 I-0.7515 J-2.9044
G1 X1042.0113 Y1503.2668
G3 X1041.9634 Y1503.2779 I-0.6973 J-2.9178
G1 X1041.5304 Y1503.3739
G3 X1041.4772 Y1503.3852 I-0.6494 J-2.9289
G1 X1041.0432 Y1503.4732
G3 X1040.995 Y1503.4825 I-0.5962 J-2.9402
G1 X1040.559 Y1503.5635
G3 X1040.5042 Y1503.5732 I-0.548 J-2.9495
G1 X1040.0662 Y1503.6462
G3 X1040.02 Y1503.6535 I-0.4932 J-2.9592
G1 X1039.582 Y1503.7195
G3 X1039.5271 Y1503.7273 I-0.447 J-2.9665
G1 X1039.0871 Y1503.7853
G3 X1039.0337 Y1503.7918 I-0.3921 J-2.9743
G1 X1038.5937 Y1503.8418
G3 X1038.5394 Y1503.8475 I-0.3387 J-2.9808
G1 X1038.0984 Y1503.8895
G3 X1038.0508 Y1503.8936 I-0.2844 J-2.9865
G1 X1037.6088 Y1503.9286
G3 X1037.5545 Y1503.9324 I-0.2368 J-2.9906
G1 X1037.1115 Y1503.9594
G3 X1037.0643 Y1503.9619 I-0.1825 J-2.9944
G1 X1036.6213 Y1503.9819
G3 X1036.5605 Y1503.9841 I-0.1353 J-2.9969
G1 X1036.1175 Y1503.9951
G3 X1036.0701 Y1503.9959 I-0.0745 J-2.9991
G1 X1035.6271 Y1503.9999
G3 X1032.6 Y1501.0 I-0.0271 J-2.9999
G1 Y1484.95
G1 X1033.4787 Y1484.0713
G1 X1032.6 Y1484.95
G1 X1019.55
G1 X1018.6713 Y1484.0713
G1 X1019.55 Y1484.95
G1 Y1501.0
G3 X1016.55 Y1504.0 I-3.0 J0.0
G1 X89.45
G3 X86.45 Y1501.0 I0.0 J-3.0
G1 Y1484.95
G1 X87.3287 Y1484.0713
G1 X86.45 Y1484.95
G1 X73.4
G1 X72.5213 Y1484.0713
G1 X73.4 Y1484.95
G1 Y1501.0
G3 X70.3729 Y1503.9999 I-3.0 J0.0
G1 X69.9296 Y1503.9959
G3 X69.8823 Y1503.9951 I0.0271 J-2.9999
G1 X69.4391 Y1503.9841
G3 X69.3781 Y1503.9819 I0.0744 J-2.9991
G1 X68.9353 Y1503.9619
G3 X68.888 Y1503.9594 I0.1354 J-2.9969
G1 X68.4455 Y1503.9324
G3 X68.3914 Y1503.9286 I0.1827 J-2.9944
G1 X67.9494 Y1503.8936
G3 X67.9019 Y1503.8895 I0.2368 J-2.9906
G1 X67.4607 Y1503.8475
G3 X67.4067 Y1503.8419 I0.2843 J-2.9865
G1 X66.9662 Y1503.7919
G3 X66.912 Y1503.7852 I0.3383 J-2.9809
G1 X66.4725 Y1503.7272
G3 X66.4184 Y1503.7196 I0.3925 J-2.9742
G1 X65.98 Y1503.6536
G3 X65.9326 Y1503.6461 I0.4466 J-2.9666
G1 X65.4953 Y1503.5731
G3 X65.4411 Y1503.5635 I0.494 J-2.9591
G1 X65.0053 Y1503.4825
G3 X64.958 Y1503.4733 I0.5482 J-2.9495
G1 X64.5235 Y1503.3853
G3 X64.4694 Y1503.3738 I0.5955 J-2.9403
G1 X64.0366 Y1503.2778
G3 X63.9889 Y1503.2668 I0.6496 J-2.9288
G1 X63.5579 Y1503.1638
G3 X63.5041 Y1503.1504 I0.6973 J-2.9178
G1 X63.0749 Y1503.0394
G3 X63.021 Y1503.025 I0.7511 J-2.9044
G1 X62.5938 Y1502.906
G3 X62.5461 Y1502.8923 I0.805 J-2.89
G1 X62.1211 Y1502.7663
G3 X62.0736 Y1502.7517 I0.8527 J-2.8763
G1 X61.6508 Y1502.6187
G3 X61.597 Y1502.6013 I0.9002 J-2.8617
G1 X61.1766 Y1502.4603
G3 X61.1291 Y1502.4439 I0.954 J-2.8443
G1 X60.7112 Y1502.2959
G3 X60.6635 Y1502.2785 I1.0015 J-2.8279
G1 X60.2483 Y1502.1235
G3 X60.195 Y1502.1031 I1.0492 J-2.8105
G1 X59.7825 Y1501.9401
G3 X59.7408 Y1501.9232 I1.1025 J-2.7901
G1 X59.3312 Y1501.7542
G3 X59.2777 Y1501.7316 I1.1442 J-2.7732
G1 X58.8712 Y1501.5546
G3 X58.8239 Y1501.5335 I1.1977 J-2.7506
G1 X58.4205 Y1501.3495
G3 X58.3731 Y1501.3273 I1.245 J-2.7295
G1 X57.973 Y1501.1363
G3 X57.9313 Y1501.1161 I1.2924 J-2.7073
G1 X57.5345 Y1500.9191
G3 X57.4817 Y1500.8922 I1.3341 J-2.6871
G1 X57.0885 Y1500.6872
G3 X57.0415 Y1500.6621 I1.3869 J-2.6602
G1 X56.6519 Y1500.4501
G3 X56.6099 Y1500.4269 I1.4339 J-2.6351
G1 X56.2241 Y1500.2089
G3 X56.1775 Y1500.1819 I1.4759 J-2.6119
G1 X55.7955 Y1499.9569
G3 X55.7487 Y1499.9288 I1.5225 J-2.5849
G1 X55.3707 Y1499.6968
G3 X55.3288 Y1499.6706 I1.5693 J-2.5568
G1 X54.955 Y1499.4326
G3 X54.9137 Y1499.4058 I1.6112 J-2.5306
G1 X54.544 Y1499.1618
G3 X54.4933 Y1499.1276 I1.6525 J-2.5038
G1 X54.1279 Y1498.8756
G3 X54.0909 Y1498.8497 I1.7032 J-2.4696
G1 X53.73 Y1498.5927
G3 X53.6842 Y1498.5594 I1.7402 J-2.4437
G1 X53.3279 Y1498.2954
G3 X53.2871 Y1498.2647 I1.786 J-2.4104
G1 X52.9354 Y1497.9947
G3 X52.8987 Y1497.966 I1.8268 J-2.3797
G1 X52.5517 Y1497.691
G3 X52.5069 Y1497.6548 I1.8635 J-2.351
G1 X52.1649 Y1497.3728
G3 X52.1244 Y1497.3389 I1.9083 J-2.3148
G1 X51.7873 Y1497.0509
G3 X51.7473 Y1497.016 I1.9488 J-2.2809
G1 X51.4153 Y1496.722
G3 X51.3754 Y1496.6861 I1.9888 J-2.246
G1 X51.0486 Y1496.3861
G3 X51.0127 Y1496.3526 I2.0287 J-2.2101
G1 X50.6911 Y1496.0476
G3 X50.6555 Y1496.0132 I2.0645 J-2.1766
G1 X50.3393 Y1495.7032
G3 X50.297 Y1495.661 I2.1002 J-2.1422
G1 X49.9863 Y1495.344
G3 X49.9545 Y1495.311 I2.1425 J-2.1
G1 X49.6493 Y1494.99
G3 X49.6113 Y1494.9493 I2.1743 J-2.067
G1 X49.3118 Y1494.6223
G3 X49.2773 Y1494.5839 I2.2123 J-2.0263
G1 X48.9836 Y1494.2519
G3 X48.9494 Y1494.2126 I2.2468 J-1.9879
G1 X48.6615 Y1493.8756
G3 X48.6277 Y1493.8354 I2.281 J-1.9486
G1 X48.3458 Y1493.4934
G3 X48.3125 Y1493.4524 I2.3147 J-1.9084
G1 X48.0365 Y1493.1054
G3 X48.0037 Y1493.0633 I2.348 J-1.8674
G1 X47.7338 Y1492.7113
G3 X47.7039 Y1492.6716 I2.3808 J-1.8253
G1 X47.4402 Y1492.3156
G3 X47.4084 Y1492.2718 I2.4107 J-1.7856
G1 X47.151 Y1491.9108
G3 X47.1198 Y1491.8662 I2.4426 J-1.7418
G1 X46.8687 Y1491.5002
G3 X46.8422 Y1491.4609 I2.4738 J-1.6972
G1 X46.5975 Y1491.0919
G3 X46.5674 Y1491.0455 I2.5003 J-1.6579
G1 X46.3292 Y1490.6715
G3 X46.3016 Y1490.6275 I2.5304 J-1.6115
G1 X46.07 Y1490.2495
G3 X46.043 Y1490.2045 I2.5579 J-1.5675
G1 X45.818 Y1489.8225
G3 X45.7916 Y1489.7768 I2.585 J-1.5225
G1 X45.5733 Y1489.3908
G3 X45.5491 Y1489.3471 I2.6113 J-1.4768
G1 X45.3376 Y1488.9581
G3 X45.311 Y1488.9081 I2.6356 J-1.4331
G1 X45.1063 Y1488.5141
G3 X45.0846 Y1488.4716 I2.6621 J-1.3831
G1 X44.8868 Y1488.0756
G3 X44.863 Y1488.0268 I2.6838 J-1.3406
G1 X44.6722 Y1487.6268
G3 X44.6492 Y1487.5775 I2.7076 J-1.2918
G1 X44.4654 Y1487.1735
G3 X44.4453 Y1487.1286 I2.7306 J-1.2425
G1 X44.2686 Y1486.7226
G3 X44.2471 Y1486.672 I2.7506 J-1.1976
G1 X44.0775 Y1486.262
G3 X44.0587 Y1486.2156 I2.7721 J-1.147
G1 X43.8962 Y1485.8036
G3 X43.8764 Y1485.7519 I2.7908 J-1.1006
G1 X43.7211 Y1485.3359
G3 X43.7038 Y1485.2882 I2.8107 J-1.0489
G1 X43.5558 Y1484.8702
G3 X43.5391 Y1484.8217 I2.828 J-1.0012
G1 X43.3985 Y1484.4017
G3 X43.3819 Y1484.3507 I2.8447 J-0.9527
G1 X43.2486 Y1483.9277
G3 X43.2334 Y1483.8781 I2.8613 J-0.9017
G1 X43.1075 Y1483.4531
G3 X43.0931 Y1483.403 I2.8764 J-0.8521
G1 X42.9747 Y1482.976
G3 X42.9611 Y1482.9254 I2.8908 J-0.802
G1 X42.8501 Y1482.4964
G3 X42.8374 Y1482.4455 I2.9044 J-0.7514
G1 X42.7339 Y1482.0145
G3 X42.722 Y1481.963 I2.9171 J-0.7005
G1 X42.6261 Y1481.53
G3 X42.6154 Y1481.4796 I2.929 J-0.649
G1 X42.527 Y1481.0456
G3 X42.5169 Y1480.9935 I2.9397 J-0.5986
G1 X42.4361 Y1480.5575
G3 X42.4269 Y1480.5053 I2.9498 J-0.5465
G1 X42.3537 Y1480.0673
G3 X42.3457 Y1480.0169 I2.959 J-0.4943
G1 X42.2802 Y1479.5789
G3 X42.2728 Y1479.5261 I2.967 J-0.4439
G1 X42.2149 Y1479.0861
G3 X42.2086 Y1479.035 I2.9744 J-0.3911
G1 X42.1585 Y1478.595
G3 X42.153 Y1478.5427 I2.9807 J-0.34
G1 X42.1105 Y1478.1017
G3 X42.1059 Y1478.0494 I2.9862 J-0.2877
G1 X42.0711 Y1477.6074
G3 X42.0674 Y1477.5549 I2.9907 J-0.2354
G1 X42.0404 Y1477.1119
G3 X42.0377 Y1477.0598 I2.9944 J-0.1829
G1 X42.0183 Y1476.6168
G3 X42.0165 Y1476.5646 I2.9971 J-0.1308
G1 X42.0049 Y1476.1216
G3 X42.004 Y1476.0691 I2.999 J-0.0786
G1 X42.0001 Y1475.6261
G3 X42.0 Y1475.6 I2.9999 J-0.0261
G1 Y1399.4
G3 X42.0001 Y1399.3739 I3.0 J0.0
G1 X42.004 Y1398.9306
G3 X42.0049 Y1398.8781 I2.9999 J0.0261
G1 X42.0165 Y1398.4349
G3 X42.0183 Y1398.3826 I2.999 J0.0786
G1 X42.0377 Y1397.9398
G3 X42.0404 Y1397.8876 I2.9971 J0.1309
G1 X42.0675 Y1397.4451
G3 X42.0711 Y1397.3928 I2.9944 J0.1831
G1 X42.1059 Y1396.9508
G3 X42.1105 Y1396.8987 I2.9907 J0.2354
G1 X42.1529 Y1396.4575
G3 X42.1584 Y1396.4054 I2.9862 J0.2875
G1 X42.2086 Y1395.9649
G3 X42.215 Y1395.9129 I2.9807 J0.3396
G1 X42.2728 Y1395.4734
G3 X42.2801 Y1395.4215 I2.9743 J0.3916
G1 X42.3457 Y1394.9831
G3 X42.3538 Y1394.9315 I2.967 J0.4435
G1 X42.427 Y1394.4942
G3 X42.4361 Y1394.4425 I2.9589 J0.4951
G1 X42.5169 Y1394.0067
G3 X42.5269 Y1393.9555 I2.9498 J0.5468
G1 X42.6152 Y1393.521
G3 X42.6261 Y1393.4697 I2.9398 J0.598
G1 X42.7221 Y1393.0369
G3 X42.7339 Y1392.9857 I2.9289 J0.6493
G1 X42.8374 Y1392.5547
G3 X42.85 Y1392.5041 I2.9171 J0.7005
G1 X42.961 Y1392.0749
G3 X42.9746 Y1392.0243 I2.9045 J0.7511
G1 X43.093 Y1391.5971
G3 X43.1075 Y1391.5467 I2.8909 J0.8017
G1 X43.2334 Y1391.1217
G3 X43.2487 Y1391.0717 I2.8764 J0.8521
G1 X43.382 Y1390.6489
G3 X43.3982 Y1390.5991 I2.8611 J0.9021
G1 X43.5388 Y1390.1787
G3 X43.5559 Y1390.1292 I2.845 J0.9519
G1 X43.7039 Y1389.7113
G3 X43.7218 Y1389.6621 I2.8279 J1.0014
G1 X43.877 Y1389.2469
G3 X43.8958 Y1389.198 I2.81 J1.0506
G1 X44.0582 Y1388.7855
G3 X44.0779 Y1388.737 I2.7913 J1.0995
G1 X44.2475 Y1388.3274
G3 X44.268 Y1388.279 I2.7717 J1.148
G1 X44.4448 Y1387.8725
G3 X44.4661 Y1387.8248 I2.7511 J1.1964
G1 X44.6499 Y1387.4214
G3 X44.672 Y1387.374 I2.7299 J1.2441
G1 X44.8629 Y1386.9739
G3 X44.8857 Y1386.927 I2.7078 J1.2915
G1 X45.0836 Y1386.5302
G3 X45.1074 Y1386.4833 I2.6849 J1.3384
G1 X45.3121 Y1386.0901
G3 X45.3366 Y1386.044 I2.661 J1.3853
G1 X45.5482 Y1385.6544
G3 X45.5737 Y1385.6084 I2.6365 J1.4314
G1 X45.792 Y1385.2226
G3 X45.818 Y1385.1775 I2.611 J1.4774
G1 X46.043 Y1384.7955
G3 X46.07 Y1384.7505 I2.585 J1.5225
G1 X46.3016 Y1384.3725
G3 X46.3296 Y1384.3278 I2.5579 J1.5675
G1 X46.5677 Y1383.954
G3 X46.596 Y1383.9105 I2.53 J1.6122
G1 X46.8407 Y1383.5408
G3 X46.87 Y1383.4974 I2.5017 J1.6557
G1 X47.1211 Y1383.132
G3 X47.1512 Y1383.089 I2.4725 J1.6991
G1 X47.4086 Y1382.7281
G3 X47.4395 Y1382.6856 I2.4423 J1.7421
G1 X47.7032 Y1382.3293
G3 X47.7346 Y1382.2876 I2.4115 J1.7846
G1 X48.0044 Y1381.9359
G3 X48.0367 Y1381.8946 I2.3801 J1.8263
G1 X48.3127 Y1381.5477
G3 X48.3456 Y1381.5071 I2.3478 J1.8675
G1 X48.6276 Y1381.165
G3 X48.6613 Y1381.1248 I2.3149 J1.9082
G1 X48.9492 Y1380.7877
G3 X48.9835 Y1380.7483 I2.2812 J1.9484
G1 X49.2772 Y1380.4162
G3 X49.3123 Y1380.3772 I2.2469 J1.9878
G1 X49.6118 Y1380.0504
G3 X49.6475 Y1380.0121 I2.2118 J2.0268
G1 X49.9527 Y1379.6906
G3 X49.989 Y1379.653 I2.1761 J2.0651
G1 X50.2997 Y1379.3368
G3 X50.3368 Y1379.2997 I2.1398 J2.1027
G1 X50.653 Y1378.989
G3 X50.6906 Y1378.9527 I2.1027 J2.1398
G1 X51.0121 Y1378.6475
G3 X51.0504 Y1378.6118 I2.0651 J2.1761
G1 X51.3772 Y1378.3123
G3 X51.4162 Y1378.2772 I2.0268 J2.2118
G1 X51.7483 Y1377.9835
G3 X51.7877 Y1377.9492 I1.9878 J2.2469
G1 X52.1248 Y1377.6613
G3 X52.165 Y1377.6276 I1.9484 J2.2812
G1 X52.5071 Y1377.3456
G3 X52.5477 Y1377.3127 I1.9082 J2.3149
G1 X52.8946 Y1377.0367
G3 X52.9359 Y1377.0044 I1.8675 J2.3478
G1 X53.2876 Y1376.7346
G3 X53.3293 Y1376.7032 I1.8263 J2.3801
G1 X53.6856 Y1376.4395
G3 X53.7281 Y1376.4086 I1.7846 J2.4115
G1 X54.089 Y1376.1512
G3 X54.132 Y1376.1211 I1.7421 J2.4423
G1 X54.4974 Y1375.87
G3 X54.5408 Y1375.8407 I1.6991 J2.4725
G1 X54.9105 Y1375.596
G3 X54.954 Y1375.5677 I1.6557 J2.5017
G1 X55.3278 Y1375.3296
G3 X55.3725 Y1375.3016 I1.6122 J2.53
G1 X55.7505 Y1375.07
G3 X55.7955 Y1375.043 I1.5675 J2.5579
G1 X56.1775 Y1374.818
G3 X56.2226 Y1374.792 I1.5225 J2.585
G1 X56.6084 Y1374.5737
G3 X56.6544 Y1374.5482 I1.4774 J2.611
G1 X57.044 Y1374.3366
G3 X57.0901 Y1374.3121 I1.4314 J2.6365
G1 X57.4833 Y1374.1074
G3 X57.5302 Y1374.0836 I1.3853 J2.661
G1 X57.927 Y1373.8857
G3 X57.9739 Y1373.8629 I1.3384 J2.6849
G1 X58.374 Y1373.672
G3 X58.4214 Y1373.6499 I1.2915 J2.7078
G1 X58.8248 Y1373.4661
G3 X58.8725 Y1373.4448 I1.2441 J2.7299
G1 X59.279 Y1373.268
G3 X59.3274 Y1373.2475 I1.1964 J2.7511
G1 X59.737 Y1373.0779
G3 X59.7855 Y1373.0582 I1.148 J2.7717
G1 X60.198 Y1372.8958
G3 X60.2469 Y1372.877 I1.0995 J2.7913
G1 X60.6621 Y1372.7218
G3 X60.7113 Y1372.7039 I1.0506 J2.81
G1 X61.1292 Y1372.5559
G3 X61.1787 Y1372.5388 I1.0014 J2.8279
G1 X61.5991 Y1372.3982
G3 X61.6489 Y1372.382 I0.9519 J2.845
G1 X62.0717 Y1372.2487
G3 X62.1217 Y1372.2334 I0.9021 J2.8611
G1 X62.5467 Y1372.1075
G3 X62.5971 Y1372.093 I0.8521 J2.8764
G1 X63.0243 Y1371.9746
G3 X63.0749 Y1371.961 I0.8017 J2.8909
G1 X63.5041 Y1371.85
G3 X63.5547 Y1371.8374 I0.7511 J2.9045
G1 X63.9857 Y1371.7339
G3 X64.0369 Y1371.7221 I0.7005 J2.9171
G1 X64.4697 Y1371.6261
G3 X64.521 Y1371.6152 I0.6493 J2.9289
G1 X64.9555 Y1371.5269
G3 X65.0067 Y1371.5169 I0.598 J2.9398
G1 X65.4425 Y1371.4361
G3 X65.4942 Y1371.427 I0.5468 J2.9498
G1 X65.9315 Y1371.3538
G3 X65.9831 Y1371.3457 I0.4951 J2.9589
G1 X66.4215 Y1371.2801
G3 X66.4734 Y1371.2728 I0.4435 J2.967
G1 X66.9129 Y1371.215
G3 X66.9649 Y1371.2086 I0.3916 J2.9743
G1 X67.4054 Y1371.1584
G3 X67.4575 Y1371.1529 I0.3396 J2.9807
G1 X67.8987 Y1371.1105
G3 X67.9508 Y1371.1059 I0.2875 J2.9862
G1 X68.3928 Y1371.0711
G3 X68.4451 Y1371.0675 I0.2354 J2.9907
G1 X68.8876 Y1371.0404
G3 X68.9398 Y1371.0377 I0.1831 J2.9944
G1 X69.3826 Y1371.0183
G3 X69.4349 Y1371.0165 I0.1309 J2.9971
G1 X69.8781 Y1371.0049
G3 X69.9306 Y1371.004 I0.0786 J2.999
G1 X70.3739 Y1371.0001
G3 X73.4 Y1374.0 I0.0261 J2.9999
G1 Y1390.05
G1 X72.5213 Y1390.9287
G1 X73.4 Y1390.05
G1 X86.45
G1 X87.3287 Y1390.9287
G1 X86.45 Y1390.05
G1 Y1374.0
G3 X89.45 Y1371.0 I3.0 J0.0
G1 X1016.55
G3 X1019.55 Y1374.0 I0.0 J3.0
G1 Y1390.05
G1 X1018.6713 Y1390.9287
G1 X1019.55 Y1390.05
G1 F300.0 Z-4.0
G1 F800.0 X1032.6
G1 X1033.4787 Y1390.9287
G1 X1032.6 Y1390.05
G1 Y1374.0
G3 X1035.6261 Y1371.0001 I3.0 J0.0
G1 X1036.0691 Y1371.004
G3 X1036.1216 Y1371.0049 I-0.0261 J2.9999
G1 X1036.5646 Y1371.0165
G3 X1036.6168 Y1371.0183 I-0.0786 J2.999
G1 X1037.0598 Y1371.0377
G3 X1037.1119 Y1371.0404 I-0.1308 J2.9971
G1 X1037.5549 Y1371.0674
G3 X1037.6074 Y1371.0711 I-0.1829 J2.9944
G1 X1038.0494 Y1371.1059
G3 X1038.1017 Y1371.1105 I-0.2354 J2.9907
G1 X1038.5427 Y1371.153
G3 X1038.595 Y1371.1585 I-0.2877 J2.9862
G1 X1039.035 Y1371.2086
G3 X1039.0861 Y1371.2149 I-0.34 J2.9807
G1 X1039.5261 Y1371.2728
G3 X1039.5789 Y1371.2802 I-0.3911 J2.9744
G1 X1040.0169 Y1371.3457
G3 X1040.0673 Y1371.3537 I-0.4439 J2.967
G1 X1040.5053 Y1371.4269
G3 X1040.5575 Y1371.4361 I-0.4943 J2.959
G1 X1040.9935 Y1371.5169
G3 X1041.0456 Y1371.527 I-0.5465 J2.9498
G1 X1041.4796 Y1371.6154
G3 X1041.53 Y1371.6261 I-0.5986 J2.9397
G1 X1041.963 Y1371.722
G3 X1042.0145 Y1371.7339 I-0.649 J2.929
G1 X1042.4455 Y1371.8374
G3 X1042.4964 Y1371.8501 I-0.7005 J2.9171
G1 X1042.9254 Y1371.9611
G3 X1042.976 Y1371.9747 I-0.7514 J2.9044
G1 X1043.403 Y1372.0931
G3 X1043.4531 Y1372.1075 I-0.802 J2.8908
G1 X1043.8781 Y1372.2334
G3 X1043.9277 Y1372.2486 I-0.8521 J2.8764
G1 X1044.3507 Y1372.3819
G3 X1044.4017 Y1372.3985 I-0.9017 J2.8613
G1 X1044.8217 Y1372.5391
G3 X1044.8702 Y1372.5558 I-0.9527 J2.8447
G1 X1045.2882 Y1372.7038
G3 X1045.3359 Y1372.7211 I-1.0012 J2.828
G1 X1045.7519 Y1372.8764
G3 X1045.8153 Y1372.9009 I-1.0489 J2.8107
G1 X1046.2223 Y1373.0633
G3 X1046.257 Y1373.0775 I-1.1123 J2.7862
G1 X1046.667 Y1373.2471
G3 X1046.7077 Y1373.2643 I-1.147 J2.7721
G1 X1047.1177 Y1373.4411
G3 X1047.1828 Y1373.4701 I-1.1877 J2.7549
G1 X1047.5828 Y1373.6539
G3 X1047.6218 Y1373.6722 I-1.2528 J2.7259
G1 X1048.0218 Y1373.863
G3 X1048.0598 Y1373.8815 I-1.2918 J2.7076
G1 X1048.4598 Y1374.0793
G3 X1048.5242 Y1374.1121 I-1.3298 J2.6891
G1 X1048.9142 Y1374.3168
G3 X1048.9503 Y1374.336 I-1.3942 J2.6563
G1 X1049.3403 Y1374.5475
G3 X1049.3753 Y1374.5668 I-1.4303 J2.6371
G1 X1049.7653 Y1374.7851
G3 X1049.8284 Y1374.8215 I-1.4653 J2.6178
G1 X1050.2084 Y1375.0465
G3 X1050.2414 Y1375.0663 I-1.5284 J2.5815
G1 X1050.6214 Y1375.2979
G3 X1050.6839 Y1375.3371 I-1.5614 J2.5616
G1 X1051.0539 Y1375.5753
G3 X1051.0848 Y1375.5954 I-1.6239 J2.5225
G1 X1051.4548 Y1375.8401
G3 X1051.4846 Y1375.8601 I-1.6548 J2.5023
G1 X1051.8546 Y1376.1112
G3 X1051.915 Y1376.1533 I-1.6846 J2.4823
G1 X1052.275 Y1376.4107
G3 X1052.3027 Y1376.4307 I-1.745 J2.4403
G1 X1052.6627 Y1376.6944
G3 X1052.7219 Y1376.7389 I-1.7727 J2.4202
G1 X1053.0719 Y1377.0087
G3 X1053.1306 Y1377.0552 I-1.8319 J2.3758
G1 X1053.4664 Y1377.3278
G1 X1053.8121 Y1377.6063
G3 X1053.9022 Y1377.6818 I-1.8821 J2.3362
G1 X1054.2268 Y1377.965
G1 X1054.5613 Y1378.254
G3 X1054.65 Y1378.3338 I-1.9613 J2.2701
G1 X1054.97 Y1378.6333
G3 X1054.9904 Y1378.6525 I-2.05 J2.1903
G1 X1055.3104 Y1378.9577
G3 X1055.3298 Y1378.9764 I-2.0704 J2.1711
G1 X1055.6498 Y1379.2871
G3 X1055.7022 Y1379.3393 I-2.0898 J2.1523
G1 X1056.0122 Y1379.6555
G3 X1056.0298 Y1379.6735 I-2.1422 J2.1002
G1 X1056.3398 Y1379.9951
G3 X1056.3901 Y1380.0486 I-2.1598 J2.0821
G1 X1056.6901 Y1380.3754
G3 X1056.7395 Y1380.4306 I-2.2101 J2.0287
G1 X1057.0295 Y1380.7626
G3 X1057.0442 Y1380.7796 I-2.2595 J1.9735
G1 X1057.3342 Y1381.1166
G3 X1057.3815 Y1381.173 I-2.2742 J1.9565
G1 X1057.6615 Y1381.515
G3 X1057.6745 Y1381.5311 I-2.3215 J1.9002
G1 X1057.9545 Y1381.8781
G3 X1057.9997 Y1381.9354 I-2.3345 J1.8841
G1 X1058.2697 Y1382.2871
G3 X1058.3134 Y1382.3455 I-2.3797 J1.8268
G1 X1058.5734 Y1382.7018
G3 X1058.5841 Y1382.7166 I-2.4234 J1.7684
G1 X1058.8441 Y1383.0775
G3 X1058.886 Y1383.1371 I-2.4341 J1.7536
G1 X1059.136 Y1383.5025
G3 X1059.1763 Y1383.563 I-2.476 J1.694
G1 X1059.4163 Y1383.9327
G3 X1059.4245 Y1383.9454 I-2.5163 J1.6335
G1 X1059.6645 Y1384.3192
G3 X1059.7029 Y1384.3806 I-2.5245 J1.6208
G1 X1059.9329 Y1384.7586
G3 X1059.9401 Y1384.7706 I-2.5629 J1.5594
G1 X1060.1701 Y1385.1526
G3 X1060.2061 Y1385.2139 I-2.5701 J1.5474
G1 X1060.4261 Y1385.5997
G3 X1060.4608 Y1385.6624 I-2.6061 J1.4861
G1 X1060.6708 Y1386.052
G3 X1060.704 Y1386.1153 I-2.6408 J1.4234
G1 X1060.904 Y1386.5085
G3 X1060.9089 Y1386.5183 I-2.674 J1.3601
G1 X1061.1089 Y1386.9151
G3 X1061.14 Y1386.9785 I-2.6789 J1.3503
G1 X1061.33 Y1387.3786
G3 X1061.3596 Y1387.4431 I-2.71 J1.2869
G1 X1061.5396 Y1387.8465
G3 X1061.5431 Y1387.8542 I-2.7396 J1.2224
G1 X1061.7231 Y1388.2607
G3 X1061.7508 Y1388.3254 I-2.7431 J1.2147
G1 X1061.9208 Y1388.735
G3 X1061.947 Y1388.8001 I-2.7708 J1.15
G1 X1062.107 Y1389.2126
G3 X1062.1093 Y1389.2188 I-2.797 J1.0849
G1 X1062.2693 Y1389.634
G3 X1062.2936 Y1389.6992 I-2.7993 J1.0787
G1 X1062.4436 Y1390.1171
G3 X1062.4663 Y1390.1827 I-2.8236 J1.0135
G1 X1062.6063 Y1390.6031
G3 X1062.6275 Y1390.6693 I-2.8463 J0.9479
G1 X1062.7575 Y1391.0921
G3 X1062.7588 Y1391.0963 I-2.8675 J0.8817
G1 X1062.8888 Y1391.5213
G3 X1062.9252 Y1391.6507 I-2.8688 J0.8775
G1 X1063.0275 Y1392.048
G1 X1063.1392 Y1392.4474
G3 X1063.1724 Y1392.5772 I-2.8892 J0.8078
G1 X1063.2724 Y1393.0082
G3 X1063.2872 Y1393.0754 I-2.9224 J0.678
G1 X1063.3772 Y1393.5082
G3 X1063.3776 Y1393.5105 I-2.9372 J0.6108
G1 X1063.4676 Y1393.945
G3 X1063.4807 Y1394.0118 I-2.9376 J0.6085
G1 X1063.5607 Y1394.4476
G3 X1063.561 Y1394.4494 I-2.9507 J0.5417
G1 X1063.641 Y1394.8867
G3 X1063.6623 Y1395.0198 I-2.951 J0.5399
G1 X1063.7223 Y1395.4582
G3 X1063.7224 Y1395.4592 I-2.9723 J0.4068
G1 X1063.7824 Y1395.8987
G3 X1063.7909 Y1395.9662 I-2.9724 J0.4058
G1 X1063.8409 Y1396.4067
G3 X1063.8477 Y1396.4741 I-2.9809 J0.3383
G1 X1063.8877 Y1396.9153
G1 X1063.8878 Y1396.9158
G1 X1063.9278 Y1397.3578
G3 X1063.9331 Y1397.4253 I-2.9878 J0.2704
G1 X1063.9631 Y1397.8678
G3 X1063.9692 Y1398.003 I-2.9931 J0.2029
G1 X1063.9785 Y1398.412
G1 X1063.997 Y1398.8215
G3 X1064.0 Y1398.9567 I-2.997 J0.1352
G1 Y1399.4
G1 Y1475.6
G1 Y1476.043
G3 X1063.9969 Y1476.1783 I-3.0 J0.0
G1 X1063.9785 Y1476.5875
G1 X1063.9692 Y1476.9967
G3 X1063.9631 Y1477.1317 I-2.9992 J-0.0677
G1 X1063.9331 Y1477.5747
G3 X1063.9278 Y1477.6424 I-2.9931 J-0.2027
G1 X1063.8878 Y1478.0844
G3 X1063.8877 Y1478.085 I-2.9878 J-0.2704
G1 X1063.8477 Y1478.526
G3 X1063.8408 Y1478.5937 I-2.9877 J-0.271
G1 X1063.7908 Y1479.0337
G3 X1063.7825 Y1479.1003 I-2.9808 J-0.3387
G1 X1063.7225 Y1479.5403
G3 X1063.7222 Y1479.5422 I-2.9725 J-0.4053
G1 X1063.6622 Y1479.9802
G3 X1063.6412 Y1480.112 I-2.9722 J-0.4072
G1 X1063.5612 Y1480.55
G3 X1063.5607 Y1480.5524 I-2.9512 J-0.539
G1 X1063.4807 Y1480.9884
G3 X1063.4675 Y1481.0562 I-2.9507 J-0.5414
G1 X1063.3775 Y1481.4902
G3 X1063.3772 Y1481.4915 I-2.9375 J-0.6092
G1 X1063.2872 Y1481.9245
G3 X1063.2724 Y1481.992 I-2.9372 J-0.6105
G1 X1063.1724 Y1482.423
G3 X1063.1391 Y1482.5531 I-2.9224 J-0.678
G1 X1063.0274 Y1482.9524
G1 X1062.9252 Y1483.3494
G3 X1062.8888 Y1483.4785 I-2.9052 J-0.7484
G1 X1062.7588 Y1483.9035
G3 X1062.7576 Y1483.9073 I-2.8688 J-0.8775
G1 X1062.6276 Y1484.3303
G3 X1062.606 Y1484.3977 I-2.8676 J-0.8813
G1 X1062.466 Y1484.8177
G3 X1062.4437 Y1484.8823 I-2.846 J-0.9487
G1 X1062.2937 Y1485.3003
G3 X1062.27 Y1485.3639 I-2.8237 J-1.0133
G1 X1062.11 Y1485.7799
G3 X1062.1065 Y1485.789 I-2.8 J-1.0769
G1 X1061.9465 Y1486.201
G3 X1061.9212 Y1486.264 I-2.7965 J-1.086
G1 X1061.7512 Y1486.674
G3 X1061.7225 Y1486.7409 I-2.7712 J-1.149
G1 X1061.5425 Y1487.1469
G3 X1061.5403 Y1487.1519 I-2.7425 J-1.2159
G1 X1061.3603 Y1487.5559
G3 X1061.3298 Y1487.6222 I-2.7403 J-1.2209
G1 X1061.1398 Y1488.0222
G3 X1061.1078 Y1488.0874 I-2.7098 J-1.2872
G1 X1060.9078 Y1488.4834
G3 X1060.9051 Y1488.4889 I-2.6778 J-1.3524
G1 X1060.7051 Y1488.8829
G3 X1060.6699 Y1488.9501 I-2.6751 J-1.3579
G1 X1060.4599 Y1489.3391
G3 X1060.4264 Y1489.3995 I-2.6399 J-1.4251
G1 X1060.2064 Y1489.7855
G3 X1060.1701 Y1489.8474 I-2.6064 J-1.4855
G1 X1059.9401 Y1490.2294
G3 X1059.9329 Y1490.2414 I-2.5701 J-1.5474
G1 X1059.7029 Y1490.6194
G3 X1059.6649 Y1490.6802 I-2.5629 J-1.5594
G1 X1059.4249 Y1491.0542
G3 X1059.4149 Y1491.0697 I-2.5249 J-1.6202
G1 X1059.1749 Y1491.4387
G3 X1059.1372 Y1491.4951 I-2.5149 J-1.6357
G1 X1058.8872 Y1491.8611
G3 X1058.8443 Y1491.9223 I-2.4772 J-1.6921
G1 X1058.5843 Y1492.2833
G3 X1058.5727 Y1492.2994 I-2.4343 J-1.7533
G1 X1058.3127 Y1492.6554
G3 X1058.2704 Y1492.7119 I-2.4227 J-1.7694
G1 X1058.0004 Y1493.0639
G3 X1057.9547 Y1493.1219 I-2.3804 J-1.8259
G1 X1057.6747 Y1493.4689
G3 X1057.6613 Y1493.4855 I-2.3347 J-1.8839
G1 X1057.3813 Y1493.8275
G3 X1057.334 Y1493.8838 I-2.3213 J-1.9005
G1 X1057.044 Y1494.2208
G3 X1057.0294 Y1494.2376 I-2.274 J-1.9568
G1 X1056.7394 Y1494.5696
G3 X1056.6906 Y1494.6241 I-2.2594 J-1.9736
G1 X1056.3906 Y1494.9511
G3 X1056.338 Y1495.007 I-2.2106 J-2.0281
G1 X1056.028 Y1495.328
G3 X1056.0149 Y1495.3415 I-2.158 J-2.084
G1 X1055.7049 Y1495.6585
G3 X1055.6474 Y1495.7157 I-2.1449 J-2.0975
G1 X1055.3274 Y1496.0257
G3 X1055.3098 Y1496.0426 I-2.0874 J-2.1547
G1 X1054.9898 Y1496.3476
G3 X1054.9718 Y1496.3646 I-2.0698 J-2.1716
G1 X1054.6518 Y1496.6646
G3 X1054.5622 Y1496.7453 I-2.0518 J-2.1886
G1 X1054.2274 Y1497.0348
G1 X1053.9026 Y1497.3183
G3 X1053.8122 Y1497.3941 I-1.9726 J-2.2603
G1 X1053.4644 Y1497.6743
G1 X1053.1266 Y1497.9475
G3 X1053.0724 Y1497.9903 I-1.8866 J-2.3325
G1 X1052.7224 Y1498.2603
G3 X1052.6641 Y1498.3042 I-1.8324 J-2.3753
G1 X1052.3041 Y1498.5682
G3 X1052.2731 Y1498.5907 I-1.7741 J-2.4192
G1 X1051.9131 Y1498.8477
G3 X1051.8588 Y1498.8855 I-1.7431 J-2.4417
G1 X1051.4888 Y1499.1375
G3 X1051.4516 Y1499.1625 I-1.6888 J-2.4795
G1 X1051.0816 Y1499.4065
G3 X1051.053 Y1499.4251 I-1.6516 J-2.5045
G1 X1050.683 Y1499.6631
G3 X1050.6233 Y1499.7005 I-1.623 J-2.5231
G1 X1050.2433 Y1499.9325
G3 X1050.2085 Y1499.9534 I-1.5633 J-2.5605
G1 X1049.8285 Y1500.1784
G3 X1049.7638 Y1500.2157 I-1.5285 J-2.5814
G1 X1049.3738 Y1500.4337
G3 X1049.3428 Y1500.4508 I-1.4638 J-2.6187
G1 X1048.9528 Y1500.6628
G3 X1048.9158 Y1500.6825 I-1.4328 J-2.6358
G1 X1048.5258 Y1500.8875
G3 X1048.4555 Y1500.9233 I-1.3958 J-2.6555
G1 X1048.0555 Y1501.1203
G3 X1048.0227 Y1501.1362 I-1.3255 J-2.6913
G1 X1047.6227 Y1501.3272
G3 X1047.5837 Y1501.3455 I-1.2927 J-2.7072
G1 X1047.1837 Y1501.5295
G3 X1047.1191 Y1501.5583 I-1.2537 J-2.7255
G1 X1046.7091 Y1501.7353
G3 X1046.6633 Y1501.7546 I-1.1891 J-2.7543
G1 X1046.2533 Y1501.9236
G3 X1046.2254 Y1501.935 I-1.1433 J-2.7736
G1 X1045.8184 Y1502.098
G3 X1045.7504 Y1502.1242 I-1.1154 J-2.785
G1 X1045.3344 Y1502.2792
G3 X1045.2883 Y1502.296 I-1.0474 J-2.8112
G1 X1044.8703 Y1502.444
G3 X1044.8238 Y1502.46 I-1.0013 J-2.828
G1 X1044.4038 Y1502.601
G3 X1044.3488 Y1502.6189 I-0.9548 J-2.844
G1 X1043.9258 Y1502.7519
G3 X1043.8787 Y1502.7663 I-0.8998 J-2.8619
G1 X1043.4537 Y1502.8923
G3 X1043.4064 Y1502.9059 I-0.8527 J-2.8763
G1 X1042.9794 Y1503.0249
G3 X1042.9255 Y1503.0394 I-0.8054 J-2.8899
G1 X1042.4965 Y1503.1504
G3 X1042.4423 Y1503.1638 I-0.7515 J-2.9044
G1 X1042.0113 Y1503.2668
G3 X1041.9634 Y1503.2779 I-0.6973 J-2.9178
G1 X1041.5304 Y1503.3739
G3 X1041.4772 Y1503.3852 I-0.6494 J-2.9289
G1 X1041.0432 Y1503.4732
G3 X1040.995 Y1503.4825 I-0.5962 J-2.9402
G1 X1040.559 Y1503.5635
G3 X1040.5042 Y1503.5732 I-0.548 J-2.9495
G1 X1040.0662 Y1503.6462
G3 X1040.02 Y1503.6535 I-0.4932 J-2.9592
G1 X1039.582 Y1503.7195
G3 X1039.5271 Y1503.7273 I-0.447 J-2.9665
G1 X1039.0871 Y1503.7853
G3 X1039.0337 Y1503.7918 I-0.3921 J-2.9743
G1 X1038.5937 Y1503.8418
G3 X1038.5394 Y1503.8475 I-0.3387 J-2.9808
G1 X1038.0984 Y1503.8895
G3 X1038.0508 Y1503.8936 I-0.2844 J-2.9865
G1 X1037.6088 Y1503.9286
G3 X1037.5545 Y1503.9324 I-0.2368 J-2.9906
G1 X1037.1115 Y1503.9594
G3 X1037.0643 Y1503.9619 I-0.1825 J-2.9944
G1 X1036.6213 Y1503.9819
G3 X1036.5605 Y1503.9841 I-0.1353 J-2.9969
G1 X1036.1175 Y1503.9951
G3 X1036.0701 Y1503.9959 I-0.0745 J-2.9991
G1 X1035.6271 Y1503.9999
G3 X1032.6 Y1501.0 I-0.0271 J-2.9999
G1 Y1484.95
G1 X1033.4787 Y1484.0713
G1 X1032.6 Y1484.95
G1 X1019.55
G1 X1018.6713 Y1484.0713
G1 X1019.55 Y1484.95
G1 Y1501.0
G3 X1016.55 Y1504.0 I-3.0 J0.0
G1 X89.45
G3 X86.45 Y1501.0 I0.0 J-3.0
G1 Y1484.95
G1 X87.3287 Y1484.0713
G1 X86.45 Y1484.95
G1 X73.4
G1 X72.5213 Y1484.0713
G1 X73.4 Y1484.95
G1 Y1501.0
G3 X70.3729 Y1503.9999 I-3.0 J0.0
G1 X69.9296 Y1503.9959
G3 X69.8823 Y1503.9951 I0.0271 J-2.9999
G1 X69.4391 Y1503.9841
G3 X69.3781 Y1503.9819 I0.0744 J-2.9991
G1 X68.9353 Y1503.9619
G3 X68.888 Y1503.9594 I0.1354 J-2.9969
G1 X68.4455 Y1503.9324
G3 X68.3914 Y1503.9286 I0.1827 J-2.9944
G1 X67.9494 Y1503.8936
G3 X67.9019 Y1503.8895 I0.2368 J-2.9906
G1 X67.4607 Y1503.8475
G3 X67.4067 Y1503.8419 I0.2843 J-2.9865
G1 X66.9662 Y1503.7919
G3 X66.912 Y1503.7852 I0.3383 J-2.9809
G1 X66.4725 Y1503.7272
G3 X66.4184 Y1503.7196 I0.3925 J-2.9742
G1 X65.98 Y1503.6536
G3 X65.9326 Y1503.6461 I0.4466 J-2.9666
G1 X65.4953 Y1503.5731
G3 X65.4411 Y1503.5635 I0.494 J-2.9591
G1 X65.0053 Y1503.4825
G3 X64.958 Y1503.4733 I0.5482 J-2.9495
G1 X64.5235 Y1503.3853
G3 X64.4694 Y1503.3738 I0.5955 J-2.9403
G1 X64.0366 Y1503.2778
G3 X63.9889 Y1503.2668 I0.6496 J-2.9288
G1 X63.5579 Y1503.1638
G3 X63.5041 Y1503.1504 I0.6973 J-2.9178
G1 X63.0749 Y1503.0394
G3 X63.021 Y1503.025 I0.7511 J-2.9044
G1 X62.5938 Y1502.906
G3 X62.5461 Y1502.8923 I0.805 J-2.89
G1 X62.1211 Y1502.7663
G3 X62.0736 Y1502.7517 I0.8527 J-2.8763
G1 X61.6508 Y1502.6187
G3 X61.597 Y1502.6013 I0.9002 J-2.8617
G1 X61.1766 Y1502.4603
G3 X61.1291 Y1502.4439 I0.954 J-2.8443
G1 X60.7112 Y1502.2959
G3 X60.6635 Y1502.2785 I1.0015 J-2.8279
G1 X60.2483 Y1502.1235
G3 X60.195 Y1502.1031 I1.0492 J-2.8105
G1 X59.7825 Y1501.9401
G3 X59.7408 Y1501.9232 I1.1025 J-2.7901
G1 X59.3312 Y1501.7542
G3 X59.2777 Y1501.7316 I1.1442 J-2.7732
G1 X58.8712 Y1501.5546
G3 X58.8239 Y1501.5335 I1.1977 J-2.7506
G1 X58.4205 Y1501.3495
G3 X58.3731 Y1501.3273 I1.245 J-2.7295
G1 X57.973 Y1501.1363
G3 X57.9313 Y1501.1161 I1.2924 J-2.7073
G1 X57.5345 Y1500.9191
G3 X57.4817 Y1500.8922 I1.3341 J-2.6871
G1 X57.0885 Y1500.6872
G3 X57.0415 Y1500.6621 I1.3869 J-2.6602
G1 X56.6519 Y1500.4501
G3 X56.6099 Y1500.4269 I1.4339 J-2.6351
G1 X56.2241 Y1500.2089
G3 X56.1775 Y1500.1819 I1.4759 J-2.6119
G1 X55.7955 Y1499.9569
G3 X55.7487 Y1499.9288 I1.5225 J-2.5849
G1 X55.3707 Y1499.6968
G3 X55.3288 Y1499.6706 I1.5693 J-2.5568
G1 X54.955 Y1499.4326
G3 X54.9137 Y1499.4058 I1.6112 J-2.5306
G1 X54.544 Y1499.1618
G3 X54.4933 Y1499.1276 I1.6525 J-2.5038
G1 X54.1279 Y1498.8756
G3 X54.0909 Y1498.8497 I1.7032 J-2.4696
G1 X53.73 Y1498.5927
G3 X53.6842 Y1498.5594 I1.7402 J-2.4437
G1 X53.3279 Y1498.2954
G3 X53.2871 Y1498.2647 I1.786 J-2.4104
G1 X52.9354 Y1497.9947
G3 X52.8987 Y1497.966 I1.8268 J-2.3797
G1 X52.5517 Y1497.691
G3 X52.5069 Y1497.6548 I1.8635 J-2.351
G1 X52.1649 Y1497.3728
G3 X52.1244 Y1497.3389 I1.9083 J-2.3148
G1 X51.7873 Y1497.0509
G3 X51.7473 Y1497.016 I1.9488 J-2.2809
G1 X51.4153 Y1496.722
G3 X51.3754 Y1496.6861 I1.9888 J-2.246
G1 X51.0486 Y1496.3861
G3 X51.0127 Y1496.3526 I2.0287 J-2.2101
G1 X50.6911 Y1496.0476
G3 X50.6555 Y1496.0132 I2.0645 J-2.1766
G1 X50.3393 Y1495.7032
G3 X50.297 Y1495.661 I2.1002 J-2.1422
G1 X49.9863 Y1495.344
G3 X49.9545 Y1495.311 I2.1425 J-2.1
G1 X49.6493 Y1494.99
G3 X49.6113 Y1494.9493 I2.1743 J-2.067
G1 X49.3118 Y1494.6223
G3 X49.2773 Y1494.5839 I2.2123 J-2.0263
G1 X48.9836 Y1494.2519
G3 X48.9494 Y1494.2126 I2.2468 J-1.9879
G1 X48.6615 Y1493.8756
G3 X48.6277 Y1493.8354 I2.281 J-1.9486
G1 X48.3458 Y1493.4934
G3 X48.3125 Y1493.4524 I2.3147 J-1.9084
G1 X48.0365 Y1493.1054
G3 X48.0037 Y1493.0633 I2.348 J-1.8674
G1 X47.7338 Y1492.7113
G3 X47.7039 Y1492.6716 I2.3808 J-1.8253
G1 X47.4402 Y1492.3156
G3 X47.4084 Y1492.2718 I2.4107 J-1.7856
G1 X47.151 Y1491.9108
G3 X47.1198 Y1491.8662 I2.4426 J-1.7418
G1 X46.8687 Y1491.5002
G3 X46.8422 Y1491.4609 I2.4738 J-1.6972
G1 X46.5975 Y1491.0919
G3 X46.5674 Y1491.0455 I2.5003 J-1.6579
G1 X46.3292 Y1490.6715
G3 X46.3016 Y1490.6275 I2.5304 J-1.6115
G1 X46.07 Y1490.2495
G3 X46.043 Y1490.2045 I2.5579 J-1.5675
G1 X45.818 Y1489.8225
G3 X45.7916 Y1489.7768 I2.585 J-1.5225
G1 X45.5733 Y1489.3908
G3 X45.5491 Y1489.3471 I2.6113 J-1.4768
G1 X45.3376 Y1488.9581
G3 X45.311 Y1488.9081 I2.6356 J-1.4331
G1 X45.1063 Y1488.5141
G3 X45.0846 Y1488.4716 I2.6621 J-1.3831
G1 X44.8868 Y1488.0756
G3 X44.863 Y1488.0268 I2.6838 J-1.3406
G1 X44.6722 Y1487.6268
G3 X44.6492 Y1487.5775 I2.7076 J-1.2918
G1 X44.4654 Y1487.1735
G3 X44.4453 Y1487.1286 I2.7306 J-1.2425
G1 X44.2686 Y1486.7226
G3 X44.2471 Y1486.672 I2.7506 J-1.1976
G1 X44.0775 Y1486.262
G3 X44.0587 Y1486.2156 I2.7721 J-1.147
G1 X43.8962 Y1485.8036
G3 X43.8764 Y1485.7519 I2.7908 J-1.1006
G1 X43.7211 Y1485.3359
G3 X43.7038 Y1485.2882 I2.8107 J-1.0489
G1 X43.5558 Y1484.8702
G3 X43.5391 Y1484.8217 I2.828 J-1.0012
G1 X43.3985 Y1484.4017
G3 X43.3819 Y1484.3507 I2.8447 J-0.9527
G1 X43.2486 Y1483.9277
G3 X43.2334 Y1483.8781 I2.8613 J-0.9017
G1 X43.1075 Y1483.4531
G3 X43.0931 Y1483.403 I2.8764 J-0.8521
G1 X42.9747 Y1482.976
G3 X42.9611 Y1482.9254 I2.8908 J-0.802
G1 X42.8501 Y1482.4964
G3 X42.8374 Y1482.4455 I2.9044 J-0.7514
G1 X42.7339 Y1482.0145
G3 X42.722 Y1481.963 I2.9171 J-0.7005
G1 X42.6261 Y1481.53
G3 X42.6154 Y1481.4796 I2.929 J-0.649
G1 X42.527 Y1481.0456
G3 X42.5169 Y1480.9935 I2.9397 J-0.5986
G1 X42.4361 Y1480.5575
G3 X42.4269 Y1480.5053 I2.9498 J-0.5465
G1 X42.3537 Y1480.0673
G3 X42.3457 Y1480.0169 I2.959 J-0.4943
G1 X42.2802 Y1479.5789
G3 X42.2728 Y1479.5261 I2.967 J-0.4439
G1 X42.2149 Y1479.0861
G3 X42.2086 Y1479.035 I2.9744 J-0.3911
G1 X42.1585 Y1478.595
G3 X42.153 Y1478.5427 I2.9807 J-0.34
G1 X42.1105 Y1478.1017
G3 X42.1059 Y1478.0494 I2.9862 J-0.2877
G1 X42.0711 Y1477.6074
G3 X42.0674 Y1477.5549 I2.9907 J-0.2354
G1 X42.0404 Y1477.1119
G3 X42.0377 Y1477.0598 I2.9944 J-0.1829
G1 X42.0183 Y1476.6168
G3 X42.0165 Y1476.5646 I2.9971 J-0.1308
G1 X42.0049 Y1476.1216
G3 X42.004 Y1476.0691 I2.999 J-0.0786
G1 X42.0001 Y1475.6261
G3 X42.0 Y1475.6 I2.9999 J-0.0261
G1 Y1399.4
G3 X42.0001 Y1399.3739 I3.0 J0.0
G1 X42.004 Y1398.9306
G3 X42.0049 Y1398.8781 I2.9999 J0.0261
G1 X42.0165 Y1398.4349
G3 X42.0183 Y1398.3826 I2.999 J0.0786
G1 X42.0377 Y1397.9398
G3 X42.0404 Y1397.8876 I2.9971 J0.1309
G1 X42.0675 Y1397.4451
G3 X42.0711 Y1397.3928 I2.9944 J0.1831
G1 X42.1059 Y1396.9508
G3 X42.1105 Y1396.8987 I2.9907 J0.2354
G1 X42.1529 Y1396.4575
G3 X42.1584 Y1396.4054 I2.9862 J0.2875
G1 X42.2086 Y1395.9649
G3 X42.215 Y1395.9129 I2.9807 J0.3396
G1 X42.2728 Y1395.4734
G3 X42.2801 Y1395.4215 I2.9743 J0.3916
G1 X42.3457 Y1394.9831
G3 X42.3538 Y1394.9315 I2.967 J0.4435
G1 X42.427 Y1394.4942
G3 X42.4361 Y1394.4425 I2.9589 J0.4951
G1 X42.5169 Y1394.0067
G3 X42.5269 Y1393.9555 I2.9498 J0.5468
G1 X42.6152 Y1393.521
G3 X42.6261 Y1393.4697 I2.9398 J0.598
G1 X42.7221 Y1393.0369
G3 X42.7339 Y1392.9857 I2.9289 J0.6493
G1 X42.8374 Y1392.5547
G3 X42.85 Y1392.5041 I2.9171 J0.7005
G1 X42.961 Y1392.0749
G3 X42.9746 Y1392.0243 I2.9045 J0.7511
G1 X43.093 Y1391.5971
G3 X43.1075 Y1391.5467 I2.8909 J0.8017
G1 X43.2334 Y1391.1217
G3 X43.2487 Y1391.0717 I2.8764 J0.8521
G1 X43.382 Y1390.6489
G3 X43.3982 Y1390.5991 I2.8611 J0.9021
G1 X43.5388 Y1390.1787
G3 X43.5559 Y1390.1292 I2.845 J0.9519
G1 X43.7039 Y1389.7113
G3 X43.7218 Y1389.6621 I2.8279 J1.0014
G1 X43.877 Y1389.2469
G3 X43.8958 Y1389.198 I2.81 J1.0506
G1 X44.0582 Y1388.7855
G3 X44.0779 Y1388.737 I2.7913 J1.0995
G1 X44.2475 Y1388.3274
G3 X44.268 Y1388.279 I2.7717 J1.148
G1 X44.4448 Y1387.8725
G3 X44.4661 Y1387.8248 I2.7511 J1.1964
G1 X44.6499 Y1387.4214
G3 X44.672 Y1387.374 I2.7299 J1.2441
G1 X44.8629 Y1386.9739
G3 X44.8857 Y1386.927 I2.7078 J1.2915
G1 X45.0836 Y1386.5302
G3 X45.1074 Y1386.4833 I2.6849 J1.3384
G1 X45.3121 Y1386.0901
G3 X45.3366 Y1386.044 I2.661 J1.3853
G1 X45.5482 Y1385.6544
G3 X45.5737 Y1385.6084 I2.6365 J1.4314
G1 X45.792 Y1385.2226
G3 X45.818 Y1385.1775 I2.611 J1.4774
G1 X46.043 Y1384.7955
G3 X46.07 Y1384.7505 I2.585 J1.5225
G1 X46.3016 Y1384.3725
G3 X46.3296 Y1384.3278 I2.5579 J1.5675
G1 X46.5677 Y1383.954
G3 X46.596 Y1383.9105 I2.53 J1.6122
G1 X46.8407 Y1383.5408
G3 X46.87 Y1383.4974 I2.5017 J1.6557
G1 X47.1211 Y1383.132
G3 X47.1512 Y1383.089 I2.4725 J1.6991
G1 X47.4086 Y1382.7281
G3 X47.4395 Y1382.6856 I2.4423 J1.7421
G1 X47.7032 Y1382.3293
G3 X47.7346 Y1382.2876 I2.4115 J1.7846
G1 X48.0044 Y1381.9359
G3 X48.0367 Y1381.8946 I2.3801 J1.8263
G1 X48.3127 Y1381.5477
G3 X48.3456 Y1381.5071 I2.3478 J1.8675
G1 X48.6276 Y1381.165
G3 X48.6613 Y1381.1248 I2.3149 J1.9082
G1 X48.9492 Y1380.7877
G3 X48.9835 Y1380.7483 I2.2812 J1.9484
G1 X49.2772 Y1380.4162
G3 X49.3123 Y1380.3772 I2.2469 J1.9878
G1 X49.6118 Y1380.0504
G3 X49.6475 Y1380.0121 I2.2118 J2.0268
G1 X49.9527 Y1379.6906
G3 X49.989 Y1379.653 I2.1761 J2.0651
G1 X50.2997 Y1379.3368
G3 X50.3368 Y1379.2997 I2.1398 J2.1027
G1 X50.653 Y1378.989
G3 X50.6906 Y1378.9527 I2.1027 J2.1398
G1 X51.0121 Y1378.6475
G3 X51.0504 Y1378.6118 I2.0651 J2.1761
G1 X51.3772 Y1378.3123
G3 X51.4162 Y1378.2772 I2.0268 J2.2118
G1 X51.7483 Y1377.9835
G3 X51.7877 Y1377.9492 I1.9878 J2.2469
G1 X52.1248 Y1377.6613
G3 X52.165 Y1377.6276 I1.9484 J2.2812
G1 X52.5071 Y1377.3456
G3 X52.5477 Y1377.3127 I1.9082 J2.3149
G1 X52.8946 Y1377.0367
G3 X52.9359 Y1377.0044 I1.8675 J2.3478
G1 X53.2876 Y1376.7346
G3 X53.3293 Y1376.7032 I1.8263 J2.3801
G1 X53.6856 Y1376.4395
G3 X53.7281 Y1376.4086 I1.7846 J2.4115
G1 X54.089 Y1376.1512
G3 X54.132 Y1376.1211 I1.7421 J2.4423
G1 X54.4974 Y1375.87
G3 X54.5408 Y1375.8407 I1.6991 J2.4725
G1 X54.9105 Y1375.596
G3 X54.954 Y1375.5677 I1.6557 J2.5017
G1 X55.3278 Y1375.3296
G3 X55.3725 Y1375.3016 I1.6122 J2.53
G1 X55.7505 Y1375.07
G3 X55.7955 Y1375.043 I1.5675 J2.5579
G1 X56.1775 Y1374.818
G3 X56.2226 Y1374.792 I1.5225 J2.585
G1 X56.6084 Y1374.5737
G3 X56.6544 Y1374.5482 I1.4774 J2.611
G1 X57.044 Y1374.3366
G3 X57.0901 Y1374.3121 I1.4314 J2.6365
G1 X57.4833 Y1374.1074
G3 X57.5302 Y1374.0836 I1.3853 J2.661
G1 X57.927 Y1373.8857
G3 X57.9739 Y1373.8629 I1.3384 J2.6849
G1 X58.374 Y1373.672
G3 X58.4214 Y1373.6499 I1.2915 J2.7078
G1 X58.8248 Y1373.4661
G3 X58.8725 Y1373.4448 I1.2441 J2.7299
G1 X59.279 Y1373.268
G3 X59.3274 Y1373.2475 I1.1964 J2.7511
G1 X59.737 Y1373.0779
G3 X59.7855 Y1373.0582 I1.148 J2.7717
G1 X60.198 Y1372.8958
G3 X60.2469 Y1372.877 I1.0995 J2.7913
G1 X60.6621 Y1372.7218
G3 X60.7113 Y1372.7039 I1.0506 J2.81
G1 X61.1292 Y1372.5559
G3 X61.1787 Y1372.5388 I1.0014 J2.8279
G1 X61.5991 Y1372.3982
G3 X61.6489 Y1372.382 I0.9519 J2.845
G1 X62.0717 Y1372.2487
G3 X62.1217 Y1372.2334 I0.9021 J2.8611
G1 X62.5467 Y1372.1075
G3 X62.5971 Y1372.093 I0.8521 J2.8764
G1 X63.0243 Y1371.9746
G3 X63.0749 Y1371.961 I0.8017 J2.8909
G1 X63.5041 Y1371.85
G3 X63.5547 Y1371.8374 I0.7511 J2.9045
G1 X63.9857 Y1371.7339
G3 X64.0369 Y1371.7221 I0.7005 J2.9171
G1 X64.4697 Y1371.6261
G3 X64.521 Y1371.6152 I0.6493 J2.9289
G1 X64.9555 Y1371.5269
G3 X65.0067 Y1371.5169 I0.598 J2.9398
G1 X65.4425 Y1371.4361
G3 X65.4942 Y1371.427 I0.5468 J2.9498
G1 X65.9315 Y1371.3538
G3 X65.9831 Y1371.3457 I0.4951 J2.9589
G1 X66.4215 Y1371.2801
G3 X66.4734 Y1371.2728 I0.4435 J2.967
G1 X66.9129 Y1371.215
G3 X66.9649 Y1371.2086 I0.3916 J2.9743
G1 X67.4054 Y1371.1584
G3 X67.4575 Y1371.1529 I0.3396 J2.9807
G1 X67.8987 Y1371.1105
G3 X67.9508 Y1371.1059 I0.2875 J2.9862
G1 X68.3928 Y1371.0711
G3 X68.4451 Y1371.0675 I0.2354 J2.9907
G1 X68.8876 Y1371.0404
G3 X68.9398 Y1371.0377 I0.1831 J2.9944
G1 X69.3826 Y1371.0183
G3 X69.4349 Y1371.0165 I0.1309 J2.9971
G1 X69.8781 Y1371.0049
G3 X69.9306 Y1371.004 I0.0786 J2.999
G1 X70.3739 Y1371.0001
G3 X73.4 Y1374.0 I0.0261 J2.9999
G1 Y1390.05
G1 X72.5213 Y1390.9287
G1 X73.4 Y1390.05
G1 X86.45
G1 X87.3287 Y1390.9287
G1 X86.45 Y1390.05
G1 Y1374.0
G3 X89.45 Y1371.0 I3.0 J0.0
G1 X1016.55
G3 X1019.55 Y1374.0 I0.0 J3.0
G1 Y1390.05
G1 X1018.6713 Y1390.9287
G1 X1019.55 Y1390.05
G1 F300.0 Z-5.0
G1 F800.0 X1032.6
G1 X1033.4787 Y1390.9287
G1 X1032.6 Y1390.05
G1 Y1374.0
G3 X1035.6261 Y1371.0001 I3.0 J0.0
G1 X1036.0691 Y1371.004
G3 X1036.1216 Y1371.0049 I-0.0261 J2.9999
G1 X1036.5646 Y1371.0165
G3 X1036.6168 Y1371.0183 I-0.0786 J2.999
G1 X1037.0598 Y1371.0377
G3 X1037.1119 Y1371.0404 I-0.1308 J2.9971
G1 X1037.5549 Y1371.0674
G3 X1037.6074 Y1371.0711 I-0.1829 J2.9944
G1 X1038.0494 Y1371.1059
G3 X1038.1017 Y1371.1105 I-0.2354 J2.9907
G1 X1038.5427 Y1371.153
G3 X1038.595 Y1371.1585 I-0.2877 J2.9862
G1 X1039.035 Y1371.2086
G3 X1039.0861 Y1371.2149 I-0.34 J2.9807
G1 X1039.5261 Y1371.2728
G3 X1039.5789 Y1371.2802 I-0.3911 J2.9744
G1 X1040.0169 Y1371.3457
G3 X1040.0673 Y1371.3537 I-0.4439 J2.967
G1 X1040.5053 Y1371.4269
G3 X1040.5575 Y1371.4361 I-0.4943 J2.959
G1 X1040.9935 Y1371.5169
G3 X1041.0456 Y1371.527 I-0.5465 J2.9498
G1 X1041.4796 Y1371.6154
G3 X1041.53 Y1371.6261 I-0.5986 J2.9397
G1 X1041.963 Y1371.722
G3 X1042.0145 Y1371.7339 I-0.649 J2.929
G1 X1042.4455 Y1371.8374
G3 X1042.4964 Y1371.8501 I-0.7005 J2.9171
G1 X1042.9254 Y1371.9611
G3 X1042.976 Y1371.9747 I-0.7514 J2.9044
G1 X1043.403 Y1372.0931
G3 X1043.4531 Y1372.1075 I-0.802 J2.8908
G1 X1043.8781 Y1372.2334
G3 X1043.9277 Y1372.2486 I-0.8521 J2.8764
G1 X1044.3507 Y1372.3819
G3 X1044.4017 Y1372.3985 I-0.9017 J2.8613
G1 X1044.8217 Y1372.5391
G3 X1044.8702 Y1372.5558 I-0.9527 J2.8447
G1 X1045.2882 Y1372.7038
G3 X1045.3359 Y1372.7211 I-1.0012 J2.828
G1 X1045.7519 Y1372.8764
G3 X1045.8153 Y1372.9009 I-1.0489 J2.8107
G1 X1046.2223 Y1373.0633
G3 X1046.257 Y1373.0775 I-1.1123 J2.7862
G1 X1046.667 Y1373.2471
G3 X1046.7077 Y1373.2643 I-1.147 J2.7721
G1 X1047.1177 Y1373.4411
G3 X1047.1828 Y1373.4701 I-1.1877 J2.7549
G1 X1047.5828 Y1373.6539
G3 X1047.6218 Y1373.6722 I-1.2528 J2.7259
G1 X1048.0218 Y1373.863
G3 X1048.0598 Y1373.8815 I-1.2918 J2.7076
G1 X1048.4598 Y1374.0793
G3 X1048.5242 Y1374.1121 I-1.3298 J2.6891
G1 X1048.9142 Y1374.3168
G3 X1048.9503 Y1374.336 I-1.3942 J2.6563
G1 X1049.3403 Y1374.5475
G3 X1049.3753 Y1374.5668 I-1.4303 J2.6371
G1 X1049.7653 Y1374.7851
G3 X1049.8284 Y1374.8215 I-1.4653 J2.6178
G1 X1050.2084 Y1375.0465
G3 X1050.2414 Y1375.0663 I-1.5284 J2.5815
G1 X1050.6214 Y1375.2979
G3 X1050.6839 Y1375.3371 I-1.5614 J2.5616
G1 X1051.0539 Y1375.5753
G3 X1051.0848 Y1375.5954 I-1.6239 J2.5225
G1 X1051.4548 Y1375.8401
G3 X1051.4846 Y1375.8601 I-1.6548 J2.5023
G1 X1051.8546 Y1376.1112
G3 X1051.915 Y1376.1533 I-1.6846 J2.4823
G1 X1052.275 Y1376.4107
G3 X1052.3027 Y1376.4307 I-1.745 J2.4403
G1 X1052.6627 Y1376.6944
G3 X1052.7219 Y1376.7389 I-1.7727 J2.4202
G1 X1053.0719 Y1377.0087
G3 X1053.1306 Y1377.0552 I-1.8319 J2.3758
G1 X1053.4664 Y1377.3278
G1 X1053.8121 Y1377.6063
G3 X1053.9022 Y1377.6818 I-1.8821 J2.3362
G1 X1054.2268 Y1377.965
G1 X1054.5613 Y1378.254
G3 X1054.65 Y1378.3338 I-1.9613 J2.2701
G1 X1054.97 Y1378.6333
G3 X1054.9904 Y1378.6525 I-2.05 J2.1903
G1 X1055.3104 Y1378.9577
G3 X1055.3298 Y1378.9764 I-2.0704 J2.1711
G1 X1055.6498 Y1379.2871
G3 X1055.7022 Y1379.3393 I-2.0898 J2.1523
G1 X1056.0122 Y1379.6555
G3 X1056.0298 Y1379.6735 I-2.1422 J2.1002
G1 X1056.3398 Y1379.9951
G3 X1056.3901 Y1380.0486 I-2.1598 J2.0821
G1 X1056.6901 Y1380.3754
G3 X1056.7395 Y1380.4306 I-2.2101 J2.0287
G1 X1057.0295 Y1380.7626
G3 X1057.0442 Y1380.7796 I-2.2595 J1.9735
G1 X1057.3342 Y1381.1166
G3 X1057.3815 Y1381.173 I-2.2742 J1.9565
G1 X1057.6615 Y1381.515
G3 X1057.6745 Y1381.5311 I-2.3215 J1.9002
G1 X1057.9545 Y1381.8781
G3 X1057.9997 Y1381.9354 I-2.3345 J1.8841
G1 X1058.2697 Y1382.2871
G3 X1058.3134 Y1382.3455 I-2.3797 J1.8268
G1 X1058.5734 Y1382.7018
G3 X1058.5841 Y1382.7166 I-2.4234 J1.7684
G1 X1058.8441 Y1383.0775
G3 X1058.886 Y1383.1371 I-2.4341 J1.7536
G1 X1059.136 Y1383.5025
G3 X1059.1763 Y1383.563 I-2.476 J1.694
G1 X1059.4163 Y1383.9327
G3 X1059.4245 Y1383.9454 I-2.5163 J1.6335
G1 X1059.6645 Y1384.3192
G3 X1059.7029 Y1384.3806 I-2.5245 J1.6208
G1 X1059.9329 Y1384.7586
G3 X1059.9401 Y1384.7706 I-2.5629 J1.5594
G1 X1060.1701 Y1385.1526
G3 X1060.2061 Y1385.2139 I-2.5701 J1.5474
G1 X1060.4261 Y1385.5997
G3 X1060.4608 Y1385.6624 I-2.6061 J1.4861
G1 X1060.6708 Y1386.052
G3 X1060.704 Y1386.1153 I-2.6408 J1.4234
G1 X1060.904 Y1386.5085
G3 X1060.9089 Y1386.5183 I-2.674 J1.3601
G1 X1061.1089 Y1386.9151
G3 X1061.14 Y1386.9785 I-2.6789 J1.3503
G1 X1061.33 Y1387.3786
G3 X1061.3596 Y1387.4431 I-2.71 J1.2869
G1 X1061.5396 Y1387.8465
G3 X1061.5431 Y1387.8542 I-2.7396 J1.2224
G1 X1061.7231 Y1388.2607
G3 X1061.7508 Y1388.3254 I-2.7431 J1.2147
G1 X1061.9208 Y1388.735
G3 X1061.947 Y1388.8001 I-2.7708 J1.15
G1 X1062.107 Y1389.2126
G3 X1062.1093 Y1389.2188 I-2.797 J1.0849
G1 X1062.2693 Y1389.634
G3 X1062.2936 Y1389.6992 I-2.7993 J1.0787
G1 X1062.4436 Y1390.1171
G3 X1062.4663 Y1390.1827 I-2.8236 J1.0135
G1 X1062.6063 Y1390.6031
G3 X1062.6275 Y1390.6693 I-2.8463 J0.9479
G1 X1062.7575 Y1391.0921
G3 X1062.7588 Y1391.0963 I-2.8675 J0.8817
G1 X1062.8888 Y1391.5213
G3 X1062.9252 Y1391.6507 I-2.8688 J0.8775
G1 X1063.0275 Y1392.048
G1 X1063.1392 Y1392.4474
G3 X1063.1724 Y1392.5772 I-2.8892 J0.8078
G1 X1063.2724 Y1393.0082
G3 X1063.2872 Y1393.0754 I-2.9224 J0.678
G1 X1063.3772 Y1393.5082
G3 X1063.3776 Y1393.5105 I-2.9372 J0.6108
G1 X1063.4676 Y1393.945
G3 X1063.4807 Y1394.0118 I-2.9376 J0.6085
G1 X1063.5607 Y1394.4476
G3 X1063.561 Y1394.4494 I-2.9507 J0.5417
G1 X1063.641 Y1394.8867
G3 X1063.6623 Y1395.0198 I-2.951 J0.5399
G1 X1063.7223 Y1395.4582
G3 X1063.7224 Y1395.4592 I-2.9723 J0.4068
G1 X1063.7824 Y1395.8987
G3 X1063.7909 Y1395.9662 I-2.9724 J0.4058
G1 X1063.8409 Y1396.4067
G3 X1063.8477 Y1396.4741 I-2.9809 J0.3383
G1 X1063.8877 Y1396.9153
G1 X1063.8878 Y1396.9158
G1 X1063.9278 Y1397.3578
G3 X1063.9331 Y1397.4253 I-2.9878 J0.2704
G1 X1063.9631 Y1397.8678
G3 X1063.9692 Y1398.003 I-2.9931 J0.2029
G1 X1063.9785 Y1398.412
G1 X1063.997 Y1398.8215
G3 X1064.0 Y1398.9567 I-2.997 J0.1352
G1 Y1399.4
G1 Y1475.6
G1 Y1476.043
G3 X1063.9969 Y1476.1783 I-3.0 J0.0
G1 X1063.9785 Y1476.5875
G1 X1063.9692 Y1476.9967
G3 X1063.9631 Y1477.1317 I-2.9992 J-0.0677
G1 X1063.9331 Y1477.5747
