( Made using CamBam - http://www.cambam.co.uk )
( ParametricStandingDeskHutch_side 12/17/2015 4:50:00 PM )
( T6 : 6.0 )
G21 G90 G64 G40
G0 Z11.0
( T6 : 6.0 )
T6 M6
( Profile1 )
G17
M3 S1000
G0 X561.8 Y16.05
G0 Z1.0
G1 F300.0 Z-1.0
G1 F800.0 X682.8
G1 X683.6787 Y16.9287
G1 X682.8 Y16.05
G1 Y0.0
G3 X685.8 Y-3.0 I3.0 J0.0
G1 X711.2
G3 X714.2 Y0.0 I0.0 J3.0
G1 Y1.0
G3 X714.0723 Y1.8659 I-3.0 J0.0
G1 X507.1513 Y688.2659
G3 X506.7145 Y689.1517 I-2.8723 J-0.8659
G1 X506.4909 Y690.6451
G3 X506.4831 Y690.6949 I-2.9669 J-0.4441
G1 X506.1561 Y692.6539
G3 X506.1468 Y692.7068 I-2.9591 J-0.4939
G1 X505.7848 Y694.6598
G3 X505.7747 Y694.7112 I-2.9498 J-0.5468
G1 X505.3787 Y696.6572
G3 X505.3678 Y696.7085 I-2.9397 J-0.5982
G1 X504.9378 Y698.6475
G3 X504.926 Y698.6989 I-2.9288 J-0.6495
G1 X504.462 Y700.6299
G3 X504.4496 Y700.6797 I-2.917 J-0.7009
G1 X503.9526 Y702.6027
G3 X503.9387 Y702.6544 I-2.9046 J-0.7507
G1 X503.4077 Y704.5674
G3 X503.3936 Y704.6166 I-2.8907 J-0.8024
G1 X502.8296 Y706.5216
G3 X502.8142 Y706.5719 I-2.8766 J-0.8516
G1 X502.2172 Y708.4659
G3 X502.201 Y708.5159 I-2.8612 J-0.9019
G1 X501.571 Y710.3989
G3 X501.5539 Y710.4485 I-2.845 J-0.9519
G1 X500.8909 Y712.3205
G3 X500.8727 Y712.3704 I-2.8279 J-1.0015
G1 X500.1767 Y714.2304
G3 X500.1582 Y714.2786 I-2.8097 J-1.0514
G1 X499.4302 Y716.1266
G3 X499.4107 Y716.1749 I-2.7912 J-1.0996
G1 X498.6507 Y718.0099
G3 X498.6301 Y718.0585 I-2.7717 J-1.1479
G1 X497.8381 Y719.8795
G3 X497.8174 Y719.9259 I-2.7511 J-1.1965
G1 X496.9944 Y721.7339
G3 X496.9716 Y721.7829 I-2.7304 J-1.2429
G1 X496.1166 Y723.5749
G3 X496.0938 Y723.6216 I-2.7076 J-1.2919
G1 X495.2078 Y725.3986
G3 X495.1842 Y725.445 I-2.6848 J-1.3386
G1 X494.2672 Y727.207
G3 X494.2421 Y727.2541 I-2.6612 J-1.385
G1 X493.2941 Y728.9991
G3 X493.2692 Y729.044 I-2.6361 J-1.4321
G1 X492.2912 Y730.773
G3 X492.2648 Y730.8188 I-2.6112 J-1.477
G1 X491.2568 Y732.5298
G3 X491.23 Y732.5744 I-2.5848 J-1.5228
G1 X490.192 Y734.2684
G3 X490.1642 Y734.3128 I-2.558 J-1.5674
G1 X489.0972 Y735.9878
G3 X489.0687 Y736.0317 I-2.5302 J-1.6118
G1 X487.9727 Y737.6877
G3 X487.9429 Y737.7318 I-2.5017 J-1.6557
G1 X486.8179 Y739.3678
G3 X486.7886 Y739.4097 I-2.4719 J-1.6998
G1 X485.6356 Y741.0267
G3 X485.6051 Y741.0688 I-2.4426 J-1.7417
G1 X484.4241 Y742.6658
G3 X484.3917 Y742.7087 I-2.4121 J-1.7838
G1 X483.1827 Y744.2837
G3 X483.1508 Y744.3246 I-2.3797 J-1.8267
G1 X481.9138 Y745.8796
G3 X481.8808 Y745.9203 I-2.3478 J-1.8676
G1 X480.6178 Y747.4523
G3 X480.584 Y747.4926 I-2.3148 J-1.9083
G1 X479.294 Y749.0026
G3 X479.2602 Y749.0415 I-2.281 J-1.9486
G1 X477.9442 Y750.5295
G3 X477.9092 Y750.5684 I-2.2472 J-1.9875
G1 X476.5682 Y752.0324
G3 X476.5317 Y752.0715 I-2.2122 J-2.0264
G1 X475.1637 Y753.5125
G3 X475.1274 Y753.5501 I-2.1757 J-2.0655
G1 X473.7354 Y754.9661
G3 X473.6991 Y755.0024 I-2.1394 J-2.1031
G1 X472.2831 Y756.3944
G3 X472.2447 Y756.4315 I-2.1031 J-2.1394
G1 X470.8037 Y757.7985
G3 X470.7662 Y757.8335 I-2.0647 J-2.1765
G1 X469.3022 Y759.1755
G3 X469.2632 Y759.2106 I-2.0272 J-2.2115
G1 X467.7762 Y760.5266
G3 X467.7359 Y760.5616 I-1.9882 J-2.2466
G1 X466.2249 Y761.8516
G3 X466.1853 Y761.8848 I-1.9479 J-2.2816
G1 X464.6533 Y763.1478
G3 X464.6124 Y763.1809 I-1.9083 J-2.3148
G1 X463.0584 Y764.4169
G3 X463.017 Y764.4493 I-1.8674 J-2.3479
G1 X461.441 Y765.6583
G3 X461.4005 Y765.6888 I-1.826 J-2.3803
G1 X459.8045 Y766.8708
G3 X459.7607 Y766.9026 I-1.7855 J-2.4108
G1 X458.1437 Y768.0556
G3 X458.1011 Y768.0854 I-1.7417 J-2.4426
G1 X456.4641 Y769.2104
G3 X456.4207 Y769.2397 I-1.6991 J-2.4724
G1 X454.7647 Y770.3357
G3 X454.7208 Y770.3642 I-1.6557 J-2.5017
G1 X453.0458 Y771.4312
G3 X453.0021 Y771.4586 I-1.6118 J-2.5302
G1 X451.3091 Y772.4966
G3 X451.2631 Y772.5242 I-1.5681 J-2.5576
G1 X449.5511 Y773.5322
G3 X449.5067 Y773.5578 I-1.5221 J-2.5852
G1 X447.7787 Y774.5358
G3 X447.7313 Y774.5621 I-1.4777 J-2.6108
G1 X445.9853 Y775.5091
G3 X445.9406 Y775.5329 I-1.4303 J-2.6371
G1 X444.1796 Y776.4499
G3 X444.1332 Y776.4735 I-1.3856 J-2.6609
G1 X442.3552 Y777.3605
G3 X442.3079 Y777.3836 I-1.3392 J-2.6845
G1 X440.5159 Y778.2386
G3 X440.4675 Y778.2612 I-1.2919 J-2.7076
G1 X438.6605 Y779.0842
G3 X438.613 Y779.1053 I-1.2435 J-2.7302
G1 X436.791 Y779.8973
G3 X436.7435 Y779.9175 I-1.196 J-2.7513
G1 X434.9095 Y780.6775
G3 X434.8606 Y780.6972 I-1.1485 J-2.7715
G1 X433.0126 Y781.4252
G3 X432.9639 Y781.4439 I-1.0996 J-2.7912
G1 X431.1029 Y782.1399
G3 X431.0522 Y782.1584 I-1.0509 J-2.8099
G1 X429.1802 Y782.8204
G3 X429.1332 Y782.8365 I-1.0002 J-2.8284
G1 X427.2502 Y783.4675
G3 X427.1989 Y783.4842 I-0.9532 J-2.8445
G1 X425.3049 Y784.0812
G3 X425.2551 Y784.0965 I-0.9019 J-2.8612
G1 X423.3511 Y784.6605
G3 X423.301 Y784.6748 I-0.8521 J-2.8765
G1 X421.387 Y785.2058
G3 X421.3357 Y785.2196 I-0.802 J-2.8908
G1 X419.4127 Y785.7166
G3 X419.3629 Y785.729 I-0.7507 J-2.9046
G1 X417.4319 Y786.193
G3 X417.3791 Y786.2052 I-0.7009 J-2.917
G1 X415.4401 Y786.6342
G3 X415.3902 Y786.6447 I-0.6481 J-2.9292
G1 X413.4442 Y787.0407
G3 X413.3928 Y787.0508 I-0.5982 J-2.9397
G1 X411.4398 Y787.4128
G3 X411.3884 Y787.4218 I-0.5468 J-2.9498
G1 X409.4294 Y787.7498
G3 X409.3781 Y787.7579 I-0.4954 J-2.9588
G1 X407.4141 Y788.0519
G3 X407.3612 Y788.0594 I-0.4441 J-2.9669
G1 X405.3922 Y788.3184
G3 X405.3409 Y788.3247 I-0.3912 J-2.9744
G1 X403.3679 Y788.5497
G3 X403.315 Y788.5552 I-0.3399 J-2.9807
G1 X401.338 Y788.7452
G3 X401.2866 Y788.7497 I-0.287 J-2.9862
G1 X399.3066 Y788.9057
G3 X399.2538 Y788.9094 I-0.2356 J-2.9907
G1 X397.2718 Y789.0304
G3 X397.2204 Y789.0331 I-0.1828 J-2.9944
G1 X396.6326 Y789.0589
G3 X394.133 Y790.4 I-2.4996 J-1.6589
G1 X0.0
G3 X-3.0 Y787.4 I0.0 J-3.0
G1 Y0.0
G3 X0.0 Y-3.0 I3.0 J0.0
G1 X558.8
G3 X561.8 Y0.0 I0.0 J3.0
G1 Y16.05
G1 X560.9213 Y16.9287
G1 X561.8 Y16.05
G1 F300.0 Z-2.0
G1 F800.0 X682.8
G1 X683.6787 Y16.9287
G1 X682.8 Y16.05
G1 Y0.0
G3 X685.8 Y-3.0 I3.0 J0.0
G1 X711.2
G3 X714.2 Y0.0 I0.0 J3.0
G1 Y1.0
G3 X714.0723 Y1.8659 I-3.0 J0.0
G1 X507.1513 Y688.2659
G3 X506.7145 Y689.1517 I-2.8723 J-0.8659
G1 X506.4909 Y690.6451
G3 X506.4831 Y690.6949 I-2.9669 J-0.4441
G1 X506.1561 Y692.6539
G3 X506.1468 Y692.7068 I-2.9591 J-0.4939
G1 X505.7848 Y694.6598
G3 X505.7747 Y694.7112 I-2.9498 J-0.5468
G1 X505.3787 Y696.6572
G3 X505.3678 Y696.7085 I-2.9397 J-0.5982
G1 X504.9378 Y698.6475
G3 X504.926 Y698.6989 I-2.9288 J-0.6495
G1 X504.462 Y700.6299
G3 X504.4496 Y700.6797 I-2.917 J-0.7009
G1 X503.9526 Y702.6027
G3 X503.9387 Y702.6544 I-2.9046 J-0.7507
G1 X503.4077 Y704.5674
G3 X503.3936 Y704.6166 I-2.8907 J-0.8024
G1 X502.8296 Y706.5216
G3 X502.8142 Y706.5719 I-2.8766 J-0.8516
G1 X502.2172 Y708.4659
G3 X502.201 Y708.5159 I-2.8612 J-0.9019
G1 X501.571 Y710.3989
G3 X501.5539 Y710.4485 I-2.845 J-0.9519
G1 X500.8909 Y712.3205
G3 X500.8727 Y712.3704 I-2.8279 J-1.0015
G1 X500.1767 Y714.2304
G3 X500.1582 Y714.2786 I-2.8097 J-1.0514
G1 X499.4302 Y716.1266
G3 X499.4107 Y716.1749 I-2.7912 J-1.0996
G1 X498.6507 Y718.0099
G3 X498.6301 Y718.0585 I-2.7717 J-1.1479
G1 X497.8381 Y719.8795
G3 X497.8174 Y719.9259 I-2.7511 J-1.1965
G1 X496.9944 Y721.7339
G3 X496.9716 Y721.7829 I-2.7304 J-1.2429
G1 X496.1166 Y723.5749
G3 X496.0938 Y723.6216 I-2.7076 J-1.2919
G1 X495.2078 Y725.3986
G3 X495.1842 Y725.445 I-2.6848 J-1.3386
G1 X494.2672 Y727.207
G3 X494.2421 Y727.2541 I-2.6612 J-1.385
G1 X493.2941 Y728.9991
G3 X493.2692 Y729.044 I-2.6361 J-1.4321
G1 X492.2912 Y730.773
G3 X492.2648 Y730.8188 I-2.6112 J-1.477
G1 X491.2568 Y732.5298
G3 X491.23 Y732.5744 I-2.5848 J-1.5228
G1 X490.192 Y734.2684
G3 X490.1642 Y734.3128 I-2.558 J-1.5674
G1 X489.0972 Y735.9878
G3 X489.0687 Y736.0317 I-2.5302 J-1.6118
G1 X487.9727 Y737.6877
G3 X487.9429 Y737.7318 I-2.5017 J-1.6557
G1 X486.8179 Y739.3678
G3 X486.7886 Y739.4097 I-2.4719 J-1.6998
G1 X485.6356 Y741.0267
G3 X485.6051 Y741.0688 I-2.4426 J-1.7417
G1 X484.4241 Y742.6658
G3 X484.3917 Y742.7087 I-2.4121 J-1.7838
G1 X483.1827 Y744.2837
G3 X483.1508 Y744.3246 I-2.3797 J-1.8267
G1 X481.9138 Y745.8796
G3 X481.8808 Y745.9203 I-2.3478 J-1.8676
G1 X480.6178 Y747.4523
G3 X480.584 Y747.4926 I-2.3148 J-1.9083
G1 X479.294 Y749.0026
G3 X479.2602 Y749.0415 I-2.281 J-1.9486
G1 X477.9442 Y750.5295
G3 X477.9092 Y750.5684 I-2.2472 J-1.9875
G1 X476.5682 Y752.0324
G3 X476.5317 Y752.0715 I-2.2122 J-2.0264
G1 X475.1637 Y753.5125
G3 X475.1274 Y753.5501 I-2.1757 J-2.0655
G1 X473.7354 Y754.9661
G3 X473.6991 Y755.0024 I-2.1394 J-2.1031
G1 X472.2831 Y756.3944
G3 X472.2447 Y756.4315 I-2.1031 J-2.1394
G1 X470.8037 Y757.7985
G3 X470.7662 Y757.8335 I-2.0647 J-2.1765
G1 X469.3022 Y759.1755
G3 X469.2632 Y759.2106 I-2.0272 J-2.2115
G1 X467.7762 Y760.5266
G3 X467.7359 Y760.5616 I-1.9882 J-2.2466
G1 X466.2249 Y761.8516
G3 X466.1853 Y761.8848 I-1.9479 J-2.2816
G1 X464.6533 Y763.1478
G3 X464.6124 Y763.1809 I-1.9083 J-2.3148
G1 X463.0584 Y764.4169
G3 X463.017 Y764.4493 I-1.8674 J-2.3479
G1 X461.441 Y765.6583
G3 X461.4005 Y765.6888 I-1.826 J-2.3803
G1 X459.8045 Y766.8708
G3 X459.7607 Y766.9026 I-1.7855 J-2.4108
G1 X458.1437 Y768.0556
G3 X458.1011 Y768.0854 I-1.7417 J-2.4426
G1 X456.4641 Y769.2104
G3 X456.4207 Y769.2397 I-1.6991 J-2.4724
G1 X454.7647 Y770.3357
G3 X454.7208 Y770.3642 I-1.6557 J-2.5017
G1 X453.0458 Y771.4312
G3 X453.0021 Y771.4586 I-1.6118 J-2.5302
G1 X451.3091 Y772.4966
G3 X451.2631 Y772.5242 I-1.5681 J-2.5576
G1 X449.5511 Y773.5322
G3 X449.5067 Y773.5578 I-1.5221 J-2.5852
G1 X447.7787 Y774.5358
G3 X447.7313 Y774.5621 I-1.4777 J-2.6108
G1 X445.9853 Y775.5091
G3 X445.9406 Y775.5329 I-1.4303 J-2.6371
G1 X444.1796 Y776.4499
G3 X444.1332 Y776.4735 I-1.3856 J-2.6609
G1 X442.3552 Y777.3605
G3 X442.3079 Y777.3836 I-1.3392 J-2.6845
G1 X440.5159 Y778.2386
G3 X440.4675 Y778.2612 I-1.2919 J-2.7076
G1 X438.6605 Y779.0842
G3 X438.613 Y779.1053 I-1.2435 J-2.7302
G1 X436.791 Y779.8973
G3 X436.7435 Y779.9175 I-1.196 J-2.7513
G1 X434.9095 Y780.6775
G3 X434.8606 Y780.6972 I-1.1485 J-2.7715
G1 X433.0126 Y781.4252
G3 X432.9639 Y781.4439 I-1.0996 J-2.7912
G1 X431.1029 Y782.1399
G3 X431.0522 Y782.1584 I-1.0509 J-2.8099
G1 X429.1802 Y782.8204
G3 X429.1332 Y782.8365 I-1.0002 J-2.8284
G1 X427.2502 Y783.4675
G3 X427.1989 Y783.4842 I-0.9532 J-2.8445
G1 X425.3049 Y784.0812
G3 X425.2551 Y784.0965 I-0.9019 J-2.8612
G1 X423.3511 Y784.6605
G3 X423.301 Y784.6748 I-0.8521 J-2.8765
G1 X421.387 Y785.2058
G3 X421.3357 Y785.2196 I-0.802 J-2.8908
G1 X419.4127 Y785.7166
G3 X419.3629 Y785.729 I-0.7507 J-2.9046
G1 X417.4319 Y786.193
G3 X417.3791 Y786.2052 I-0.7009 J-2.917
G1 X415.4401 Y786.6342
G3 X415.3902 Y786.6447 I-0.6481 J-2.9292
G1 X413.4442 Y787.0407
G3 X413.3928 Y787.0508 I-0.5982 J-2.9397
G1 X411.4398 Y787.4128
G3 X411.3884 Y787.4218 I-0.5468 J-2.9498
G1 X409.4294 Y787.7498
G3 X409.3781 Y787.7579 I-0.4954 J-2.9588
G1 X407.4141 Y788.0519
G3 X407.3612 Y788.0594 I-0.4441 J-2.9669
G1 X405.3922 Y788.3184
G3 X405.3409 Y788.3247 I-0.3912 J-2.9744
G1 X403.3679 Y788.5497
G3 X403.315 Y788.5552 I-0.3399 J-2.9807
G1 X401.338 Y788.7452
G3 X401.2866 Y788.7497 I-0.287 J-2.9862
G1 X399.3066 Y788.9057
G3 X399.2538 Y788.9094 I-0.2356 J-2.9907
G1 X397.2718 Y789.0304
G3 X397.2204 Y789.0331 I-0.1828 J-2.9944
G1 X396.6326 Y789.0589
G3 X394.133 Y790.4 I-2.4996 J-1.6589
G1 X0.0
G3 X-3.0 Y787.4 I0.0 J-3.0
G1 Y0.0
G3 X0.0 Y-3.0 I3.0 J0.0
G1 X558.8
G3 X561.8 Y0.0 I0.0 J3.0
G1 Y16.05
G1 X560.9213 Y16.9287
G1 X561.8 Y16.05
G1 F300.0 Z-3.0
G1 F800.0 X682.8
G1 X683.6787 Y16.9287
G1 X682.8 Y16.05
G1 Y0.0
G3 X685.8 Y-3.0 I3.0 J0.0
G1 X711.2
G3 X714.2 Y0.0 I0.0 J3.0
G1 Y1.0
G3 X714.0723 Y1.8659 I-3.0 J0.0
G1 X507.1513 Y688.2659
G3 X506.7145 Y689.1517 I-2.8723 J-0.8659
G1 X506.4909 Y690.6451
G3 X506.4831 Y690.6949 I-2.9669 J-0.4441
G1 X506.1561 Y692.6539
G3 X506.1468 Y692.7068 I-2.9591 J-0.4939
G1 X505.7848 Y694.6598
G3 X505.7747 Y694.7112 I-2.9498 J-0.5468
G1 X505.3787 Y696.6572
G3 X505.3678 Y696.7085 I-2.9397 J-0.5982
G1 X504.9378 Y698.6475
G3 X504.926 Y698.6989 I-2.9288 J-0.6495
G1 X504.462 Y700.6299
G3 X504.4496 Y700.6797 I-2.917 J-0.7009
G1 X503.9526 Y702.6027
G3 X503.9387 Y702.6544 I-2.9046 J-0.7507
G1 X503.4077 Y704.5674
G3 X503.3936 Y704.6166 I-2.8907 J-0.8024
G1 X502.8296 Y706.5216
G3 X502.8142 Y706.5719 I-2.8766 J-0.8516
G1 X502.2172 Y708.4659
G3 X502.201 Y708.5159 I-2.8612 J-0.9019
G1 X501.571 Y710.3989
G3 X501.5539 Y710.4485 I-2.845 J-0.9519
G1 X500.8909 Y712.3205
G3 X500.8727 Y712.3704 I-2.8279 J-1.0015
G1 X500.1767 Y714.2304
G3 X500.1582 Y714.2786 I-2.8097 J-1.0514
G1 X499.4302 Y716.1266
G3 X499.4107 Y716.1749 I-2.7912 J-1.0996
G1 X498.6507 Y718.0099
G3 X498.6301 Y718.0585 I-2.7717 J-1.1479
G1 X497.8381 Y719.8795
G3 X497.8174 Y719.9259 I-2.7511 J-1.1965
G1 X496.9944 Y721.7339
G3 X496.9716 Y721.7829 I-2.7304 J-1.2429
G1 X496.1166 Y723.5749
G3 X496.0938 Y723.6216 I-2.7076 J-1.2919
G1 X495.2078 Y725.3986
G3 X495.1842 Y725.445 I-2.6848 J-1.3386
G1 X494.2672 Y727.207
G3 X494.2421 Y727.2541 I-2.6612 J-1.385
G1 X493.2941 Y728.9991
G3 X493.2692 Y729.044 I-2.6361 J-1.4321
G1 X492.2912 Y730.773
G3 X492.2648 Y730.8188 I-2.6112 J-1.477
G1 X491.2568 Y732.5298
G3 X491.23 Y732.5744 I-2.5848 J-1.5228
G1 X490.192 Y734.2684
G3 X490.1642 Y734.3128 I-2.558 J-1.5674
G1 X489.0972 Y735.9878
G3 X489.0687 Y736.0317 I-2.5302 J-1.6118
G1 X487.9727 Y737.6877
G3 X487.9429 Y737.7318 I-2.5017 J-1.6557
G1 X486.8179 Y739.3678
G3 X486.7886 Y739.4097 I-2.4719 J-1.6998
G1 X485.6356 Y741.0267
G3 X485.6051 Y741.0688 I-2.4426 J-1.7417
G1 X484.4241 Y742.6658
G3 X484.3917 Y742.7087 I-2.4121 J-1.7838
G1 X483.1827 Y744.2837
G3 X483.1508 Y744.3246 I-2.3797 J-1.8267
G1 X481.9138 Y745.8796
G3 X481.8808 Y745.9203 I-2.3478 J-1.8676
G1 X480.6178 Y747.4523
G3 X480.584 Y747.4926 I-2.3148 J-1.9083
G1 X479.294 Y749.0026
G3 X479.2602 Y749.0415 I-2.281 J-1.9486
G1 X477.9442 Y750.5295
G3 X477.9092 Y750.5684 I-2.2472 J-1.9875
G1 X476.5682 Y752.0324
G3 X476.5317 Y752.0715 I-2.2122 J-2.0264
G1 X475.1637 Y753.5125
G3 X475.1274 Y753.5501 I-2.1757 J-2.0655
G1 X473.7354 Y754.9661
G3 X473.6991 Y755.0024 I-2.1394 J-2.1031
G1 X472.2831 Y756.3944
G3 X472.2447 Y756.4315 I-2.1031 J-2.1394
G1 X470.8037 Y757.7985
G3 X470.7662 Y757.8335 I-2.0647 J-2.1765
G1 X469.3022 Y759.1755
G3 X469.2632 Y759.2106 I-2.0272 J-2.2115
G1 X467.7762 Y760.5266
G3 X467.7359 Y760.5616 I-1.9882 J-2.2466
G1 X466.2249 Y761.8516
G3 X466.1853 Y761.8848 I-1.9479 J-2.2816
G1 X464.6533 Y763.1478
G3 X464.6124 Y763.1809 I-1.9083 J-2.3148
G1 X463.0584 Y764.4169
G3 X463.017 Y764.4493 I-1.8674 J-2.3479
G1 X461.441 Y765.6583
G3 X461.4005 Y765.6888 I-1.826 J-2.3803
G1 X459.8045 Y766.8708
G3 X459.7607 Y766.9026 I-1.7855 J-2.4108
G1 X458.1437 Y768.0556
G3 X458.1011 Y768.0854 I-1.7417 J-2.4426
G1 X456.4641 Y769.2104
G3 X456.4207 Y769.2397 I-1.6991 J-2.4724
G1 X454.7647 Y770.3357
G3 X454.7208 Y770.3642 I-1.6557 J-2.5017
G1 X453.0458 Y771.4312
G3 X453.0021 Y771.4586 I-1.6118 J-2.5302
G1 X451.3091 Y772.4966
G3 X451.2631 Y772.5242 I-1.5681 J-2.5576
G1 X449.5511 Y773.5322
G3 X449.5067 Y773.5578 I-1.5221 J-2.5852
G1 X447.7787 Y774.5358
G3 X447.7313 Y774.5621 I-1.4777 J-2.6108
G1 X445.9853 Y775.5091
G3 X445.9406 Y775.5329 I-1.4303 J-2.6371
G1 X444.1796 Y776.4499
G3 X444.1332 Y776.4735 I-1.3856 J-2.6609
G1 X442.3552 Y777.3605
G3 X442.3079 Y777.3836 I-1.3392 J-2.6845
G1 X440.5159 Y778.2386
G3 X440.4675 Y778.2612 I-1.2919 J-2.7076
G1 X438.6605 Y779.0842
G3 X438.613 Y779.1053 I-1.2435 J-2.7302
G1 X436.791 Y779.8973
G3 X436.7435 Y779.9175 I-1.196 J-2.7513
G1 X434.9095 Y780.6775
G3 X434.8606 Y780.6972 I-1.1485 J-2.7715
G1 X433.0126 Y781.4252
G3 X432.9639 Y781.4439 I-1.0996 J-2.7912
G1 X431.1029 Y782.1399
G3 X431.0522 Y782.1584 I-1.0509 J-2.8099
G1 X429.1802 Y782.8204
G3 X429.1332 Y782.8365 I-1.0002 J-2.8284
G1 X427.2502 Y783.4675
G3 X427.1989 Y783.4842 I-0.9532 J-2.8445
G1 X425.3049 Y784.0812
G3 X425.2551 Y784.0965 I-0.9019 J-2.8612
G1 X423.3511 Y784.6605
G3 X423.301 Y784.6748 I-0.8521 J-2.8765
G1 X421.387 Y785.2058
G3 X421.3357 Y785.2196 I-0.802 J-2.8908
G1 X419.4127 Y785.7166
G3 X419.3629 Y785.729 I-0.7507 J-2.9046
G1 X417.4319 Y786.193
G3 X417.3791 Y786.2052 I-0.7009 J-2.917
G1 X415.4401 Y786.6342
G3 X415.3902 Y786.6447 I-0.6481 J-2.9292
G1 X413.4442 Y787.0407
G3 X413.3928 Y787.0508 I-0.5982 J-2.9397
G1 X411.4398 Y787.4128
G3 X411.3884 Y787.4218 I-0.5468 J-2.9498
G1 X409.4294 Y787.7498
G3 X409.3781 Y787.7579 I-0.4954 J-2.9588
G1 X407.4141 Y788.0519
G3 X407.3612 Y788.0594 I-0.4441 J-2.9669
G1 X405.3922 Y788.3184
G3 X405.3409 Y788.3247 I-0.3912 J-2.9744
G1 X403.3679 Y788.5497
G3 X403.315 Y788.5552 I-0.3399 J-2.9807
G1 X401.338 Y788.7452
G3 X401.2866 Y788.7497 I-0.287 J-2.9862
G1 X399.3066 Y788.9057
G3 X399.2538 Y788.9094 I-0.2356 J-2.9907
G1 X397.2718 Y789.0304
G3 X397.2204 Y789.0331 I-0.1828 J-2.9944
G1 X396.6326 Y789.0589
G3 X394.133 Y790.4 I-2.4996 J-1.6589
G1 X0.0
G3 X-3.0 Y787.4 I0.0 J-3.0
G1 Y0.0
G3 X0.0 Y-3.0 I3.0 J0.0
G1 X558.8
G3 X561.8 Y0.0 I0.0 J3.0
G1 Y16.05
G1 X560.9213 Y16.9287
G1 X561.8 Y16.05
G1 F300.0 Z-4.0
G1 F800.0 X682.8
G1 X683.6787 Y16.9287
G1 X682.8 Y16.05
G1 Y0.0
G3 X685.8 Y-3.0 I3.0 J0.0
G1 X711.2
G3 X714.2 Y0.0 I0.0 J3.0
G1 Y1.0
G3 X714.0723 Y1.8659 I-3.0 J0.0
G1 X507.1513 Y688.2659
G3 X506.7145 Y689.1517 I-2.8723 J-0.8659
G1 X506.4909 Y690.6451
G3 X506.4831 Y690.6949 I-2.9669 J-0.4441
G1 X506.1561 Y692.6539
G3 X506.1468 Y692.7068 I-2.9591 J-0.4939
G1 X505.7848 Y694.6598
G3 X505.7747 Y694.7112 I-2.9498 J-0.5468
G1 X505.3787 Y696.6572
G3 X505.3678 Y696.7085 I-2.9397 J-0.5982
G1 X504.9378 Y698.6475
G3 X504.926 Y698.6989 I-2.9288 J-0.6495
G1 X504.462 Y700.6299
G3 X504.4496 Y700.6797 I-2.917 J-0.7009
G1 X503.9526 Y702.6027
G3 X503.9387 Y702.6544 I-2.9046 J-0.7507
G1 X503.4077 Y704.5674
G3 X503.3936 Y704.6166 I-2.8907 J-0.8024
G1 X502.8296 Y706.5216
G3 X502.8142 Y706.5719 I-2.8766 J-0.8516
G1 X502.2172 Y708.4659
G3 X502.201 Y708.5159 I-2.8612 J-0.9019
G1 X501.571 Y710.3989
G3 X501.5539 Y710.4485 I-2.845 J-0.9519
G1 X500.8909 Y712.3205
G3 X500.8727 Y712.3704 I-2.8279 J-1.0015
G1 X500.1767 Y714.2304
G3 X500.1582 Y714.2786 I-2.8097 J-1.0514
G1 X499.4302 Y716.1266
G3 X499.4107 Y716.1749 I-2.7912 J-1.0996
G1 X498.6507 Y718.0099
G3 X498.6301 Y718.0585 I-2.7717 J-1.1479
G1 X497.8381 Y719.8795
G3 X497.8174 Y719.9259 I-2.7511 J-1.1965
G1 X496.9944 Y721.7339
G3 X496.9716 Y721.7829 I-2.7304 J-1.2429
G1 X496.1166 Y723.5749
G3 X496.0938 Y723.6216 I-2.7076 J-1.2919
G1 X495.2078 Y725.3986
G3 X495.1842 Y725.445 I-2.6848 J-1.3386
G1 X494.2672 Y727.207
G3 X494.2421 Y727.2541 I-2.6612 J-1.385
G1 X493.2941 Y728.9991
G3 X493.2692 Y729.044 I-2.6361 J-1.4321
G1 X492.2912 Y730.773
G3 X492.2648 Y730.8188 I-2.6112 J-1.477
G1 X491.2568 Y732.5298
G3 X491.23 Y732.5744 I-2.5848 J-1.5228
G1 X490.192 Y734.2684
G3 X490.1642 Y734.3128 I-2.558 J-1.5674
G1 X489.0972 Y735.9878
G3 X489.0687 Y736.0317 I-2.5302 J-1.6118
G1 X487.9727 Y737.6877
G3 X487.9429 Y737.7318 I-2.5017 J-1.6557
G1 X486.8179 Y739.3678
G3 X486.7886 Y739.4097 I-2.4719 J-1.6998
G1 X485.6356 Y741.0267
G3 X485.6051 Y741.0688 I-2.4426 J-1.7417
G1 X484.4241 Y742.6658
G3 X484.3917 Y742.7087 I-2.4121 J-1.7838
G1 X483.1827 Y744.2837
G3 X483.1508 Y744.3246 I-2.3797 J-1.8267
G1 X481.9138 Y745.8796
G3 X481.8808 Y745.9203 I-2.3478 J-1.8676
G1 X480.6178 Y747.4523
G3 X480.584 Y747.4926 I-2.3148 J-1.9083
G1 X479.294 Y749.0026
G3 X479.2602 Y749.0415 I-2.281 J-1.9486
G1 X477.9442 Y750.5295
G3 X477.9092 Y750.5684 I-2.2472 J-1.9875
G1 X476.5682 Y752.0324
G3 X476.5317 Y752.0715 I-2.2122 J-2.0264
G1 X475.1637 Y753.5125
G3 X475.1274 Y753.5501 I-2.1757 J-2.0655
G1 X473.7354 Y754.9661
G3 X473.6991 Y755.0024 I-2.1394 J-2.1031
G1 X472.2831 Y756.3944
G3 X472.2447 Y756.4315 I-2.1031 J-2.1394
G1 X470.8037 Y757.7985
G3 X470.7662 Y757.8335 I-2.0647 J-2.1765
G1 X469.3022 Y759.1755
G3 X469.2632 Y759.2106 I-2.0272 J-2.2115
G1 X467.7762 Y760.5266
G3 X467.7359 Y760.5616 I-1.9882 J-2.2466
G1 X466.2249 Y761.8516
G3 X466.1853 Y761.8848 I-1.9479 J-2.2816
G1 X464.6533 Y763.1478
G3 X464.6124 Y763.1809 I-1.9083 J-2.3148
G1 X463.0584 Y764.4169
G3 X463.017 Y764.4493 I-1.8674 J-2.3479
G1 X461.441 Y765.6583
G3 X461.4005 Y765.6888 I-1.826 J-2.3803
G1 X459.8045 Y766.8708
G3 X459.7607 Y766.9026 I-1.7855 J-2.4108
G1 X458.1437 Y768.0556
G3 X458.1011 Y768.0854 I-1.7417 J-2.4426
G1 X456.4641 Y769.2104
G3 X456.4207 Y769.2397 I-1.6991 J-2.4724
G1 X454.7647 Y770.3357
G3 X454.7208 Y770.3642 I-1.6557 J-2.5017
G1 X453.0458 Y771.4312
G3 X453.0021 Y771.4586 I-1.6118 J-2.5302
G1 X451.3091 Y772.4966
G3 X451.2631 Y772.5242 I-1.5681 J-2.5576
G1 X449.5511 Y773.5322
G3 X449.5067 Y773.5578 I-1.5221 J-2.5852
G1 X447.7787 Y774.5358
G3 X447.7313 Y774.5621 I-1.4777 J-2.6108
G1 X445.9853 Y775.5091
G3 X445.9406 Y775.5329 I-1.4303 J-2.6371
G1 X444.1796 Y776.4499
G3 X444.1332 Y776.4735 I-1.3856 J-2.6609
G1 X442.3552 Y777.3605
G3 X442.3079 Y777.3836 I-1.3392 J-2.6845
G1 X440.5159 Y778.2386
G3 X440.4675 Y778.2612 I-1.2919 J-2.7076
G1 X438.6605 Y779.0842
G3 X438.613 Y779.1053 I-1.2435 J-2.7302
G1 X436.791 Y779.8973
G3 X436.7435 Y779.9175 I-1.196 J-2.7513
G1 X434.9095 Y780.6775
G3 X434.8606 Y780.6972 I-1.1485 J-2.7715
G1 X433.0126 Y781.4252
G3 X432.9639 Y781.4439 I-1.0996 J-2.7912
G1 X431.1029 Y782.1399
G3 X431.0522 Y782.1584 I-1.0509 J-2.8099
G1 X429.1802 Y782.8204
G3 X429.1332 Y782.8365 I-1.0002 J-2.8284
G1 X427.2502 Y783.4675
G3 X427.1989 Y783.4842 I-0.9532 J-2.8445
G1 X425.3049 Y784.0812
G3 X425.2551 Y784.0965 I-0.9019 J-2.8612
G1 X423.3511 Y784.6605
G3 X423.301 Y784.6748 I-0.8521 J-2.8765
G1 X421.387 Y785.2058
G3 X421.3357 Y785.2196 I-0.802 J-2.8908
G1 X419.4127 Y785.7166
G3 X419.3629 Y785.729 I-0.7507 J-2.9046
G1 X417.4319 Y786.193
G3 X417.3791 Y786.2052 I-0.7009 J-2.917
G1 X415.4401 Y786.6342
G3 X415.3902 Y786.6447 I-0.6481 J-2.9292
G1 X413.4442 Y787.0407
G3 X413.3928 Y787.0508 I-0.5982 J-2.9397
G1 X411.4398 Y787.4128
G3 X411.3884 Y787.4218 I-0.5468 J-2.9498
G1 X409.4294 Y787.7498
G3 X409.3781 Y787.7579 I-0.4954 J-2.9588
G1 X407.4141 Y788.0519
G3 X407.3612 Y788.0594 I-0.4441 J-2.9669
G1 X405.3922 Y788.3184
G3 X405.3409 Y788.3247 I-0.3912 J-2.9744
G1 X403.3679 Y788.5497
G3 X403.315 Y788.5552 I-0.3399 J-2.9807
G1 X401.338 Y788.7452
G3 X401.2866 Y788.7497 I-0.287 J-2.9862
G1 X399.3066 Y788.9057
G3 X399.2538 Y788.9094 I-0.2356 J-2.9907
G1 X397.2718 Y789.0304
G3 X397.2204 Y789.0331 I-0.1828 J-2.9944
G1 X396.6326 Y789.0589
G3 X394.133 Y790.4 I-2.4996 J-1.6589
G1 X0.0
G3 X-3.0 Y787.4 I0.0 J-3.0
G1 Y0.0
G3 X0.0 Y-3.0 I3.0 J0.0
G1 X558.8
G3 X561.8 Y0.0 I0.0 J3.0
G1 Y16.05
G1 X560.9213 Y16.9287
G1 X561.8 Y16.05
G1 F300.0 Z-5.0
G1 F800.0 X682.8
G1 X683.6787 Y16.9287
G1 X682.8 Y16.05
G1 Y0.0
G3 X685.8 Y-3.0 I3.0 J0.0
G1 X711.2
G3 X714.2 Y0.0 I0.0 J3.0
G1 Y1.0
G3 X714.0723 Y1.8659 I-3.0 J0.0
G1 X507.1513 Y688.2659
G3 X506.7145 Y689.1517 I-2.8723 J-0.8659
G1 X506.4909 Y690.6451
G3 X506.4831 Y690.6949 I-2.9669 J-0.4441
G1 X506.1561 Y692.6539
G3 X506.1468 Y692.7068 I-2.9591 J-0.4939
G1 X505.7848 Y694.6598
G3 X505.7747 Y694.7112 I-2.9498 J-0.5468
G1 X505.3787 Y696.6572
G3 X505.3678 Y696.7085 I-2.9397 J-0.5982
G1 X504.9378 Y698.6475
G3 X504.926 Y698.6989 I-2.9288 J-0.6495
G1 X504.462 Y700.6299
G3 X504.4496 Y700.6797 I-2.917 J-0.7009
G1 X503.9526 Y702.6027
G3 X503.9387 Y702.6544 I-2.9046 J-0.7507
G1 X503.4077 Y704.5674
G3 X503.3936 Y704.6166 I-2.8907 J-0.8024
G1 X502.8296 Y706.5216
G3 X502.8142 Y706.5719 I-2.8766 J-0.8516
G1 X502.2172 Y708.4659
G3 X502.201 Y708.5159 I-2.8612 J-0.9019
G1 X501.571 Y710.3989
G3 X501.5539 Y710.4485 I-2.845 J-0.9519
G1 X500.8909 Y712.3205
G3 X500.8727 Y712.3704 I-2.8279 J-1.0015
G1 X500.1767 Y714.2304
G3 X500.1582 Y714.2786 I-2.8097 J-1.0514
G1 X499.4302 Y716.1266
G3 X499.4107 Y716.1749 I-2.7912 J-1.0996
G1 X498.6507 Y718.0099
G3 X498.6301 Y718.0585 I-2.7717 J-1.1479
G1 X497.8381 Y719.8795
G3 X497.8174 Y719.9259 I-2.7511 J-1.1965
G1 X496.9944 Y721.7339
G3 X496.9716 Y721.7829 I-2.7304 J-1.2429
G1 X496.1166 Y723.5749
G3 X496.0938 Y723.6216 I-2.7076 J-1.2919
G1 X495.2078 Y725.3986
G3 X495.1842 Y725.445 I-2.6848 J-1.3386
G1 X494.2672 Y727.207
G3 X494.2421 Y727.2541 I-2.6612 J-1.385
G1 X493.2941 Y728.9991
G3 X493.2692 Y729.044 I-2.6361 J-1.4321
G1 X492.2912 Y730.773
G3 X492.2648 Y730.8188 I-2.6112 J-1.477
G1 X491.2568 Y732.5298
G3 X491.23 Y732.5744 I-2.5848 J-1.5228
G1 X490.192 Y734.2684
G3 X490.1642 Y734.3128 I-2.558 J-1.5674
G1 X489.0972 Y735.9878
G3 X489.0687 Y736.0317 I-2.5302 J-1.6118
G1 X487.9727 Y737.6877
G3 X487.9429 Y737.7318 I-2.5017 J-1.6557
G1 X486.8179 Y739.3678
G3 X486.7886 Y739.4097 I-2.4719 J-1.6998
G1 X485.6356 Y741.0267
G3 X485.6051 Y741.0688 I-2.4426 J-1.7417
G1 X484.4241 Y742.6658
G3 X484.3917 Y742.7087 I-2.4121 J-1.7838
G1 X483.1827 Y744.2837
G3 X483.1508 Y744.3246 I-2.3797 J-1.8267
G1 X481.9138 Y745.8796
G3 X481.8808 Y745.9203 I-2.3478 J-1.8676
G1 X480.6178 Y747.4523
G3 X480.584 Y747.4926 I-2.3148 J-1.9083
G1 X479.294 Y749.0026
G3 X479.2602 Y749.0415 I-2.281 J-1.9486
G1 X477.9442 Y750.5295
G3 X477.9092 Y750.5684 I-2.2472 J-1.9875
G1 X476.5682 Y752.0324
G3 X476.5317 Y752.0715 I-2.2122 J-2.0264
G1 X475.1637 Y753.5125
G3 X475.1274 Y753.5501 I-2.1757 J-2.0655
G1 X473.7354 Y754.9661
G3 X473.6991 Y755.0024 I-2.1394 J-2.1031
G1 X472.2831 Y756.3944
G3 X472.2447 Y756.4315 I-2.1031 J-2.1394
G1 X470.8037 Y757.7985
G3 X470.7662 Y757.8335 I-2.0647 J-2.1765
G1 X469.3022 Y759.1755
G3 X469.2632 Y759.2106 I-2.0272 J-2.2115
G1 X467.7762 Y760.5266
G3 X467.7359 Y760.5616 I-1.9882 J-2.2466
G1 X466.2249 Y761.8516
G3 X466.1853 Y761.8848 I-1.9479 J-2.2816
G1 X464.6533 Y763.1478
G3 X464.6124 Y763.1809 I-1.9083 J-2.3148
G1 X463.0584 Y764.4169
G3 X463.017 Y764.4493 I-1.8674 J-2.3479
G1 X461.441 Y765.6583
G3 X461.4005 Y765.6888 I-1.826 J-2.3803
G1 X459.8045 Y766.8708
G3 X459.7607 Y766.9026 I-1.7855 J-2.4108
G1 X458.1437 Y768.0556
G3 X458.1011 Y768.0854 I-1.7417 J-2.4426
G1 X456.4641 Y769.2104
G3 X456.4207 Y769.2397 I-1.6991 J-2.4724
G1 X454.7647 Y770.3357
G3 X454.7208 Y770.3642 I-1.6557 J-2.5017
G1 X453.0458 Y771.4312
G3 X453.0021 Y771.4586 I-1.6118 J-2.5302
G1 X451.3091 Y772.4966
G3 X451.2631 Y772.5242 I-1.5681 J-2.5576
G1 X449.5511 Y773.5322
G3 X449.5067 Y773.5578 I-1.5221 J-2.5852
G1 X447.7787 Y774.5358
G3 X447.7313 Y774.5621 I-1.4777 J-2.6108
G1 X445.9853 Y775.5091
G3 X445.9406 Y775.5329 I-1.4303 J-2.6371
G1 X444.1796 Y776.4499
G3 X444.1332 Y776.4735 I-1.3856 J-2.6609
G1 X442.3552 Y777.3605
G3 X442.3079 Y777.3836 I-1.3392 J-2.6845
G1 X440.5159 Y778.2386
G3 X440.4675 Y778.2612 I-1.2919 J-2.7076
G1 X438.6605 Y779.0842
G3 X438.613 Y779.1053 I-1.2435 J-2.7302
G1 X436.791 Y779.8973
G3 X436.7435 Y779.9175 I-1.196 J-2.7513
G1 X434.9095 Y780.6775
G3 X434.8606 Y780.6972 I-1.1485 J-2.7715
G1 X433.0126 Y781.4252
G3 X432.9639 Y781.4439 I-1.0996 J-2.7912
G1 X431.1029 Y782.1399
G3 X431.0522 Y782.1584 I-1.0509 J-2.8099
G1 X429.1802 Y782.8204
G3 X429.1332 Y782.8365 I-1.0002 J-2.8284
G1 X427.2502 Y783.4675
G3 X427.1989 Y783.4842 I-0.9532 J-2.8445
G1 X425.3049 Y784.0812
G3 X425.2551 Y784.0965 I-0.9019 J-2.8612
G1 X423.3511 Y784.6605
G3 X423.301 Y784.6748 I-0.8521 J-2.8765
G1 X421.387 Y785.2058
G3 X421.3357 Y785.2196 I-0.802 J-2.8908
G1 X419.4127 Y785.7166
G3 X419.3629 Y785.729 I-0.7507 J-2.9046
G1 X417.4319 Y786.193
G3 X417.3791 Y786.2052 I-0.7009 J-2.917
G1 X415.4401 Y786.6342
G3 X415.3902 Y786.6447 I-0.6481 J-2.9292
G1 X413.4442 Y787.0407
G3 X413.3928 Y787.0508 I-0.5982 J-2.9397
G1 X411.4398 Y787.4128
G3 X411.3884 Y787.4218 I-0.5468 J-2.9498
G1 X409.4294 Y787.7498
G3 X409.3781 Y787.7579 I-0.4954 J-2.9588
G1 X407.4141 Y788.0519
G3 X407.3612 Y788.0594 I-0.4441 J-2.9669
G1 X405.3922 Y788.3184
G3 X405.3409 Y788.3247 I-0.3912 J-2.9744
G1 X403.3679 Y788.5497
G3 X403.315 Y788.5552 I-0.3399 J-2.9807
G1 X401.338 Y788.7452
G3 X401.2866 Y788.7497 I-0.287 J-2.9862
G1 X399.3066 Y788.9057
G3 X399.2538 Y788.9094 I-0.2356 J-2.9907
G1 X397.2718 Y789.0304
G3 X397.2204 Y789.0331 I-0.1828 J-2.9944
G1 X396.6326 Y789.0589
G3 X394.133 Y790.4 I-2.4996 J-1.6589
G1 X0.0
G3 X-3.0 Y787.4 I0.0 J-3.0
G1 Y0.0
G3 X0.0 Y-3.0 I3.0 J0.0
G1 X558.8
G3 X561.8 Y0.0 I0.0 J3.0
G1 Y16.05
G1 X560.9213 Y16.9287
G1 X561.8 Y16.05
G1 F300.0 Z-6.0
G1 F800.0 X682.8
G1 X683.6787 Y16.9287
G1 X682.8 Y16.05
G1 Y0.0
G3 X685.8 Y-3.0 I3.0 J0.0
G1 X711.2
G3 X714.2 Y0.0 I0.0 J3.0
G1 Y1.0
G3 X714.0723 Y1.8659 I-3.0 J0.0
G1 X507.1513 Y688.2659
G3 X506.7145 Y689.1517 I-2.8723 J-0.8659
G1 X506.4909 Y690.6451
G3 X506.4831 Y690.6949 I-2.9669 J-0.4441
G1 X506.1561 Y692.6539
G3 X506.1468 Y692.7068 I-2.9591 J-0.4939
G1 X505.7848 Y694.6598
G3 X505.7747 Y694.7112 I-2.9498 J-0.5468
G1 X505.3787 Y696.6572
G3 X505.3678 Y696.7085 I-2.9397 J-0.5982
G1 X504.9378 Y698.6475
G3 X504.926 Y698.6989 I-2.9288 J-0.6495
G1 X504.462 Y700.6299
G3 X504.4496 Y700.6797 I-2.917 J-0.7009
G1 X503.9526 Y702.6027
G3 X503.9387 Y702.6544 I-2.9046 J-0.7507
G1 X503.4077 Y704.5674
G3 X503.3936 Y704.6166 I-2.8907 J-0.8024
G1 X502.8296 Y706.5216
G3 X502.8142 Y706.5719 I-2.8766 J-0.8516
G1 X502.2172 Y708.4659
G3 X502.201 Y708.5159 I-2.8612 J-0.9019
G1 X501.571 Y710.3989
G3 X501.5539 Y710.4485 I-2.845 J-0.9519
G1 X500.8909 Y712.3205
G3 X500.8727 Y712.3704 I-2.8279 J-1.0015
G1 X500.1767 Y714.2304
G3 X500.1582 Y714.2786 I-2.8097 J-1.0514
G1 X499.4302 Y716.1266
G3 X499.4107 Y716.1749 I-2.7912 J-1.0996
G1 X498.6507 Y718.0099
G3 X498.6301 Y718.0585 I-2.7717 J-1.1479
G1 X497.8381 Y719.8795
G3 X497.8174 Y719.9259 I-2.7511 J-1.1965
G1 X496.9944 Y721.7339
G3 X496.9716 Y721.7829 I-2.7304 J-1.2429
G1 X496.1166 Y723.5749
G3 X496.0938 Y723.6216 I-2.7076 J-1.2919
G1 X495.2078 Y725.3986
G3 X495.1842 Y725.445 I-2.6848 J-1.3386
G1 X494.2672 Y727.207
G3 X494.2421 Y727.2541 I-2.6612 J-1.385
G1 X493.2941 Y728.9991
G3 X493.2692 Y729.044 I-2.6361 J-1.4321
G1 X492.2912 Y730.773
G3 X492.2648 Y730.8188 I-2.6112 J-1.477
G1 X491.2568 Y732.5298
G3 X491.23 Y732.5744 I-2.5848 J-1.5228
G1 X490.192 Y734.2684
G3 X490.1642 Y734.3128 I-2.558 J-1.5674
G1 X489.0972 Y735.9878
G3 X489.0687 Y736.0317 I-2.5302 J-1.6118
G1 X487.9727 Y737.6877
G3 X487.9429 Y737.7318 I-2.5017 J-1.6557
G1 X486.8179 Y739.3678
G3 X486.7886 Y739.4097 I-2.4719 J-1.6998
G1 X485.6356 Y741.0267
G3 X485.6051 Y741.0688 I-2.4426 J-1.7417
G1 X484.4241 Y742.6658
G3 X484.3917 Y742.7087 I-2.4121 J-1.7838
G1 X483.1827 Y744.2837
G3 X483.1508 Y744.3246 I-2.3797 J-1.8267
G1 X481.9138 Y745.8796
G3 X481.8808 Y745.9203 I-2.3478 J-1.8676
G1 X480.6178 Y747.4523
G3 X480.584 Y747.4926 I-2.3148 J-1.9083
G1 X479.294 Y749.0026
G3 X479.2602 Y749.0415 I-2.281 J-1.9486
G1 X477.9442 Y750.5295
G3 X477.9092 Y750.5684 I-2.2472 J-1.9875
G1 X476.5682 Y752.0324
G3 X476.5317 Y752.0715 I-2.2122 J-2.0264
G1 X475.1637 Y753.5125
G3 X475.1274 Y753.5501 I-2.1757 J-2.0655
G1 X473.7354 Y754.9661
G3 X473.6991 Y755.0024 I-2.1394 J-2.1031
G1 X472.2831 Y756.3944
G3 X472.2447 Y756.4315 I-2.1031 J-2.1394
G1 X470.8037 Y757.7985
G3 X470.7662 Y757.8335 I-2.0647 J-2.1765
G1 X469.3022 Y759.1755
G3 X469.2632 Y759.2106 I-2.0272 J-2.2115
G1 X467.7762 Y760.5266
G3 X467.7359 Y760.5616 I-1.9882 J-2.2466
G1 X466.2249 Y761.8516
G3 X466.1853 Y761.8848 I-1.9479 J-2.2816
G1 X464.6533 Y763.1478
G3 X464.6124 Y763.1809 I-1.9083 J-2.3148
G1 X463.0584 Y764.4169
G3 X463.017 Y764.4493 I-1.8674 J-2.3479
G1 X461.441 Y765.6583
G3 X461.4005 Y765.6888 I-1.826 J-2.3803
G1 X459.8045 Y766.8708
G3 X459.7607 Y766.9026 I-1.7855 J-2.4108
G1 X458.1437 Y768.0556
G3 X458.1011 Y768.0854 I-1.7417 J-2.4426
G1 X456.4641 Y769.2104
G3 X456.4207 Y769.2397 I-1.6991 J-2.4724
G1 X454.7647 Y770.3357
G3 X454.7208 Y770.3642 I-1.6557 J-2.5017
G1 X453.0458 Y771.4312
G3 X453.0021 Y771.4586 I-1.6118 J-2.5302
G1 X451.3091 Y772.4966
G3 X451.2631 Y772.5242 I-1.5681 J-2.5576
G1 X449.5511 Y773.5322
G3 X449.5067 Y773.5578 I-1.5221 J-2.5852
G1 X447.7787 Y774.5358
G3 X447.7313 Y774.5621 I-1.4777 J-2.6108
G1 X445.9853 Y775.5091
G3 X445.9406 Y775.5329 I-1.4303 J-2.6371
G1 X444.1796 Y776.4499
G3 X444.1332 Y776.4735 I-1.3856 J-2.6609
G1 X442.3552 Y777.3605
G3 X442.3079 Y777.3836 I-1.3392 J-2.6845
G1 X440.5159 Y778.2386
G3 X440.4675 Y778.2612 I-1.2919 J-2.7076
G1 X438.6605 Y779.0842
G3 X438.613 Y779.1053 I-1.2435 J-2.7302
G1 X436.791 Y779.8973
G3 X436.7435 Y779.9175 I-1.196 J-2.7513
G1 X434.9095 Y780.6775
G3 X434.8606 Y780.6972 I-1.1485 J-2.7715
G1 X433.0126 Y781.4252
G3 X432.9639 Y781.4439 I-1.0996 J-2.7912
G1 X431.1029 Y782.1399
G3 X431.0522 Y782.1584 I-1.0509 J-2.8099
G1 X429.1802 Y782.8204
G3 X429.1332 Y782.8365 I-1.0002 J-2.8284
G1 X427.2502 Y783.4675
G3 X427.1989 Y783.4842 I-0.9532 J-2.8445
G1 X425.3049 Y784.0812
G3 X425.2551 Y784.0965 I-0.9019 J-2.8612
G1 X423.3511 Y784.6605
G3 X423.301 Y784.6748 I-0.8521 J-2.8765
G1 X421.387 Y785.2058
G3 X421.3357 Y785.2196 I-0.802 J-2.8908
G1 X419.4127 Y785.7166
G3 X419.3629 Y785.729 I-0.7507 J-2.9046
G1 X417.4319 Y786.193
G3 X417.3791 Y786.2052 I-0.7009 J-2.917
G1 X415.4401 Y786.6342
G3 X415.3902 Y786.6447 I-0.6481 J-2.9292
G1 X413.4442 Y787.0407
G3 X413.3928 Y787.0508 I-0.5982 J-2.9397
G1 X411.4398 Y787.4128
G3 X411.3884 Y787.4218 I-0.5468 J-2.9498
G1 X409.4294 Y787.7498
G3 X409.3781 Y787.7579 I-0.4954 J-2.9588
G1 X407.4141 Y788.0519
G3 X407.3612 Y788.0594 I-0.4441 J-2.9669
G1 X405.3922 Y788.3184
G3 X405.3409 Y788.3247 I-0.3912 J-2.9744
G1 X403.3679 Y788.5497
G3 X403.315 Y788.5552 I-0.3399 J-2.9807
G1 X401.338 Y788.7452
G3 X401.2866 Y788.7497 I-0.287 J-2.9862
G1 X399.3066 Y788.9057
G3 X399.2538 Y788.9094 I-0.2356 J-2.9907
G1 X397.2718 Y789.0304
G3 X397.2204 Y789.0331 I-0.1828 J-2.9944
G1 X396.6326 Y789.0589
G3 X394.133 Y790.4 I-2.4996 J-1.6589
G1 X0.0
G3 X-3.0 Y787.4 I0.0 J-3.0
G1 Y0.0
G3 X0.0 Y-3.0 I3.0 J0.0
G1 X558.8
G3 X561.8 Y0.0 I0.0 J3.0
G1 Y16.05
G1 X560.9213 Y16.9287
G1 X561.8 Y16.05
G1 F300.0 Z-7.0
G1 F800.0 X682.8
G1 X683.6787 Y16.9287
G1 X682.8 Y16.05
G1 Y0.0
G3 X685.8 Y-3.0 I3.0 J0.0
G1 X711.2
G3 X714.2 Y0.0 I0.0 J3.0
G1 Y1.0
G3 X714.0723 Y1.8659 I-3.0 J0.0
G1 X507.1513 Y688.2659
G3 X506.7145 Y689.1517 I-2.8723 J-0.8659
G1 X506.4909 Y690.6451
G3 X506.4831 Y690.6949 I-2.9669 J-0.4441
G1 X506.1561 Y692.6539
G3 X506.1468 Y692.7068 I-2.9591 J-0.4939
G1 X505.7848 Y694.6598
G3 X505.7747 Y694.7112 I-2.9498 J-0.5468
G1 X505.3787 Y696.6572
G3 X505.3678 Y696.7085 I-2.9397 J-0.5982
G1 X504.9378 Y698.6475
G3 X504.926 Y698.6989 I-2.9288 J-0.6495
G1 X504.462 Y700.6299
G3 X504.4496 Y700.6797 I-2.917 J-0.7009
G1 X503.9526 Y702.6027
G3 X503.9387 Y702.6544 I-2.9046 J-0.7507
G1 X503.4077 Y704.5674
G3 X503.3936 Y704.6166 I-2.8907 J-0.8024
G1 X502.8296 Y706.5216
G3 X502.8142 Y706.5719 I-2.8766 J-0.8516
G1 X502.2172 Y708.4659
G3 X502.201 Y708.5159 I-2.8612 J-0.9019
G1 X501.571 Y710.3989
G3 X501.5539 Y710.4485 I-2.845 J-0.9519
G1 X500.8909 Y712.3205
G3 X500.8727 Y712.3704 I-2.8279 J-1.0015
G1 X500.1767 Y714.2304
G3 X500.1582 Y714.2786 I-2.8097 J-1.0514
G1 X499.4302 Y716.1266
G3 X499.4107 Y716.1749 I-2.7912 J-1.0996
G1 X498.6507 Y718.0099
G3 X498.6301 Y718.0585 I-2.7717 J-1.1479
G1 X497.8381 Y719.8795
G3 X497.8174 Y719.9259 I-2.7511 J-1.1965
G1 X496.9944 Y721.7339
G3 X496.9716 Y721.7829 I-2.7304 J-1.2429
G1 X496.1166 Y723.5749
G3 X496.0938 Y723.6216 I-2.7076 J-1.2919
G1 X495.2078 Y725.3986
G3 X495.1842 Y725.445 I-2.6848 J-1.3386
G1 X494.2672 Y727.207
G3 X494.2421 Y727.2541 I-2.6612 J-1.385
G1 X493.2941 Y728.9991
G3 X493.2692 Y729.044 I-2.6361 J-1.4321
G1 X492.2912 Y730.773
G3 X492.2648 Y730.8188 I-2.6112 J-1.477
G1 X491.2568 Y732.5298
G3 X491.23 Y732.5744 I-2.5848 J-1.5228
G1 X490.192 Y734.2684
G3 X490.1642 Y734.3128 I-2.558 J-1.5674
G1 X489.0972 Y735.9878
G3 X489.0687 Y736.0317 I-2.5302 J-1.6118
G1 X487.9727 Y737.6877
G3 X487.9429 Y737.7318 I-2.5017 J-1.6557
G1 X486.8179 Y739.3678
G3 X486.7886 Y739.4097 I-2.4719 J-1.6998
G1 X485.6356 Y741.0267
G3 X485.6051 Y741.0688 I-2.4426 J-1.7417
G1 X484.4241 Y742.6658
G3 X484.3917 Y742.7087 I-2.4121 J-1.7838
G1 X483.1827 Y744.2837
G3 X483.1508 Y744.3246 I-2.3797 J-1.8267
G1 X481.9138 Y745.8796
G3 X481.8808 Y745.9203 I-2.3478 J-1.8676
G1 X480.6178 Y747.4523
G3 X480.584 Y747.4926 I-2.3148 J-1.9083
G1 X479.294 Y749.0026
G3 X479.2602 Y749.0415 I-2.281 J-1.9486
G1 X477.9442 Y750.5295
G3 X477.9092 Y750.5684 I-2.2472 J-1.9875
G1 X476.5682 Y752.0324
G3 X476.5317 Y752.0715 I-2.2122 J-2.0264
G1 X475.1637 Y753.5125
G3 X475.1274 Y753.5501 I-2.1757 J-2.0655
G1 X473.7354 Y754.9661
G3 X473.6991 Y755.0024 I-2.1394 J-2.1031
G1 X472.2831 Y756.3944
G3 X472.2447 Y756.4315 I-2.1031 J-2.1394
G1 X470.8037 Y757.7985
G3 X470.7662 Y757.8335 I-2.0647 J-2.1765
G1 X469.3022 Y759.1755
G3 X469.2632 Y759.2106 I-2.0272 J-2.2115
G1 X467.7762 Y760.5266
G3 X467.7359 Y760.5616 I-1.9882 J-2.2466
G1 X466.2249 Y761.8516
G3 X466.1853 Y761.8848 I-1.9479 J-2.2816
G1 X464.6533 Y763.1478
G3 X464.6124 Y763.1809 I-1.9083 J-2.3148
G1 X463.0584 Y764.4169
G3 X463.017 Y764.4493 I-1.8674 J-2.3479
G1 X461.441 Y765.6583
G3 X461.4005 Y765.6888 I-1.826 J-2.3803
G1 X459.8045 Y766.8708
G3 X459.7607 Y766.9026 I-1.7855 J-2.4108
G1 X458.1437 Y768.0556
G3 X458.1011 Y768.0854 I-1.7417 J-2.4426
G1 X456.4641 Y769.2104
G3 X456.4207 Y769.2397 I-1.6991 J-2.4724
G1 X454.7647 Y770.3357
G3 X454.7208 Y770.3642 I-1.6557 J-2.5017
G1 X453.0458 Y771.4312
G3 X453.0021 Y771.4586 I-1.6118 J-2.5302
G1 X451.3091 Y772.4966
G3 X451.2631 Y772.5242 I-1.5681 J-2.5576
G1 X449.5511 Y773.5322
G3 X449.5067 Y773.5578 I-1.5221 J-2.5852
G1 X447.7787 Y774.5358
G3 X447.7313 Y774.5621 I-1.4777 J-2.6108
G1 X445.9853 Y775.5091
G3 X445.9406 Y775.5329 I-1.4303 J-2.6371
G1 X444.1796 Y776.4499
G3 X444.1332 Y776.4735 I-1.3856 J-2.6609
G1 X442.3552 Y777.3605
G3 X442.3079 Y777.3836 I-1.3392 J-2.6845
G1 X440.5159 Y778.2386
G3 X440.4675 Y778.2612 I-1.2919 J-2.7076
G1 X438.6605 Y779.0842
G3 X438.613 Y779.1053 I-1.2435 J-2.7302
G1 X436.791 Y779.8973
G3 X436.7435 Y779.9175 I-1.196 J-2.7513
G1 X434.9095 Y780.6775
G3 X434.8606 Y780.6972 I-1.1485 J-2.7715
G1 X433.0126 Y781.4252
G3 X432.9639 Y781.4439 I-1.0996 J-2.7912
G1 X431.1029 Y782.1399
G3 X431.0522 Y782.1584 I-1.0509 J-2.8099
G1 X429.1802 Y782.8204
G3 X429.1332 Y782.8365 I-1.0002 J-2.8284
G1 X427.2502 Y783.4675
G3 X427.1989 Y783.4842 I-0.9532 J-2.8445
G1 X425.3049 Y784.0812
G3 X425.2551 Y784.0965 I-0.9019 J-2.8612
G1 X423.3511 Y784.6605
G3 X423.301 Y784.6748 I-0.8521 J-2.8765
G1 X421.387 Y785.2058
G3 X421.3357 Y785.2196 I-0.802 J-2.8908
G1 X419.4127 Y785.7166
G3 X419.3629 Y785.729 I-0.7507 J-2.9046
G1 X417.4319 Y786.193
G3 X417.3791 Y786.2052 I-0.7009 J-2.917
G1 X415.4401 Y786.6342
G3 X415.3902 Y786.6447 I-0.6481 J-2.9292
G1 X413.4442 Y787.0407
G3 X413.3928 Y787.0508 I-0.5982 J-2.9397
G1 X411.4398 Y787.4128
G3 X411.3884 Y787.4218 I-0.5468 J-2.9498
G1 X409.4294 Y787.7498
G3 X409.3781 Y787.7579 I-0.4954 J-2.9588
G1 X407.4141 Y788.0519
G3 X407.3612 Y788.0594 I-0.4441 J-2.9669
G1 X405.3922 Y788.3184
G3 X405.3409 Y788.3247 I-0.3912 J-2.9744
G1 X403.3679 Y788.5497
G3 X403.315 Y788.5552 I-0.3399 J-2.9807
G1 X401.338 Y788.7452
G3 X401.2866 Y788.7497 I-0.287 J-2.9862
G1 X399.3066 Y788.9057
G3 X399.2538 Y788.9094 I-0.2356 J-2.9907
G1 X397.2718 Y789.0304
G3 X397.2204 Y789.0331 I-0.1828 J-2.9944
G1 X396.6326 Y789.0589
G3 X394.133 Y790.4 I-2.4996 J-1.6589
G1 X0.0
G3 X-3.0 Y787.4 I0.0 J-3.0
G1 Y0.0
G3 X0.0 Y-3.0 I3.0 J0.0
G1 X558.8
G3 X561.8 Y0.0 I0.0 J3.0
G1 Y16.05
G1 X560.9213 Y16.9287
G1 X561.8 Y16.05
G1 F300.0 Z-8.0
G1 F800.0 X682.8
G1 X683.6787 Y16.9287
G1 X682.8 Y16.05
G1 Y0.0
G3 X685.8 Y-3.0 I3.0 J0.0
G1 X711.2
G3 X714.2 Y0.0 I0.0 J3.0
G1 Y1.0
G3 X714.0723 Y1.8659 I-3.0 J0.0
G1 X507.1513 Y688.2659
G3 X506.7145 Y689.1517 I-2.8723 J-0.8659
G1 X506.4909 Y690.6451
G3 X506.4831 Y690.6949 I-2.9669 J-0.4441
G1 X506.1561 Y692.6539
G3 X506.1468 Y692.7068 I-2.9591 J-0.4939
G1 X505.7848 Y694.6598
G3 X505.7747 Y694.7112 I-2.9498 J-0.5468
G1 X505.3787 Y696.6572
G3 X505.3678 Y696.7085 I-2.9397 J-0.5982
G1 X504.9378 Y698.6475
G3 X504.926 Y698.6989 I-2.9288 J-0.6495
G1 X504.462 Y700.6299
G3 X504.4496 Y700.6797 I-2.917 J-0.7009
G1 X503.9526 Y702.6027
G3 X503.9387 Y702.6544 I-2.9046 J-0.7507
G1 X503.4077 Y704.5674
G3 X503.3936 Y704.6166 I-2.8907 J-0.8024
G1 X502.8296 Y706.5216
G3 X502.8142 Y706.5719 I-2.8766 J-0.8516
G1 X502.2172 Y708.4659
G3 X502.201 Y708.5159 I-2.8612 J-0.9019
G1 X501.571 Y710.3989
G3 X501.5539 Y710.4485 I-2.845 J-0.9519
G1 X500.8909 Y712.3205
G3 X500.8727 Y712.3704 I-2.8279 J-1.0015
G1 X500.1767 Y714.2304
G3 X500.1582 Y714.2786 I-2.8097 J-1.0514
G1 X499.4302 Y716.1266
G3 X499.4107 Y716.1749 I-2.7912 J-1.0996
G1 X498.6507 Y718.0099
G3 X498.6301 Y718.0585 I-2.7717 J-1.1479
G1 X497.8381 Y719.8795
G3 X497.8174 Y719.9259 I-2.7511 J-1.1965
G1 X496.9944 Y721.7339
G3 X496.9716 Y721.7829 I-2.7304 J-1.2429
G1 X496.1166 Y723.5749
G3 X496.0938 Y723.6216 I-2.7076 J-1.2919
G1 X495.2078 Y725.3986
G3 X495.1842 Y725.445 I-2.6848 J-1.3386
G1 X494.2672 Y727.207
G3 X494.2421 Y727.2541 I-2.6612 J-1.385
G1 X493.2941 Y728.9991
G3 X493.2692 Y729.044 I-2.6361 J-1.4321
G1 X492.2912 Y730.773
G3 X492.2648 Y730.8188 I-2.6112 J-1.477
G1 X491.2568 Y732.5298
G3 X491.23 Y732.5744 I-2.5848 J-1.5228
G1 X490.192 Y734.2684
G3 X490.1642 Y734.3128 I-2.558 J-1.5674
G1 X489.0972 Y735.9878
G3 X489.0687 Y736.0317 I-2.5302 J-1.6118
G1 X487.9727 Y737.6877
G3 X487.9429 Y737.7318 I-2.5017 J-1.6557
G1 X486.8179 Y739.3678
G3 X486.7886 Y739.4097 I-2.4719 J-1.6998
G1 X485.6356 Y741.0267
G3 X485.6051 Y741.0688 I-2.4426 J-1.7417
G1 X484.4241 Y742.6658
G3 X484.3917 Y742.7087 I-2.4121 J-1.7838
G1 X483.1827 Y744.2837
G3 X483.1508 Y744.3246 I-2.3797 J-1.8267
G1 X481.9138 Y745.8796
G3 X481.8808 Y745.9203 I-2.3478 J-1.8676
G1 X480.6178 Y747.4523
G3 X480.584 Y747.4926 I-2.3148 J-1.9083
G1 X479.294 Y749.0026
G3 X479.2602 Y749.0415 I-2.281 J-1.9486
G1 X477.9442 Y750.5295
G3 X477.9092 Y750.5684 I-2.2472 J-1.9875
G1 X476.5682 Y752.0324
G3 X476.5317 Y752.0715 I-2.2122 J-2.0264
G1 X475.1637 Y753.5125
G3 X475.1274 Y753.5501 I-2.1757 J-2.0655
G1 X473.7354 Y754.9661
G3 X473.6991 Y755.0024 I-2.1394 J-2.1031
G1 X472.2831 Y756.3944
G3 X472.2447 Y756.4315 I-2.1031 J-2.1394
G1 X470.8037 Y757.7985
G3 X470.7662 Y757.8335 I-2.0647 J-2.1765
G1 X469.3022 Y759.1755
G3 X469.2632 Y759.2106 I-2.0272 J-2.2115
G1 X467.7762 Y760.5266
G3 X467.7359 Y760.5616 I-1.9882 J-2.2466
G1 X466.2249 Y761.8516
G3 X466.1853 Y761.8848 I-1.9479 J-2.2816
G1 X464.6533 Y763.1478
G3 X464.6124 Y763.1809 I-1.9083 J-2.3148
G1 X463.0584 Y764.4169
G3 X463.017 Y764.4493 I-1.8674 J-2.3479
G1 X461.441 Y765.6583
G3 X461.4005 Y765.6888 I-1.826 J-2.3803
G1 X459.8045 Y766.8708
G3 X459.7607 Y766.9026 I-1.7855 J-2.4108
G1 X458.1437 Y768.0556
G3 X458.1011 Y768.0854 I-1.7417 J-2.4426
G1 X456.4641 Y769.2104
G3 X456.4207 Y769.2397 I-1.6991 J-2.4724
G1 X454.7647 Y770.3357
G3 X454.7208 Y770.3642 I-1.6557 J-2.5017
G1 X453.0458 Y771.4312
G3 X453.0021 Y771.4586 I-1.6118 J-2.5302
G1 X451.3091 Y772.4966
G3 X451.2631 Y772.5242 I-1.5681 J-2.5576
G1 X449.5511 Y773.5322
G3 X449.5067 Y773.5578 I-1.5221 J-2.5852
G1 X447.7787 Y774.5358
G3 X447.7313 Y774.5621 I-1.4777 J-2.6108
G1 X445.9853 Y775.5091
G3 X445.9406 Y775.5329 I-1.4303 J-2.6371
G1 X444.1796 Y776.4499
G3 X444.1332 Y776.4735 I-1.3856 J-2.6609
G1 X442.3552 Y777.3605
G3 X442.3079 Y777.3836 I-1.3392 J-2.6845
G1 X440.5159 Y778.2386
G3 X440.4675 Y778.2612 I-1.2919 J-2.7076
G1 X438.6605 Y779.0842
G3 X438.613 Y779.1053 I-1.2435 J-2.7302
G1 X436.791 Y779.8973
G3 X436.7435 Y779.9175 I-1.196 J-2.7513
G1 X434.9095 Y780.6775
G3 X434.8606 Y780.6972 I-1.1485 J-2.7715
G1 X433.0126 Y781.4252
G3 X432.9639 Y781.4439 I-1.0996 J-2.7912
G1 X431.1029 Y782.1399
G3 X431.0522 Y782.1584 I-1.0509 J-2.8099
G1 X429.1802 Y782.8204
G3 X429.1332 Y782.8365 I-1.0002 J-2.8284
G1 X427.2502 Y783.4675
G3 X427.1989 Y783.4842 I-0.9532 J-2.8445
G1 X425.3049 Y784.0812
G3 X425.2551 Y784.0965 I-0.9019 J-2.8612
G1 X423.3511 Y784.6605
G3 X423.301 Y784.6748 I-0.8521 J-2.8765
G1 X421.387 Y785.2058
G3 X421.3357 Y785.2196 I-0.802 J-2.8908
G1 X419.4127 Y785.7166
G3 X419.3629 Y785.729 I-0.7507 J-2.9046
G1 X417.4319 Y786.193
G3 X417.3791 Y786.2052 I-0.7009 J-2.917
G1 X415.4401 Y786.6342
G3 X415.3902 Y786.6447 I-0.6481 J-2.9292
G1 X413.4442 Y787.0407
G3 X413.3928 Y787.0508 I-0.5982 J-2.9397
G1 X411.4398 Y787.4128
G3 X411.3884 Y787.4218 I-0.5468 J-2.9498
G1 X409.4294 Y787.7498
G3 X409.3781 Y787.7579 I-0.4954 J-2.9588
G1 X407.4141 Y788.0519
G3 X407.3612 Y788.0594 I-0.4441 J-2.9669
G1 X405.3922 Y788.3184
G3 X405.3409 Y788.3247 I-0.3912 J-2.9744
G1 X403.3679 Y788.5497
G3 X403.315 Y788.5552 I-0.3399 J-2.9807
G1 X401.338 Y788.7452
G3 X401.2866 Y788.7497 I-0.287 J-2.9862
G1 X399.3066 Y788.9057
G3 X399.2538 Y788.9094 I-0.2356 J-2.9907
G1 X397.2718 Y789.0304
G3 X397.2204 Y789.0331 I-0.1828 J-2.9944
G1 X396.6326 Y789.0589
G3 X394.133 Y790.4 I-2.4996 J-1.6589
G1 X0.0
G3 X-3.0 Y787.4 I0.0 J-3.0
G1 Y0.0
G3 X0.0 Y-3.0 I3.0 J0.0
G1 X558.8
G3 X561.8 Y0.0 I0.0 J3.0
G1 Y16.05
G1 X560.9213 Y16.9287
G1 X561.8 Y16.05
G1 F300.0 Z-9.0
G1 F800.0 X682.8
G1 X683.6787 Y16.9287
G1 X682.8 Y16.05
G1 Y0.0
G3 X685.8 Y-3.0 I3.0 J0.0
G1 X711.2
G3 X714.2 Y0.0 I0.0 J3.0
G1 Y1.0
G3 X714.0723 Y1.8659 I-3.0 J0.0
G1 X507.1513 Y688.2659
G3 X506.7145 Y689.1517 I-2.8723 J-0.8659
G1 X506.4909 Y690.6451
G3 X506.4831 Y690.6949 I-2.9669 J-0.4441
G1 X506.1561 Y692.6539
G3 X506.1468 Y692.7068 I-2.9591 J-0.4939
G1 X505.7848 Y694.6598
G3 X505.7747 Y694.7112 I-2.9498 J-0.5468
G1 X505.3787 Y696.6572
G3 X505.3678 Y696.7085 I-2.9397 J-0.5982
G1 X504.9378 Y698.6475
G3 X504.926 Y698.6989 I-2.9288 J-0.6495
G1 X504.462 Y700.6299
G3 X504.4496 Y700.6797 I-2.917 J-0.7009
G1 X503.9526 Y702.6027
G3 X503.9387 Y702.6544 I-2.9046 J-0.7507
G1 X503.4077 Y704.5674
G3 X503.3936 Y704.6166 I-2.8907 J-0.8024
G1 X502.8296 Y706.5216
G3 X502.8142 Y706.5719 I-2.8766 J-0.8516
G1 X502.2172 Y708.4659
G3 X502.201 Y708.5159 I-2.8612 J-0.9019
G1 X501.571 Y710.3989
G3 X501.5539 Y710.4485 I-2.845 J-0.9519
G1 X500.8909 Y712.3205
G3 X500.8727 Y712.3704 I-2.8279 J-1.0015
G1 X500.1767 Y714.2304
G3 X500.1582 Y714.2786 I-2.8097 J-1.0514
G1 X499.4302 Y716.1266
G3 X499.4107 Y716.1749 I-2.7912 J-1.0996
G1 X498.6507 Y718.0099
G3 X498.6301 Y718.0585 I-2.7717 J-1.1479
G1 X497.8381 Y719.8795
G3 X497.8174 Y719.9259 I-2.7511 J-1.1965
G1 X496.9944 Y721.7339
G3 X496.9716 Y721.7829 I-2.7304 J-1.2429
G1 X496.1166 Y723.5749
G3 X496.0938 Y723.6216 I-2.7076 J-1.2919
G1 X495.2078 Y725.3986
G3 X495.1842 Y725.445 I-2.6848 J-1.3386
G1 X494.2672 Y727.207
G3 X494.2421 Y727.2541 I-2.6612 J-1.385
G1 X493.2941 Y728.9991
G3 X493.2692 Y729.044 I-2.6361 J-1.4321
G1 X492.2912 Y730.773
G3 X492.2648 Y730.8188 I-2.6112 J-1.477
G1 X491.2568 Y732.5298
G3 X491.23 Y732.5744 I-2.5848 J-1.5228
G1 X490.192 Y734.2684
G3 X490.1642 Y734.3128 I-2.558 J-1.5674
G1 X489.0972 Y735.9878
G3 X489.0687 Y736.0317 I-2.5302 J-1.6118
G1 X487.9727 Y737.6877
G3 X487.9429 Y737.7318 I-2.5017 J-1.6557
G1 X486.8179 Y739.3678
G3 X486.7886 Y739.4097 I-2.4719 J-1.6998
G1 X485.6356 Y741.0267
G3 X485.6051 Y741.0688 I-2.4426 J-1.7417
G1 X484.4241 Y742.6658
G3 X484.3917 Y742.7087 I-2.4121 J-1.7838
G1 X483.1827 Y744.2837
G3 X483.1508 Y744.3246 I-2.3797 J-1.8267
G1 X481.9138 Y745.8796
G3 X481.8808 Y745.9203 I-2.3478 J-1.8676
G1 X480.6178 Y747.4523
G3 X480.584 Y747.4926 I-2.3148 J-1.9083
G1 X479.294 Y749.0026
G3 X479.2602 Y749.0415 I-2.281 J-1.9486
G1 X477.9442 Y750.5295
G3 X477.9092 Y750.5684 I-2.2472 J-1.9875
G1 X476.5682 Y752.0324
G3 X476.5317 Y752.0715 I-2.2122 J-2.0264
G1 X475.1637 Y753.5125
G3 X475.1274 Y753.5501 I-2.1757 J-2.0655
G1 X473.7354 Y754.9661
G3 X473.6991 Y755.0024 I-2.1394 J-2.1031
G1 X472.2831 Y756.3944
G3 X472.2447 Y756.4315 I-2.1031 J-2.1394
G1 X470.8037 Y757.7985
G3 X470.7662 Y757.8335 I-2.0647 J-2.1765
G1 X469.3022 Y759.1755
G3 X469.2632 Y759.2106 I-2.0272 J-2.2115
G1 X467.7762 Y760.5266
G3 X467.7359 Y760.5616 I-1.9882 J-2.2466
G1 X466.2249 Y761.8516
G3 X466.1853 Y761.8848 I-1.9479 J-2.2816
G1 X464.6533 Y763.1478
G3 X464.6124 Y763.1809 I-1.9083 J-2.3148
G1 X463.0584 Y764.4169
G3 X463.017 Y764.4493 I-1.8674 J-2.3479
G1 X461.441 Y765.6583
G3 X461.4005 Y765.6888 I-1.826 J-2.3803
G1 X459.8045 Y766.8708
G3 X459.7607 Y766.9026 I-1.7855 J-2.4108
G1 X458.1437 Y768.0556
G3 X458.1011 Y768.0854 I-1.7417 J-2.4426
G1 X456.4641 Y769.2104
G3 X456.4207 Y769.2397 I-1.6991 J-2.4724
G1 X454.7647 Y770.3357
G3 X454.7208 Y770.3642 I-1.6557 J-2.5017
G1 X453.0458 Y771.4312
G3 X453.0021 Y771.4586 I-1.6118 J-2.5302
G1 X451.3091 Y772.4966
G3 X451.2631 Y772.5242 I-1.5681 J-2.5576
G1 X449.5511 Y773.5322
G3 X449.5067 Y773.5578 I-1.5221 J-2.5852
G1 X447.7787 Y774.5358
G3 X447.7313 Y774.5621 I-1.4777 J-2.6108
G1 X445.9853 Y775.5091
G3 X445.9406 Y775.5329 I-1.4303 J-2.6371
G1 X444.1796 Y776.4499
G3 X444.1332 Y776.4735 I-1.3856 J-2.6609
G1 X442.3552 Y777.3605
G3 X442.3079 Y777.3836 I-1.3392 J-2.6845
G1 X440.5159 Y778.2386
G3 X440.4675 Y778.2612 I-1.2919 J-2.7076
G1 X438.6605 Y779.0842
G3 X438.613 Y779.1053 I-1.2435 J-2.7302
G1 X436.791 Y779.8973
G3 X436.7435 Y779.9175 I-1.196 J-2.7513
G1 X434.9095 Y780.6775
G3 X434.8606 Y780.6972 I-1.1485 J-2.7715
G1 X433.0126 Y781.4252
G3 X432.9639 Y781.4439 I-1.0996 J-2.7912
G1 X431.1029 Y782.1399
G3 X431.0522 Y782.1584 I-1.0509 J-2.8099
G1 X429.1802 Y782.8204
G3 X429.1332 Y782.8365 I-1.0002 J-2.8284
G1 X427.2502 Y783.4675
G3 X427.1989 Y783.4842 I-0.9532 J-2.8445
G1 X425.3049 Y784.0812
G3 X425.2551 Y784.0965 I-0.9019 J-2.8612
G1 X423.3511 Y784.6605
G3 X423.301 Y784.6748 I-0.8521 J-2.8765
G1 X421.387 Y785.2058
G3 X421.3357 Y785.2196 I-0.802 J-2.8908
G1 X419.4127 Y785.7166
G3 X419.3629 Y785.729 I-0.7507 J-2.9046
G1 X417.4319 Y786.193
G3 X417.3791 Y786.2052 I-0.7009 J-2.917
G1 X415.4401 Y786.6342
G3 X415.3902 Y786.6447 I-0.6481 J-2.9292
G1 X413.4442 Y787.0407
G3 X413.3928 Y787.0508 I-0.5982 J-2.9397
G1 X411.4398 Y787.4128
G3 X411.3884 Y787.4218 I-0.5468 J-2.9498
G1 X409.4294 Y787.7498
G3 X409.3781 Y787.7579 I-0.4954 J-2.9588
G1 X407.4141 Y788.0519
G3 X407.3612 Y788.0594 I-0.4441 J-2.9669
G1 X405.3922 Y788.3184
G3 X405.3409 Y788.3247 I-0.3912 J-2.9744
G1 X403.3679 Y788.5497
G3 X403.315 Y788.5552 I-0.3399 J-2.9807
G1 X401.338 Y788.7452
G3 X401.2866 Y788.7497 I-0.287 J-2.9862
G1 X399.3066 Y788.9057
G3 X399.2538 Y788.9094 I-0.2356 J-2.9907
G1 X397.2718 Y789.0304
G3 X397.2204 Y789.0331 I-0.1828 J-2.9944
G1 X396.6326 Y789.0589
G3 X394.133 Y790.4 I-2.4996 J-1.6589
G1 X0.0
G3 X-3.0 Y787.4 I0.0 J-3.0
G1 Y0.0
G3 X0.0 Y-3.0 I3.0 J0.0
G1 X558.8
G3 X561.8 Y0.0 I0.0 J3.0
G1 Y16.05
G1 X560.9213 Y16.9287
G1 X561.8 Y16.05
G1 F300.0 Z-10.0
G1 F800.0 X682.8
G1 X683.6787 Y16.9287
G1 X682.8 Y16.05
G1 Y0.0
G3 X685.8 Y-3.0 I3.0 J0.0
G1 X711.2
G3 X714.2 Y0.0 I0.0 J3.0
G1 Y1.0
G3 X714.0723 Y1.8659 I-3.0 J0.0
G1 X507.1513 Y688.2659
G3 X506.7145 Y689.1517 I-2.8723 J-0.8659
G1 X506.4909 Y690.6451
G3 X506.4831 Y690.6949 I-2.9669 J-0.4441
G1 X506.1561 Y692.6539
G3 X506.1468 Y692.7068 I-2.9591 J-0.4939
G1 X505.7848 Y694.6598
G3 X505.7747 Y694.7112 I-2.9498 J-0.5468
G1 X505.3787 Y696.6572
G3 X505.3678 Y696.7085 I-2.9397 J-0.5982
G1 X504.9378 Y698.6475
G3 X504.926 Y698.6989 I-2.9288 J-0.6495
G1 X504.462 Y700.6299
G3 X504.4496 Y700.6797 I-2.917 J-0.7009
G1 X503.9526 Y702.6027
G3 X503.9387 Y702.6544 I-2.9046 J-0.7507
G1 X503.4077 Y704.5674
G3 X503.3936 Y704.6166 I-2.8907 J-0.8024
G1 X502.8296 Y706.5216
G3 X502.8142 Y706.5719 I-2.8766 J-0.8516
G1 X502.2172 Y708.4659
G3 X502.201 Y708.5159 I-2.8612 J-0.9019
G1 X501.571 Y710.3989
G3 X501.5539 Y710.4485 I-2.845 J-0.9519
G1 X500.8909 Y712.3205
G3 X500.8727 Y712.3704 I-2.8279 J-1.0015
G1 X500.1767 Y714.2304
G3 X500.1582 Y714.2786 I-2.8097 J-1.0514
G1 X499.4302 Y716.1266
G3 X499.4107 Y716.1749 I-2.7912 J-1.0996
G1 X498.6507 Y718.0099
G3 X498.6301 Y718.0585 I-2.7717 J-1.1479
G1 X497.8381 Y719.8795
G3 X497.8174 Y719.9259 I-2.7511 J-1.1965
G1 X496.9944 Y721.7339
G3 X496.9716 Y721.7829 I-2.7304 J-1.2429
G1 X496.1166 Y723.5749
G3 X496.0938 Y723.6216 I-2.7076 J-1.2919
G1 X495.2078 Y725.3986
G3 X495.1842 Y725.445 I-2.6848 J-1.3386
G1 X494.2672 Y727.207
G3 X494.2421 Y727.2541 I-2.6612 J-1.385
G1 X493.2941 Y728.9991
G3 X493.2692 Y729.044 I-2.6361 J-1.4321
G1 X492.2912 Y730.773
G3 X492.2648 Y730.8188 I-2.6112 J-1.477
G1 X491.2568 Y732.5298
G3 X491.23 Y732.5744 I-2.5848 J-1.5228
G1 X490.192 Y734.2684
G3 X490.1642 Y734.3128 I-2.558 J-1.5674
G1 X489.0972 Y735.9878
G3 X489.0687 Y736.0317 I-2.5302 J-1.6118
G1 X487.9727 Y737.6877
G3 X487.9429 Y737.7318 I-2.5017 J-1.6557
G1 X486.8179 Y739.3678
G3 X486.7886 Y739.4097 I-2.4719 J-1.6998
G1 X485.6356 Y741.0267
G3 X485.6051 Y741.0688 I-2.4426 J-1.7417
G1 X484.4241 Y742.6658
G3 X484.3917 Y742.7087 I-2.4121 J-1.7838
G1 X483.1827 Y744.2837
G3 X483.1508 Y744.3246 I-2.3797 J-1.8267
G1 X481.9138 Y745.8796
G3 X481.8808 Y745.9203 I-2.3478 J-1.8676
G1 X480.6178 Y747.4523
G3 X480.584 Y747.4926 I-2.3148 J-1.9083
G1 X479.294 Y749.0026
G3 X479.2602 Y749.0415 I-2.281 J-1.9486
G1 X477.9442 Y750.5295
G3 X477.9092 Y750.5684 I-2.2472 J-1.9875
G1 X476.5682 Y752.0324
G3 X476.5317 Y752.0715 I-2.2122 J-2.0264
G1 X475.1637 Y753.5125
G3 X475.1274 Y753.5501 I-2.1757 J-2.0655
G1 X473.7354 Y754.9661
G3 X473.6991 Y755.0024 I-2.1394 J-2.1031
G1 X472.2831 Y756.3944
G3 X472.2447 Y756.4315 I-2.1031 J-2.1394
G1 X470.8037 Y757.7985
G3 X470.7662 Y757.8335 I-2.0647 J-2.1765
G1 X469.3022 Y759.1755
G3 X469.2632 Y759.2106 I-2.0272 J-2.2115
G1 X467.7762 Y760.5266
G3 X467.7359 Y760.5616 I-1.9882 J-2.2466
G1 X466.2249 Y761.8516
G3 X466.1853 Y761.8848 I-1.9479 J-2.2816
G1 X464.6533 Y763.1478
G3 X464.6124 Y763.1809 I-1.9083 J-2.3148
G1 X463.0584 Y764.4169
G3 X463.017 Y764.4493 I-1.8674 J-2.3479
G1 X461.441 Y765.6583
G3 X461.4005 Y765.6888 I-1.826 J-2.3803
G1 X459.8045 Y766.8708
G3 X459.7607 Y766.9026 I-1.7855 J-2.4108
G1 X458.1437 Y768.0556
G3 X458.1011 Y768.0854 I-1.7417 J-2.4426
G1 X456.4641 Y769.2104
G3 X456.4207 Y769.2397 I-1.6991 J-2.4724
G1 X454.7647 Y770.3357
G3 X454.7208 Y770.3642 I-1.6557 J-2.5017
G1 X453.0458 Y771.4312
G3 X453.0021 Y771.4586 I-1.6118 J-2.5302
G1 X451.3091 Y772.4966
G3 X451.2631 Y772.5242 I-1.5681 J-2.5576
G1 X449.5511 Y773.5322
G3 X449.5067 Y773.5578 I-1.5221 J-2.5852
G1 X447.7787 Y774.5358
G3 X447.7313 Y774.5621 I-1.4777 J-2.6108
G1 X445.9853 Y775.5091
G3 X445.9406 Y775.5329 I-1.4303 J-2.6371
G1 X444.1796 Y776.4499
G3 X444.1332 Y776.4735 I-1.3856 J-2.6609
G1 X442.3552 Y777.3605
G3 X442.3079 Y777.3836 I-1.3392 J-2.6845
G1 X440.5159 Y778.2386
G3 X440.4675 Y778.2612 I-1.2919 J-2.7076
G1 X438.6605 Y779.0842
G3 X438.613 Y779.1053 I-1.2435 J-2.7302
G1 X436.791 Y779.8973
G3 X436.7435 Y779.9175 I-1.196 J-2.7513
G1 X434.9095 Y780.6775
G3 X434.8606 Y780.6972 I-1.1485 J-2.7715
G1 X433.0126 Y781.4252
G3 X432.9639 Y781.4439 I-1.0996 J-2.7912
G1 X431.1029 Y782.1399
G3 X431.0522 Y782.1584 I-1.0509 J-2.8099
G1 X429.1802 Y782.8204
G3 X429.1332 Y782.8365 I-1.0002 J-2.8284
G1 X427.2502 Y783.4675
G3 X427.1989 Y783.4842 I-0.9532 J-2.8445
G1 X425.3049 Y784.0812
G3 X425.2551 Y784.0965 I-0.9019 J-2.8612
G1 X423.3511 Y784.6605
G3 X423.301 Y784.6748 I-0.8521 J-2.8765
G1 X421.387 Y785.2058
G3 X421.3357 Y785.2196 I-0.802 J-2.8908
G1 X419.4127 Y785.7166
G3 X419.3629 Y785.729 I-0.7507 J-2.9046
G1 X417.4319 Y786.193
G3 X417.3791 Y786.2052 I-0.7009 J-2.917
G1 X415.4401 Y786.6342
G3 X415.3902 Y786.6447 I-0.6481 J-2.9292
G1 X413.4442 Y787.0407
G3 X413.3928 Y787.0508 I-0.5982 J-2.9397
G1 X411.4398 Y787.4128
G3 X411.3884 Y787.4218 I-0.5468 J-2.9498
G1 X409.4294 Y787.7498
G3 X409.3781 Y787.7579 I-0.4954 J-2.9588
G1 X407.4141 Y788.0519
G3 X407.3612 Y788.0594 I-0.4441 J-2.9669
G1 X405.3922 Y788.3184
G3 X405.3409 Y788.3247 I-0.3912 J-2.9744
G1 X403.3679 Y788.5497
G3 X403.315 Y788.5552 I-0.3399 J-2.9807
G1 X401.338 Y788.7452
G3 X401.2866 Y788.7497 I-0.287 J-2.9862
G1 X399.3066 Y788.9057
G3 X399.2538 Y788.9094 I-0.2356 J-2.9907
G1 X397.2718 Y789.0304
G3 X397.2204 Y789.0331 I-0.1828 J-2.9944
G1 X396.6326 Y789.0589
G3 X394.133 Y790.4 I-2.4996 J-1.6589
G1 X0.0
G3 X-3.0 Y787.4 I0.0 J-3.0
G1 Y0.0
G3 X0.0 Y-3.0 I3.0 J0.0
G1 X558.8
G3 X561.8 Y0.0 I0.0 J3.0
G1 Y16.05
G1 X560.9213 Y16.9287
G1 X561.8 Y16.05
G1 F300.0 Z-11.0
G1 F800.0 X682.8
G1 X683.6787 Y16.9287
G1 X682.8 Y16.05
G1 Y0.0
G3 X685.8 Y-3.0 I3.0 J0.0
G1 X711.2
G3 X714.2 Y0.0 I0.0 J3.0
G1 Y1.0
G3 X714.0723 Y1.8659 I-3.0 J0.0
G1 X507.1513 Y688.2659
G3 X506.7145 Y689.1517 I-2.8723 J-0.8659
G1 X506.4909 Y690.6451
G3 X506.4831 Y690.6949 I-2.9669 J-0.4441
G1 X506.1561 Y692.6539
G3 X506.1468 Y692.7068 I-2.9591 J-0.4939
G1 X505.7848 Y694.6598
G3 X505.7747 Y694.7112 I-2.9498 J-0.5468
G1 X505.3787 Y696.6572
G3 X505.3678 Y696.7085 I-2.9397 J-0.5982
G1 X504.9378 Y698.6475
G3 X504.926 Y698.6989 I-2.9288 J-0.6495
G1 X504.462 Y700.6299
G3 X504.4496 Y700.6797 I-2.917 J-0.7009
G1 X503.9526 Y702.6027
G3 X503.9387 Y702.6544 I-2.9046 J-0.7507
G1 X503.4077 Y704.5674
G3 X503.3936 Y704.6166 I-2.8907 J-0.8024
G1 X502.8296 Y706.5216
G3 X502.8142 Y706.5719 I-2.8766 J-0.8516
G1 X502.2172 Y708.4659
G3 X502.201 Y708.5159 I-2.8612 J-0.9019
G1 X501.571 Y710.3989
G3 X501.5539 Y710.4485 I-2.845 J-0.9519
G1 X500.8909 Y712.3205
G3 X500.8727 Y712.3704 I-2.8279 J-1.0015
G1 X500.1767 Y714.2304
G3 X500.1582 Y714.2786 I-2.8097 J-1.0514
G1 X499.4302 Y716.1266
G3 X499.4107 Y716.1749 I-2.7912 J-1.0996
G1 X498.6507 Y718.0099
G3 X498.6301 Y718.0585 I-2.7717 J-1.1479
G1 X497.8381 Y719.8795
G3 X497.8174 Y719.9259 I-2.7511 J-1.1965
G1 X496.9944 Y721.7339
G3 X496.9716 Y721.7829 I-2.7304 J-1.2429
G1 X496.1166 Y723.5749
G3 X496.0938 Y723.6216 I-2.7076 J-1.2919
G1 X495.2078 Y725.3986
G3 X495.1842 Y725.445 I-2.6848 J-1.3386
G1 X494.2672 Y727.207
G3 X494.2421 Y727.2541 I-2.6612 J-1.385
G1 X493.2941 Y728.9991
G3 X493.2692 Y729.044 I-2.6361 J-1.4321
G1 X492.2912 Y730.773
G3 X492.2648 Y730.8188 I-2.6112 J-1.477
G1 X491.2568 Y732.5298
G3 X491.23 Y732.5744 I-2.5848 J-1.5228
G1 X490.192 Y734.2684
G3 X490.1642 Y734.3128 I-2.558 J-1.5674
G1 X489.0972 Y735.9878
G3 X489.0687 Y736.0317 I-2.5302 J-1.6118
G1 X487.9727 Y737.6877
G3 X487.9429 Y737.7318 I-2.5017 J-1.6557
G1 X486.8179 Y739.3678
G3 X486.7886 Y739.4097 I-2.4719 J-1.6998
G1 X485.6356 Y741.0267
G3 X485.6051 Y741.0688 I-2.4426 J-1.7417
G1 X484.4241 Y742.6658
G3 X484.3917 Y742.7087 I-2.4121 J-1.7838
G1 X483.1827 Y744.2837
G3 X483.1508 Y744.3246 I-2.3797 J-1.8267
G1 X481.9138 Y745.8796
G3 X481.8808 Y745.9203 I-2.3478 J-1.8676
G1 X480.6178 Y747.4523
G3 X480.584 Y747.4926 I-2.3148 J-1.9083
G1 X479.294 Y749.0026
G3 X479.2602 Y749.0415 I-2.281 J-1.9486
G1 X477.9442 Y750.5295
G3 X477.9092 Y750.5684 I-2.2472 J-1.9875
G1 X476.5682 Y752.0324
G3 X476.5317 Y752.0715 I-2.2122 J-2.0264
G1 X475.1637 Y753.5125
G3 X475.1274 Y753.5501 I-2.1757 J-2.0655
G1 X473.7354 Y754.9661
G3 X473.6991 Y755.0024 I-2.1394 J-2.1031
G1 X472.2831 Y756.3944
G3 X472.2447 Y756.4315 I-2.1031 J-2.1394
G1 X470.8037 Y757.7985
G3 X470.7662 Y757.8335 I-2.0647 J-2.1765
G1 X469.3022 Y759.1755
G3 X469.2632 Y759.2106 I-2.0272 J-2.2115
G1 X467.7762 Y760.5266
G3 X467.7359 Y760.5616 I-1.9882 J-2.2466
G1 X466.2249 Y761.8516
G3 X466.1853 Y761.8848 I-1.9479 J-2.2816
G1 X464.6533 Y763.1478
G3 X464.6124 Y763.1809 I-1.9083 J-2.3148
G1 X463.0584 Y764.4169
G3 X463.017 Y764.4493 I-1.8674 J-2.3479
G1 X461.441 Y765.6583
G3 X461.4005 Y765.6888 I-1.826 J-2.3803
G1 X459.8045 Y766.8708
G3 X459.7607 Y766.9026 I-1.7855 J-2.4108
G1 X458.1437 Y768.0556
G3 X458.1011 Y768.0854 I-1.7417 J-2.4426
G1 X456.4641 Y769.2104
G3 X456.4207 Y769.2397 I-1.6991 J-2.4724
G1 X454.7647 Y770.3357
G3 X454.7208 Y770.3642 I-1.6557 J-2.5017
G1 X453.0458 Y771.4312
G3 X453.0021 Y771.4586 I-1.6118 J-2.5302
G1 X451.3091 Y772.4966
G3 X451.2631 Y772.5242 I-1.5681 J-2.5576
G1 X449.5511 Y773.5322
G3 X449.5067 Y773.5578 I-1.5221 J-2.5852
G1 X447.7787 Y774.5358
G3 X447.7313 Y774.5621 I-1.4777 J-2.6108
G1 X445.9853 Y775.5091
G3 X445.9406 Y775.5329 I-1.4303 J-2.6371
G1 X444.1796 Y776.4499
G3 X444.1332 Y776.4735 I-1.3856 J-2.6609
G1 X442.3552 Y777.3605
G3 X442.3079 Y777.3836 I-1.3392 J-2.6845
G1 X440.5159 Y778.2386
G3 X440.4675 Y778.2612 I-1.2919 J-2.7076
G1 X438.6605 Y779.0842
G3 X438.613 Y779.1053 I-1.2435 J-2.7302
G1 X436.791 Y779.8973
G3 X436.7435 Y779.9175 I-1.196 J-2.7513
G1 X434.9095 Y780.6775
G3 X434.8606 Y780.6972 I-1.1485 J-2.7715
G1 X433.0126 Y781.4252
G3 X432.9639 Y781.4439 I-1.0996 J-2.7912
G1 X431.1029 Y782.1399
G3 X431.0522 Y782.1584 I-1.0509 J-2.8099
G1 X429.1802 Y782.8204
G3 X429.1332 Y782.8365 I-1.0002 J-2.8284
G1 X427.2502 Y783.4675
G3 X427.1989 Y783.4842 I-0.9532 J-2.8445
G1 X425.3049 Y784.0812
G3 X425.2551 Y784.0965 I-0.9019 J-2.8612
G1 X423.3511 Y784.6605
G3 X423.301 Y784.6748 I-0.8521 J-2.8765
G1 X421.387 Y785.2058
G3 X421.3357 Y785.2196 I-0.802 J-2.8908
G1 X419.4127 Y785.7166
G3 X419.3629 Y785.729 I-0.7507 J-2.9046
G1 X417.4319 Y786.193
G3 X417.3791 Y786.2052 I-0.7009 J-2.917
G1 X415.4401 Y786.6342
G3 X415.3902 Y786.6447 I-0.6481 J-2.9292
G1 X413.4442 Y787.0407
G3 X413.3928 Y787.0508 I-0.5982 J-2.9397
G1 X411.4398 Y787.4128
G3 X411.3884 Y787.4218 I-0.5468 J-2.9498
G1 X409.4294 Y787.7498
G3 X409.3781 Y787.7579 I-0.4954 J-2.9588
G1 X407.4141 Y788.0519
G3 X407.3612 Y788.0594 I-0.4441 J-2.9669
G1 X405.3922 Y788.3184
G3 X405.3409 Y788.3247 I-0.3912 J-2.9744
G1 X403.3679 Y788.5497
G3 X403.315 Y788.5552 I-0.3399 J-2.9807
G1 X401.338 Y788.7452
G3 X401.2866 Y788.7497 I-0.287 J-2.9862
G1 X399.3066 Y788.9057
G3 X399.2538 Y788.9094 I-0.2356 J-2.9907
G1 X397.2718 Y789.0304
G3 X397.2204 Y789.0331 I-0.1828 J-2.9944
G1 X396.6326 Y789.0589
G3 X394.133 Y790.4 I-2.4996 J-1.6589
G1 X0.0
G3 X-3.0 Y787.4 I0.0 J-3.0
G1 Y0.0
G3 X0.0 Y-3.0 I3.0 J0.0
G1 X558.8
G3 X561.8 Y0.0 I0.0 J3.0
G1 Y16.05
G1 X560.9213 Y16.9287
G1 X561.8 Y16.05
G1 F300.0 Z-12.0
G1 F800.0 X682.8
G1 X683.6787 Y16.9287
G1 X682.8 Y16.05
G1 Y0.0
G3 X685.8 Y-3.0 I3.0 J0.0
G1 X711.2
G3 X714.2 Y0.0 I0.0 J3.0
G1 Y1.0
G3 X714.0723 Y1.8659 I-3.0 J0.0
G1 X507.1513 Y688.2659
G3 X506.7145 Y689.1517 I-2.8723 J-0.8659
G1 X506.4909 Y690.6451
G3 X506.4831 Y690.6949 I-2.9669 J-0.4441
G1 X506.1561 Y692.6539
G3 X506.1468 Y692.7068 I-2.9591 J-0.4939
G1 X505.7848 Y694.6598
G3 X505.7747 Y694.7112 I-2.9498 J-0.5468
G1 X505.3787 Y696.6572
G3 X505.3678 Y696.7085 I-2.9397 J-0.5982
G1 X504.9378 Y698.6475
G3 X504.926 Y698.6989 I-2.9288 J-0.6495
G1 X504.462 Y700.6299
G3 X504.4496 Y700.6797 I-2.917 J-0.7009
G1 X503.9526 Y702.6027
G3 X503.9387 Y702.6544 I-2.9046 J-0.7507
G1 X503.4077 Y704.5674
G3 X503.3936 Y704.6166 I-2.8907 J-0.8024
G1 X502.8296 Y706.5216
G3 X502.8142 Y706.5719 I-2.8766 J-0.8516
G1 X502.2172 Y708.4659
G3 X502.201 Y708.5159 I-2.8612 J-0.9019
G1 X501.571 Y710.3989
G3 X501.5539 Y710.4485 I-2.845 J-0.9519
G1 X500.8909 Y712.3205
G3 X500.8727 Y712.3704 I-2.8279 J-1.0015
G1 X500.1767 Y714.2304
G3 X500.1582 Y714.2786 I-2.8097 J-1.0514
G1 X499.4302 Y716.1266
G3 X499.4107 Y716.1749 I-2.7912 J-1.0996
G1 X498.6507 Y718.0099
G3 X498.6301 Y718.0585 I-2.7717 J-1.1479
G1 X497.8381 Y719.8795
G3 X497.8174 Y719.9259 I-2.7511 J-1.1965
G1 X496.9944 Y721.7339
G3 X496.9716 Y721.7829 I-2.7304 J-1.2429
G1 X496.1166 Y723.5749
G3 X496.0938 Y723.6216 I-2.7076 J-1.2919
G1 X495.2078 Y725.3986
G3 X495.1842 Y725.445 I-2.6848 J-1.3386
G1 X494.2672 Y727.207
G3 X494.2421 Y727.2541 I-2.6612 J-1.385
G1 X493.2941 Y728.9991
G3 X493.2692 Y729.044 I-2.6361 J-1.4321
G1 X492.2912 Y730.773
G3 X492.2648 Y730.8188 I-2.6112 J-1.477
G1 X491.2568 Y732.5298
G3 X491.23 Y732.5744 I-2.5848 J-1.5228
G1 X490.192 Y734.2684
G3 X490.1642 Y734.3128 I-2.558 J-1.5674
G1 X489.0972 Y735.9878
G3 X489.0687 Y736.0317 I-2.5302 J-1.6118
G1 X487.9727 Y737.6877
G3 X487.9429 Y737.7318 I-2.5017 J-1.6557
G1 X486.8179 Y739.3678
G3 X486.7886 Y739.4097 I-2.4719 J-1.6998
G1 X485.6356 Y741.0267
G3 X485.6051 Y741.0688 I-2.4426 J-1.7417
G1 X484.4241 Y742.6658
G3 X484.3917 Y742.7087 I-2.4121 J-1.7838
G1 X483.1827 Y744.2837
G3 X483.1508 Y744.3246 I-2.3797 J-1.8267
G1 X481.9138 Y745.8796
G3 X481.8808 Y745.9203 I-2.3478 J-1.8676
G1 X480.6178 Y747.4523
G3 X480.584 Y747.4926 I-2.3148 J-1.9083
G1 X479.294 Y749.0026
G3 X479.2602 Y749.0415 I-2.281 J-1.9486
G1 X477.9442 Y750.5295
G3 X477.9092 Y750.5684 I-2.2472 J-1.9875
G1 X476.5682 Y752.0324
G3 X476.5317 Y752.0715 I-2.2122 J-2.0264
G1 X475.1637 Y753.5125
G3 X475.1274 Y753.5501 I-2.1757 J-2.0655
G1 X473.7354 Y754.9661
G3 X473.6991 Y755.0024 I-2.1394 J-2.1031
G1 X472.2831 Y756.3944
G3 X472.2447 Y756.4315 I-2.1031 J-2.1394
G1 X470.8037 Y757.7985
G3 X470.7662 Y757.8335 I-2.0647 J-2.1765
G1 X469.3022 Y759.1755
G3 X469.2632 Y759.2106 I-2.0272 J-2.2115
G1 X467.7762 Y760.5266
G3 X467.7359 Y760.5616 I-1.9882 J-2.2466
G1 X466.2249 Y761.8516
G3 X466.1853 Y761.8848 I-1.9479 J-2.2816
G1 X464.6533 Y763.1478
G3 X464.6124 Y763.1809 I-1.9083 J-2.3148
G1 X463.0584 Y764.4169
G3 X463.017 Y764.4493 I-1.8674 J-2.3479
G1 X461.441 Y765.6583
G3 X461.4005 Y765.6888 I-1.826 J-2.3803
G1 X459.8045 Y766.8708
G3 X459.7607 Y766.9026 I-1.7855 J-2.4108
G1 X458.1437 Y768.0556
G3 X458.1011 Y768.0854 I-1.7417 J-2.4426
G1 X456.4641 Y769.2104
G3 X456.4207 Y769.2397 I-1.6991 J-2.4724
G1 X454.7647 Y770.3357
G3 X454.7208 Y770.3642 I-1.6557 J-2.5017
G1 X453.0458 Y771.4312
G3 X453.0021 Y771.4586 I-1.6118 J-2.5302
G1 X451.3091 Y772.4966
G3 X451.2631 Y772.5242 I-1.5681 J-2.5576
G1 X449.5511 Y773.5322
G3 X449.5067 Y773.5578 I-1.5221 J-2.5852
G1 X447.7787 Y774.5358
G3 X447.7313 Y774.5621 I-1.4777 J-2.6108
G1 X445.9853 Y775.5091
G3 X445.9406 Y775.5329 I-1.4303 J-2.6371
G1 X444.1796 Y776.4499
G3 X444.1332 Y776.4735 I-1.3856 J-2.6609
G1 X442.3552 Y777.3605
G3 X442.3079 Y777.3836 I-1.3392 J-2.6845
G1 X440.5159 Y778.2386
G3 X440.4675 Y778.2612 I-1.2919 J-2.7076
G1 X438.6605 Y779.0842
G3 X438.613 Y779.1053 I-1.2435 J-2.7302
G1 X436.791 Y779.8973
G3 X436.7435 Y779.9175 I-1.196 J-2.7513
G1 X434.9095 Y780.6775
G3 X434.8606 Y780.6972 I-1.1485 J-2.7715
G1 X433.0126 Y781.4252
G3 X432.9639 Y781.4439 I-1.0996 J-2.7912
G1 X431.1029 Y782.1399
G3 X431.0522 Y782.1584 I-1.0509 J-2.8099
G1 X429.1802 Y782.8204
G3 X429.1332 Y782.8365 I-1.0002 J-2.8284
G1 X427.2502 Y783.4675
G3 X427.1989 Y783.4842 I-0.9532 J-2.8445
G1 X425.3049 Y784.0812
G3 X425.2551 Y784.0965 I-0.9019 J-2.8612
G1 X423.3511 Y784.6605
G3 X423.301 Y784.6748 I-0.8521 J-2.8765
G1 X421.387 Y785.2058
G3 X421.3357 Y785.2196 I-0.802 J-2.8908
G1 X419.4127 Y785.7166
G3 X419.3629 Y785.729 I-0.7507 J-2.9046
G1 X417.4319 Y786.193
G3 X417.3791 Y786.2052 I-0.7009 J-2.917
G1 X415.4401 Y786.6342
G3 X415.3902 Y786.6447 I-0.6481 J-2.9292
G1 X413.4442 Y787.0407
G3 X413.3928 Y787.0508 I-0.5982 J-2.9397
G1 X411.4398 Y787.4128
G3 X411.3884 Y787.4218 I-0.5468 J-2.9498
G1 X409.4294 Y787.7498
G3 X409.3781 Y787.7579 I-0.4954 J-2.9588
G1 X407.4141 Y788.0519
G3 X407.3612 Y788.0594 I-0.4441 J-2.9669
G1 X405.3922 Y788.3184
G3 X405.3409 Y788.3247 I-0.3912 J-2.9744
G1 X403.3679 Y788.5497
G3 X403.315 Y788.5552 I-0.3399 J-2.9807
G1 X401.338 Y788.7452
G3 X401.2866 Y788.7497 I-0.287 J-2.9862
G1 X399.3066 Y788.9057
G3 X399.2538 Y788.9094 I-0.2356 J-2.9907
G1 X397.2718 Y789.0304
G3 X397.2204 Y789.0331 I-0.1828 J-2.9944
G1 X396.6326 Y789.0589
G3 X394.133 Y790.4 I-2.4996 J-1.6589
G1 X0.0
G3 X-3.0 Y787.4 I0.0 J-3.0
G1 Y0.0
G3 X0.0 Y-3.0 I3.0 J0.0
G1 X558.8
G3 X561.8 Y0.0 I0.0 J3.0
G1 Y16.05
G1 X560.9213 Y16.9287
G1 X561.8 Y16.05
G1 F300.0 Z-13.0
G1 F800.0 X682.8
G1 X683.6787 Y16.9287
G1 X682.8 Y16.05
G1 Y0.0
G3 X685.8 Y-3.0 I3.0 J0.0
G1 X711.2
G3 X714.2 Y0.0 I0.0 J3.0
G1 Y1.0
G3 X714.0723 Y1.8659 I-3.0 J0.0
G1 X507.1513 Y688.2659
G3 X506.7145 Y689.1517 I-2.8723 J-0.8659
G1 X506.4909 Y690.6451
G3 X506.4831 Y690.6949 I-2.9669 J-0.4441
G1 X506.1561 Y692.6539
G3 X506.1468 Y692.7068 I-2.9591 J-0.4939
G1 X505.7848 Y694.6598
G3 X505.7747 Y694.7112 I-2.9498 J-0.5468
G1 X505.3787 Y696.6572
G3 X505.3678 Y696.7085 I-2.9397 J-0.5982
G1 X504.9378 Y698.6475
G3 X504.926 Y698.6989 I-2.9288 J-0.6495
G1 X504.462 Y700.6299
G3 X504.4496 Y700.6797 I-2.917 J-0.7009
G1 X503.9526 Y702.6027
G3 X503.9387 Y702.6544 I-2.9046 J-0.7507
G1 X503.4077 Y704.5674
G3 X503.3936 Y704.6166 I-2.8907 J-0.8024
G1 X502.8296 Y706.5216
G3 X502.8142 Y706.5719 I-2.8766 J-0.8516
G1 X502.2172 Y708.4659
G3 X502.201 Y708.5159 I-2.8612 J-0.9019
G1 X501.571 Y710.3989
G3 X501.5539 Y710.4485 I-2.845 J-0.9519
G1 X500.8909 Y712.3205
G3 X500.8727 Y712.3704 I-2.8279 J-1.0015
G1 X500.1767 Y714.2304
G3 X500.1582 Y714.2786 I-2.8097 J-1.0514
G1 X499.4302 Y716.1266
G3 X499.4107 Y716.1749 I-2.7912 J-1.0996
G1 X498.6507 Y718.0099
G3 X498.6301 Y718.0585 I-2.7717 J-1.1479
G1 X497.8381 Y719.8795
G3 X497.8174 Y719.9259 I-2.7511 J-1.1965
G1 X496.9944 Y721.7339
G3 X496.9716 Y721.7829 I-2.7304 J-1.2429
G1 X496.1166 Y723.5749
G3 X496.0938 Y723.6216 I-2.7076 J-1.2919
G1 X495.2078 Y725.3986
G3 X495.1842 Y725.445 I-2.6848 J-1.3386
G1 X494.2672 Y727.207
G3 X494.2421 Y727.2541 I-2.6612 J-1.385
G1 X493.2941 Y728.9991
G3 X493.2692 Y729.044 I-2.6361 J-1.4321
G1 X492.2912 Y730.773
G3 X492.2648 Y730.8188 I-2.6112 J-1.477
G1 X491.2568 Y732.5298
G3 X491.23 Y732.5744 I-2.5848 J-1.5228
G1 X490.192 Y734.2684
G3 X490.1642 Y734.3128 I-2.558 J-1.5674
G1 X489.0972 Y735.9878
G3 X489.0687 Y736.0317 I-2.5302 J-1.6118
G1 X487.9727 Y737.6877
G3 X487.9429 Y737.7318 I-2.5017 J-1.6557
G1 X486.8179 Y739.3678
G3 X486.7886 Y739.4097 I-2.4719 J-1.6998
G1 X485.6356 Y741.0267
G3 X485.6051 Y741.0688 I-2.4426 J-1.7417
G1 X484.4241 Y742.6658
G3 X484.3917 Y742.7087 I-2.4121 J-1.7838
G1 X483.1827 Y744.2837
G3 X483.1508 Y744.3246 I-2.3797 J-1.8267
G1 X481.9138 Y745.8796
G3 X481.8808 Y745.9203 I-2.3478 J-1.8676
G1 X480.6178 Y747.4523
G3 X480.584 Y747.4926 I-2.3148 J-1.9083
G1 X479.294 Y749.0026
G3 X479.2602 Y749.0415 I-2.281 J-1.9486
G1 X477.9442 Y750.5295
G3 X477.9092 Y750.5684 I-2.2472 J-1.9875
G1 X476.5682 Y752.0324
G3 X476.5317 Y752.0715 I-2.2122 J-2.0264
G1 X475.1637 Y753.5125
G3 X475.1274 Y753.5501 I-2.1757 J-2.0655
G1 X473.7354 Y754.9661
G3 X473.6991 Y755.0024 I-2.1394 J-2.1031
G1 X472.2831 Y756.3944
G3 X472.2447 Y756.4315 I-2.1031 J-2.1394
G1 X470.8037 Y757.7985
G3 X470.7662 Y757.8335 I-2.0647 J-2.1765
G1 X469.3022 Y759.1755
G3 X469.2632 Y759.2106 I-2.0272 J-2.2115
G1 X467.7762 Y760.5266
G3 X467.7359 Y760.5616 I-1.9882 J-2.2466
G1 X466.2249 Y761.8516
G3 X466.1853 Y761.8848 I-1.9479 J-2.2816
G1 X464.6533 Y763.1478
G3 X464.6124 Y763.1809 I-1.9083 J-2.3148
G1 X463.0584 Y764.4169
G3 X463.017 Y764.4493 I-1.8674 J-2.3479
G1 X461.441 Y765.6583
G3 X461.4005 Y765.6888 I-1.826 J-2.3803
G1 X459.8045 Y766.8708
G3 X459.7607 Y766.9026 I-1.7855 J-2.4108
G1 X458.1437 Y768.0556
G3 X458.1011 Y768.0854 I-1.7417 J-2.4426
G1 X456.4641 Y769.2104
G3 X456.4207 Y769.2397 I-1.6991 J-2.4724
G1 X454.7647 Y770.3357
G3 X454.7208 Y770.3642 I-1.6557 J-2.5017
G1 X453.0458 Y771.4312
G3 X453.0021 Y771.4586 I-1.6118 J-2.5302
G1 X451.3091 Y772.4966
G3 X451.2631 Y772.5242 I-1.5681 J-2.5576
G1 X449.5511 Y773.5322
G3 X449.5067 Y773.5578 I-1.5221 J-2.5852
G1 X447.7787 Y774.5358
G3 X447.7313 Y774.5621 I-1.4777 J-2.6108
G1 X445.9853 Y775.5091
G3 X445.9406 Y775.5329 I-1.4303 J-2.6371
G1 X444.1796 Y776.4499
G3 X444.1332 Y776.4735 I-1.3856 J-2.6609
G1 X442.3552 Y777.3605
G3 X442.3079 Y777.3836 I-1.3392 J-2.6845
G1 X440.5159 Y778.2386
G3 X440.4675 Y778.2612 I-1.2919 J-2.7076
G1 X438.6605 Y779.0842
G3 X438.613 Y779.1053 I-1.2435 J-2.7302
G1 X436.791 Y779.8973
G3 X436.7435 Y779.9175 I-1.196 J-2.7513
G1 X434.9095 Y780.6775
G3 X434.8606 Y780.6972 I-1.1485 J-2.7715
G1 X433.0126 Y781.4252
G3 X432.9639 Y781.4439 I-1.0996 J-2.7912
G1 X431.1029 Y782.1399
G3 X431.0522 Y782.1584 I-1.0509 J-2.8099
G1 X429.1802 Y782.8204
G3 X429.1332 Y782.8365 I-1.0002 J-2.8284
G1 X427.2502 Y783.4675
G3 X427.1989 Y783.4842 I-0.9532 J-2.8445
G1 X425.3049 Y784.0812
G3 X425.2551 Y784.0965 I-0.9019 J-2.8612
G1 X423.3511 Y784.6605
G3 X423.301 Y784.6748 I-0.8521 J-2.8765
G1 X421.387 Y785.2058
G3 X421.3357 Y785.2196 I-0.802 J-2.8908
G1 X419.4127 Y785.7166
G3 X419.3629 Y785.729 I-0.7507 J-2.9046
G1 X417.4319 Y786.193
G3 X417.3791 Y786.2052 I-0.7009 J-2.917
G1 X415.4401 Y786.6342
G3 X415.3902 Y786.6447 I-0.6481 J-2.9292
G1 X413.4442 Y787.0407
G3 X413.3928 Y787.0508 I-0.5982 J-2.9397
G1 X411.4398 Y787.4128
G3 X411.3884 Y787.4218 I-0.5468 J-2.9498
G1 X409.4294 Y787.7498
G3 X409.3781 Y787.7579 I-0.4954 J-2.9588
G1 X407.4141 Y788.0519
G3 X407.3612 Y788.0594 I-0.4441 J-2.9669
G1 X405.3922 Y788.3184
G3 X405.3409 Y788.3247 I-0.3912 J-2.9744
G1 X403.3679 Y788.5497
G3 X403.315 Y788.5552 I-0.3399 J-2.9807
G1 X401.338 Y788.7452
G3 X401.2866 Y788.7497 I-0.287 J-2.9862
G1 X399.3066 Y788.9057
G3 X399.2538 Y788.9094 I-0.2356 J-2.9907
G1 X397.2718 Y789.0304
G3 X397.2204 Y789.0331 I-0.1828 J-2.9944
G1 X396.6326 Y789.0589
G3 X394.133 Y790.4 I-2.4996 J-1.6589
G1 X0.0
G3 X-3.0 Y787.4 I0.0 J-3.0
G1 Y0.0
G3 X0.0 Y-3.0 I3.0 J0.0
G1 X558.8
G3 X561.8 Y0.0 I0.0 J3.0
G1 Y16.05
G1 X560.9213 Y16.9287
G1 X561.8 Y16.05
G1 F300.0 Z-14.0
G1 F800.0 X682.8
G1 X683.6787 Y16.9287
G1 X682.8 Y16.05
G1 Y0.0
G3 X685.8 Y-3.0 I3.0 J0.0
G1 X711.2
G3 X714.2 Y0.0 I0.0 J3.0
G1 Y1.0
G3 X714.0723 Y1.8659 I-3.0 J0.0
G1 X507.1513 Y688.2659
G3 X506.7145 Y689.1517 I-2.8723 J-0.8659
G1 X506.4909 Y690.6451
G3 X506.4831 Y690.6949 I-2.9669 J-0.4441
G1 X506.1561 Y692.6539
G3 X506.1468 Y692.7068 I-2.9591 J-0.4939
G1 X505.7848 Y694.6598
G3 X505.7747 Y694.7112 I-2.9498 J-0.5468
G1 X505.3787 Y696.6572
G3 X505.3678 Y696.7085 I-2.9397 J-0.5982
G1 X504.9378 Y698.6475
G3 X504.926 Y698.6989 I-2.9288 J-0.6495
G1 X504.462 Y700.6299
G3 X504.4496 Y700.6797 I-2.917 J-0.7009
G1 X503.9526 Y702.6027
G3 X503.9387 Y702.6544 I-2.9046 J-0.7507
G1 X503.4077 Y704.5674
G3 X503.3936 Y704.6166 I-2.8907 J-0.8024
G1 X502.8296 Y706.5216
G3 X502.8142 Y706.5719 I-2.8766 J-0.8516
G1 X502.2172 Y708.4659
G3 X502.201 Y708.5159 I-2.8612 J-0.9019
G1 X501.571 Y710.3989
G3 X501.5539 Y710.4485 I-2.845 J-0.9519
G1 X500.8909 Y712.3205
G3 X500.8727 Y712.3704 I-2.8279 J-1.0015
G1 X500.1767 Y714.2304
G3 X500.1582 Y714.2786 I-2.8097 J-1.0514
G1 X499.4302 Y716.1266
G3 X499.4107 Y716.1749 I-2.7912 J-1.0996
G1 X498.6507 Y718.0099
G3 X498.6301 Y718.0585 I-2.7717 J-1.1479
G1 X497.8381 Y719.8795
G3 X497.8174 Y719.9259 I-2.7511 J-1.1965
G1 X496.9944 Y721.7339
G3 X496.9716 Y721.7829 I-2.7304 J-1.2429
G1 X496.1166 Y723.5749
G3 X496.0938 Y723.6216 I-2.7076 J-1.2919
G1 X495.2078 Y725.3986
G3 X495.1842 Y725.445 I-2.6848 J-1.3386
G1 X494.2672 Y727.207
G3 X494.2421 Y727.2541 I-2.6612 J-1.385
G1 X493.2941 Y728.9991
G3 X493.2692 Y729.044 I-2.6361 J-1.4321
G1 X492.2912 Y730.773
G3 X492.2648 Y730.8188 I-2.6112 J-1.477
G1 X491.2568 Y732.5298
G3 X491.23 Y732.5744 I-2.5848 J-1.5228
G1 X490.192 Y734.2684
G3 X490.1642 Y734.3128 I-2.558 J-1.5674
G1 X489.0972 Y735.9878
G3 X489.0687 Y736.0317 I-2.5302 J-1.6118
G1 X487.9727 Y737.6877
G3 X487.9429 Y737.7318 I-2.5017 J-1.6557
G1 X486.8179 Y739.3678
G3 X486.7886 Y739.4097 I-2.4719 J-1.6998
G1 X485.6356 Y741.0267
G3 X485.6051 Y741.0688 I-2.4426 J-1.7417
G1 X484.4241 Y742.6658
G3 X484.3917 Y742.7087 I-2.4121 J-1.7838
G1 X483.1827 Y744.2837
G3 X483.1508 Y744.3246 I-2.3797 J-1.8267
G1 X481.9138 Y745.8796
G3 X481.8808 Y745.9203 I-2.3478 J-1.8676
G1 X480.6178 Y747.4523
G3 X480.584 Y747.4926 I-2.3148 J-1.9083
G1 X479.294 Y749.0026
G3 X479.2602 Y749.0415 I-2.281 J-1.9486
G1 X477.9442 Y750.5295
G3 X477.9092 Y750.5684 I-2.2472 J-1.9875
G1 X476.5682 Y752.0324
G3 X476.5317 Y752.0715 I-2.2122 J-2.0264
G1 X475.1637 Y753.5125
G3 X475.1274 Y753.5501 I-2.1757 J-2.0655
G1 X473.7354 Y754.9661
G3 X473.6991 Y755.0024 I-2.1394 J-2.1031
G1 X472.2831 Y756.3944
G3 X472.2447 Y756.4315 I-2.1031 J-2.1394
G1 X470.8037 Y757.7985
G3 X470.7662 Y757.8335 I-2.0647 J-2.1765
G1 X469.3022 Y759.1755
G3 X469.2632 Y759.2106 I-2.0272 J-2.2115
G1 X467.7762 Y760.5266
G3 X467.7359 Y760.5616 I-1.9882 J-2.2466
G1 X466.2249 Y761.8516
G3 X466.1853 Y761.8848 I-1.9479 J-2.2816
G1 X464.6533 Y763.1478
G3 X464.6124 Y763.1809 I-1.9083 J-2.3148
G1 X463.0584 Y764.4169
G3 X463.017 Y764.4493 I-1.8674 J-2.3479
G1 X461.441 Y765.6583
G3 X461.4005 Y765.6888 I-1.826 J-2.3803
G1 X459.8045 Y766.8708
G3 X459.7607 Y766.9026 I-1.7855 J-2.4108
G1 X458.1437 Y768.0556
G3 X458.1011 Y768.0854 I-1.7417 J-2.4426
G1 X456.4641 Y769.2104
G3 X456.4207 Y769.2397 I-1.6991 J-2.4724
G1 X454.7647 Y770.3357
G3 X454.7208 Y770.3642 I-1.6557 J-2.5017
G1 X453.0458 Y771.4312
G3 X453.0021 Y771.4586 I-1.6118 J-2.5302
G1 X451.3091 Y772.4966
G3 X451.2631 Y772.5242 I-1.5681 J-2.5576
G1 X449.5511 Y773.5322
G3 X449.5067 Y773.5578 I-1.5221 J-2.5852
G1 X447.7787 Y774.5358
G3 X447.7313 Y774.5621 I-1.4777 J-2.6108
G1 X445.9853 Y775.5091
G3 X445.9406 Y775.5329 I-1.4303 J-2.6371
G1 X444.1796 Y776.4499
G3 X444.1332 Y776.4735 I-1.3856 J-2.6609
G1 X442.3552 Y777.3605
G3 X442.3079 Y777.3836 I-1.3392 J-2.6845
G1 X440.5159 Y778.2386
G3 X440.4675 Y778.2612 I-1.2919 J-2.7076
G1 X438.6605 Y779.0842
G3 X438.613 Y779.1053 I-1.2435 J-2.7302
G1 X436.791 Y779.8973
G3 X436.7435 Y779.9175 I-1.196 J-2.7513
G1 X434.9095 Y780.6775
G3 X434.8606 Y780.6972 I-1.1485 J-2.7715
G1 X433.0126 Y781.4252
G3 X432.9639 Y781.4439 I-1.0996 J-2.7912
G1 X431.1029 Y782.1399
G3 X431.0522 Y782.1584 I-1.0509 J-2.8099
G1 X429.1802 Y782.8204
G3 X429.1332 Y782.8365 I-1.0002 J-2.8284
G1 X427.2502 Y783.4675
G3 X427.1989 Y783.4842 I-0.9532 J-2.8445
G1 X425.3049 Y784.0812
G3 X425.2551 Y784.0965 I-0.9019 J-2.8612
G1 X423.3511 Y784.6605
G3 X423.301 Y784.6748 I-0.8521 J-2.8765
G1 X421.387 Y785.2058
G3 X421.3357 Y785.2196 I-0.802 J-2.8908
G1 X419.4127 Y785.7166
G3 X419.3629 Y785.729 I-0.7507 J-2.9046
G1 X417.4319 Y786.193
G3 X417.3791 Y786.2052 I-0.7009 J-2.917
G1 X415.4401 Y786.6342
G3 X415.3902 Y786.6447 I-0.6481 J-2.9292
G1 X413.4442 Y787.0407
G3 X413.3928 Y787.0508 I-0.5982 J-2.9397
G1 X411.4398 Y787.4128
G3 X411.3884 Y787.4218 I-0.5468 J-2.9498
G1 X409.4294 Y787.7498
G3 X409.3781 Y787.7579 I-0.4954 J-2.9588
G1 X407.4141 Y788.0519
G3 X407.3612 Y788.0594 I-0.4441 J-2.9669
G1 X405.3922 Y788.3184
G3 X405.3409 Y788.3247 I-0.3912 J-2.9744
G1 X403.3679 Y788.5497
G3 X403.315 Y788.5552 I-0.3399 J-2.9807
G1 X401.338 Y788.7452
G3 X401.2866 Y788.7497 I-0.287 J-2.9862
G1 X399.3066 Y788.9057
G3 X399.2538 Y788.9094 I-0.2356 J-2.9907
G1 X397.2718 Y789.0304
G3 X397.2204 Y789.0331 I-0.1828 J-2.9944
G1 X396.6326 Y789.0589
G3 X394.133 Y790.4 I-2.4996 J-1.6589
G1 X0.0
G3 X-3.0 Y787.4 I0.0 J-3.0
G1 Y0.0
G3 X0.0 Y-3.0 I3.0 J0.0
G1 X558.8
G3 X561.8 Y0.0 I0.0 J3.0
G1 Y16.05
G1 X560.9213 Y16.9287
G1 X561.8 Y16.05
G1 F300.0 Z-15.0
G1 F800.0 X682.8
G1 X683.6787 Y16.9287
G1 X682.8 Y16.05
G1 Y0.0
G3 X685.8 Y-3.0 I3.0 J0.0
G1 X711.2
G3 X714.2 Y0.0 I0.0 J3.0
G1 Y1.0
G3 X714.0723 Y1.8659 I-3.0 J0.0
G1 X507.1513 Y688.2659
G3 X506.7145 Y689.1517 I-2.8723 J-0.8659
G1 X506.4909 Y690.6451
G3 X506.4831 Y690.6949 I-2.9669 J-0.4441
G1 X506.1561 Y692.6539
G3 X506.1468 Y692.7068 I-2.9591 J-0.4939
G1 X505.7848 Y694.6598
G3 X505.7747 Y694.7112 I-2.9498 J-0.5468
G1 X505.3787 Y696.6572
G3 X505.3678 Y696.7085 I-2.9397 J-0.5982
G1 X504.9378 Y698.6475
G3 X504.926 Y698.6989 I-2.9288 J-0.6495
G1 X504.462 Y700.6299
G3 X504.4496 Y700.6797 I-2.917 J-0.7009
G1 X503.9526 Y702.6027
G3 X503.9387 Y702.6544 I-2.9046 J-0.7507
G1 X503.4077 Y704.5674
G3 X503.3936 Y704.6166 I-2.8907 J-0.8024
G1 X502.8296 Y706.5216
G3 X502.8142 Y706.5719 I-2.8766 J-0.8516
G1 X502.2172 Y708.4659
G3 X502.201 Y708.5159 I-2.8612 J-0.9019
G1 X501.571 Y710.3989
G3 X501.5539 Y710.4485 I-2.845 J-0.9519
G1 X500.8909 Y712.3205
G3 X500.8727 Y712.3704 I-2.8279 J-1.0015
G1 X500.1767 Y714.2304
G3 X500.1582 Y714.2786 I-2.8097 J-1.0514
G1 X499.4302 Y716.1266
G3 X499.4107 Y716.1749 I-2.7912 J-1.0996
G1 X498.6507 Y718.0099
G3 X498.6301 Y718.0585 I-2.7717 J-1.1479
G1 X497.8381 Y719.8795
G3 X497.8174 Y719.9259 I-2.7511 J-1.1965
G1 X496.9944 Y721.7339
G3 X496.9716 Y721.7829 I-2.7304 J-1.2429
G1 X496.1166 Y723.5749
G3 X496.0938 Y723.6216 I-2.7076 J-1.2919
G1 X495.2078 Y725.3986
G3 X495.1842 Y725.445 I-2.6848 J-1.3386
G1 X494.2672 Y727.207
G3 X494.2421 Y727.2541 I-2.6612 J-1.385
G1 X493.2941 Y728.9991
G3 X493.2692 Y729.044 I-2.6361 J-1.4321
G1 X492.2912 Y730.773
G3 X492.2648 Y730.8188 I-2.6112 J-1.477
G1 X491.2568 Y732.5298
G3 X491.23 Y732.5744 I-2.5848 J-1.5228
G1 X490.192 Y734.2684
G3 X490.1642 Y734.3128 I-2.558 J-1.5674
G1 X489.0972 Y735.9878
G3 X489.0687 Y736.0317 I-2.5302 J-1.6118
G1 X487.9727 Y737.6877
G3 X487.9429 Y737.7318 I-2.5017 J-1.6557
G1 X486.8179 Y739.3678
G3 X486.7886 Y739.4097 I-2.4719 J-1.6998
G1 X485.6356 Y741.0267
G3 X485.6051 Y741.0688 I-2.4426 J-1.7417
G1 X484.4241 Y742.6658
G3 X484.3917 Y742.7087 I-2.4121 J-1.7838
G1 X483.1827 Y744.2837
G3 X483.1508 Y744.3246 I-2.3797 J-1.8267
G1 X481.9138 Y745.8796
G3 X481.8808 Y745.9203 I-2.3478 J-1.8676
G1 X480.6178 Y747.4523
G3 X480.584 Y747.4926 I-2.3148 J-1.9083
G1 X479.294 Y749.0026
G3 X479.2602 Y749.0415 I-2.281 J-1.9486
G1 X477.9442 Y750.5295
G3 X477.9092 Y750.5684 I-2.2472 J-1.9875
G1 X476.5682 Y752.0324
G3 X476.5317 Y752.0715 I-2.2122 J-2.0264
G1 X475.1637 Y753.5125
G3 X475.1274 Y753.5501 I-2.1757 J-2.0655
G1 X473.7354 Y754.9661
G3 X473.6991 Y755.0024 I-2.1394 J-2.1031
G1 X472.2831 Y756.3944
G3 X472.2447 Y756.4315 I-2.1031 J-2.1394
G1 X470.8037 Y757.7985
G3 X470.7662 Y757.8335 I-2.0647 J-2.1765
G1 X469.3022 Y759.1755
G3 X469.2632 Y759.2106 I-2.0272 J-2.2115
G1 X467.7762 Y760.5266
G3 X467.7359 Y760.5616 I-1.9882 J-2.2466
G1 X466.2249 Y761.8516
G3 X466.1853 Y761.8848 I-1.9479 J-2.2816
G1 X464.6533 Y763.1478
G3 X464.6124 Y763.1809 I-1.9083 J-2.3148
G1 X463.0584 Y764.4169
G3 X463.017 Y764.4493 I-1.8674 J-2.3479
G1 X461.441 Y765.6583
G3 X461.4005 Y765.6888 I-1.826 J-2.3803
G1 X459.8045 Y766.8708
G3 X459.7607 Y766.9026 I-1.7855 J-2.4108
G1 X458.1437 Y768.0556
G3 X458.1011 Y768.0854 I-1.7417 J-2.4426
G1 X456.4641 Y769.2104
G3 X456.4207 Y769.2397 I-1.6991 J-2.4724
G1 X454.7647 Y770.3357
G3 X454.7208 Y770.3642 I-1.6557 J-2.5017
G1 X453.0458 Y771.4312
G3 X453.0021 Y771.4586 I-1.6118 J-2.5302
G1 X451.3091 Y772.4966
G3 X451.2631 Y772.5242 I-1.5681 J-2.5576
G1 X449.5511 Y773.5322
G3 X449.5067 Y773.5578 I-1.5221 J-2.5852
G1 X447.7787 Y774.5358
G3 X447.7313 Y774.5621 I-1.4777 J-2.6108
G1 X445.9853 Y775.5091
G3 X445.9406 Y775.5329 I-1.4303 J-2.6371
G1 X444.1796 Y776.4499
G3 X444.1332 Y776.4735 I-1.3856 J-2.6609
G1 X442.3552 Y777.3605
G3 X442.3079 Y777.3836 I-1.3392 J-2.6845
G1 X440.5159 Y778.2386
G3 X440.4675 Y778.2612 I-1.2919 J-2.7076
G1 X438.6605 Y779.0842
G3 X438.613 Y779.1053 I-1.2435 J-2.7302
G1 X436.791 Y779.8973
G3 X436.7435 Y779.9175 I-1.196 J-2.7513
G1 X434.9095 Y780.6775
G3 X434.8606 Y780.6972 I-1.1485 J-2.7715
G1 X433.0126 Y781.4252
G3 X432.9639 Y781.4439 I-1.0996 J-2.7912
G1 X431.1029 Y782.1399
G3 X431.0522 Y782.1584 I-1.0509 J-2.8099
G1 X429.1802 Y782.8204
G3 X429.1332 Y782.8365 I-1.0002 J-2.8284
G1 X427.2502 Y783.4675
G3 X427.1989 Y783.4842 I-0.9532 J-2.8445
G1 X425.3049 Y784.0812
G3 X425.2551 Y784.0965 I-0.9019 J-2.8612
G1 X423.3511 Y784.6605
G3 X423.301 Y784.6748 I-0.8521 J-2.8765
G1 X421.387 Y785.2058
G3 X421.3357 Y785.2196 I-0.802 J-2.8908
G1 X419.4127 Y785.7166
G3 X419.3629 Y785.729 I-0.7507 J-2.9046
G1 X417.4319 Y786.193
G3 X417.3791 Y786.2052 I-0.7009 J-2.917
G1 X415.4401 Y786.6342
G3 X415.3902 Y786.6447 I-0.6481 J-2.9292
G1 X413.4442 Y787.0407
G3 X413.3928 Y787.0508 I-0.5982 J-2.9397
G1 X411.4398 Y787.4128
G3 X411.3884 Y787.4218 I-0.5468 J-2.9498
G1 X409.4294 Y787.7498
G3 X409.3781 Y787.7579 I-0.4954 J-2.9588
G1 X407.4141 Y788.0519
G3 X407.3612 Y788.0594 I-0.4441 J-2.9669
G1 X405.3922 Y788.3184
G3 X405.3409 Y788.3247 I-0.3912 J-2.9744
G1 X403.3679 Y788.5497
G3 X403.315 Y788.5552 I-0.3399 J-2.9807
G1 X401.338 Y788.7452
G3 X401.2866 Y788.7497 I-0.287 J-2.9862
G1 X399.3066 Y788.9057
G3 X399.2538 Y788.9094 I-0.2356 J-2.9907
G1 X397.2718 Y789.0304
G3 X397.2204 Y789.0331 I-0.1828 J-2.9944
G1 X396.6326 Y789.0589
G3 X394.133 Y790.4 I-2.4996 J-1.6589
G1 X0.0
G3 X-3.0 Y787.4 I0.0 J-3.0
G1 Y0.0
G3 X0.0 Y-3.0 I3.0 J0.0
G1 X558.8
G3 X561.8 Y0.0 I0.0 J3.0
G1 Y16.05
G1 X560.9213 Y16.9287
G1 X561.8 Y16.05
G1 F300.0 Z-16.0
G1 F800.0 X682.8
G1 X683.6787 Y16.9287
G1 X682.8 Y16.05
G1 Y0.0
G3 X685.8 Y-3.0 I3.0 J0.0
G1 X711.2
G3 X714.2 Y0.0 I0.0 J3.0
G1 Y1.0
G3 X714.0723 Y1.8659 I-3.0 J0.0
G1 X598.0166 Y386.847
G0 Z-15.0
G1 X591.9554 Y406.9533
G1 F300.0 Z-16.0
G1 F800.0 X507.1513 Y688.2659
G3 X506.7145 Y689.1517 I-2.8723 J-0.8659
G1 X506.4909 Y690.6451
G3 X506.4831 Y690.6949 I-2.9669 J-0.4441
G1 X506.1561 Y692.6539
G3 X506.1468 Y692.7068 I-2.9591 J-0.4939
G1 X505.7848 Y694.6598
G3 X505.7747 Y694.7112 I-2.9498 J-0.5468
G1 X505.3787 Y696.6572
G3 X505.3678 Y696.7085 I-2.9397 J-0.5982
G1 X504.9378 Y698.6475
G3 X504.926 Y698.6989 I-2.9288 J-0.6495
G1 X504.462 Y700.6299
G3 X504.4496 Y700.6797 I-2.917 J-0.7009
G1 X503.9526 Y702.6027
G3 X503.9387 Y702.6544 I-2.9046 J-0.7507
G1 X503.4077 Y704.5674
G3 X503.3936 Y704.6166 I-2.8907 J-0.8024
G1 X502.8296 Y706.5216
G3 X502.8142 Y706.5719 I-2.8766 J-0.8516
G1 X502.2172 Y708.4659
G3 X502.201 Y708.5159 I-2.8612 J-0.9019
G1 X501.571 Y710.3989
G3 X501.5539 Y710.4485 I-2.845 J-0.9519
G1 X500.8909 Y712.3205
G3 X500.8727 Y712.3704 I-2.8279 J-1.0015
G1 X500.1767 Y714.2304
G3 X500.1582 Y714.2786 I-2.8097 J-1.0514
G1 X499.4302 Y716.1266
G3 X499.4107 Y716.1749 I-2.7912 J-1.0996
G1 X498.6507 Y718.0099
G3 X498.6301 Y718.0585 I-2.7717 J-1.1479
G1 X497.8381 Y719.8795
G3 X497.8174 Y719.9259 I-2.7511 J-1.1965
G1 X496.9944 Y721.7339
G3 X496.9716 Y721.7829 I-2.7304 J-1.2429
G1 X496.1166 Y723.5749
G3 X496.0938 Y723.6216 I-2.7076 J-1.2919
G1 X495.2078 Y725.3986
G3 X495.1842 Y725.445 I-2.6848 J-1.3386
G1 X494.2672 Y727.207
G3 X494.2421 Y727.2541 I-2.6612 J-1.385
G1 X493.2941 Y728.9991
G3 X493.2692 Y729.044 I-2.6361 J-1.4321
G1 X492.2912 Y730.773
G3 X492.2648 Y730.8188 I-2.6112 J-1.477
G1 X491.2568 Y732.5298
G3 X491.23 Y732.5744 I-2.5848 J-1.5228
G1 X490.192 Y734.2684
G3 X490.1642 Y734.3128 I-2.558 J-1.5674
G1 X489.0972 Y735.9878
G3 X489.0687 Y736.0317 I-2.5302 J-1.6118
G1 X487.9727 Y737.6877
G3 X487.9429 Y737.7318 I-2.5017 J-1.6557
G1 X486.8179 Y739.3678
G3 X486.7886 Y739.4097 I-2.4719 J-1.6998
G1 X485.6356 Y741.0267
G3 X485.6051 Y741.0688 I-2.4426 J-1.7417
G1 X484.4241 Y742.6658
G3 X484.3917 Y742.7087 I-2.4121 J-1.7838
G1 X483.1827 Y744.2837
G3 X483.1508 Y744.3246 I-2.3797 J-1.8267
G1 X481.9138 Y745.8796
G3 X481.8808 Y745.9203 I-2.3478 J-1.8676
G1 X480.6178 Y747.4523
G3 X480.584 Y747.4926 I-2.3148 J-1.9083
G1 X479.294 Y749.0026
G3 X479.2602 Y749.0415 I-2.281 J-1.9486
G1 X477.9442 Y750.5295
G3 X477.9092 Y750.5684 I-2.2472 J-1.9875
G1 X476.5682 Y752.0324
G3 X476.5317 Y752.0715 I-2.2122 J-2.0264
G1 X475.1637 Y753.5125
G3 X475.1274 Y753.5501 I-2.1757 J-2.0655
G1 X473.7354 Y754.9661
G3 X473.6991 Y755.0024 I-2.1394 J-2.1031
G1 X472.2831 Y756.3944
G3 X472.2447 Y756.4315 I-2.1031 J-2.1394
G1 X470.8037 Y757.7985
G3 X470.7662 Y757.8335 I-2.0647 J-2.1765
G1 X469.3022 Y759.1755
G3 X469.2632 Y759.2106 I-2.0272 J-2.2115
G1 X467.7762 Y760.5266
G3 X467.7359 Y760.5616 I-1.9882 J-2.2466
G1 X466.2249 Y761.8516
G3 X466.1853 Y761.8848 I-1.9479 J-2.2816
G1 X464.6533 Y763.1478
G3 X464.6124 Y763.1809 I-1.9083 J-2.3148
G1 X463.0584 Y764.4169
G3 X463.017 Y764.4493 I-1.8674 J-2.3479
G1 X461.441 Y765.6583
G3 X461.4005 Y765.6888 I-1.826 J-2.3803
G1 X459.8045 Y766.8708
G3 X459.7607 Y766.9026 I-1.7855 J-2.4108
G1 X458.1437 Y768.0556
G3 X458.1011 Y768.0854 I-1.7417 J-2.4426
G1 X456.4641 Y769.2104
G3 X456.4207 Y769.2397 I-1.6991 J-2.4724
G1 X454.7647 Y770.3357
G3 X454.7208 Y770.3642 I-1.6557 J-2.5017
G1 X453.0458 Y771.4312
G3 X453.0021 Y771.4586 I-1.6118 J-2.5302
G1 X451.3091 Y772.4966
G3 X451.2631 Y772.5242 I-1.5681 J-2.5576
G1 X449.5511 Y773.5322
G3 X449.5067 Y773.5578 I-1.5221 J-2.5852
G1 X447.7787 Y774.5358
G3 X447.7313 Y774.5621 I-1.4777 J-2.6108
G1 X445.9853 Y775.5091
G3 X445.9406 Y775.5329 I-1.4303 J-2.6371
G1 X444.1796 Y776.4499
G3 X444.1332 Y776.4735 I-1.3856 J-2.6609
G1 X442.3552 Y777.3605
G3 X442.3079 Y777.3836 I-1.3392 J-2.6845
G1 X440.5159 Y778.2386
G3 X440.4675 Y778.2612 I-1.2919 J-2.7076
G1 X438.6605 Y779.0842
G3 X438.613 Y779.1053 I-1.2435 J-2.7302
G1 X436.791 Y779.8973
G3 X436.7435 Y779.9175 I-1.196 J-2.7513
G1 X434.9095 Y780.6775
G3 X434.8606 Y780.6972 I-1.1485 J-2.7715
G1 X433.0126 Y781.4252
G3 X432.9639 Y781.4439 I-1.0996 J-2.7912
G1 X431.1029 Y782.1399
G3 X431.0522 Y782.1584 I-1.0509 J-2.8099
G1 X429.1802 Y782.8204
G3 X429.1332 Y782.8365 I-1.0002 J-2.8284
G1 X427.2502 Y783.4675
G3 X427.1989 Y783.4842 I-0.9532 J-2.8445
G1 X425.3049 Y784.0812
G3 X425.2551 Y784.0965 I-0.9019 J-2.8612
G1 X423.3511 Y784.6605
G3 X423.301 Y784.6748 I-0.8521 J-2.8765
G1 X421.387 Y785.2058
G3 X421.3357 Y785.2196 I-0.802 J-2.8908
G1 X419.4127 Y785.7166
G3 X419.3629 Y785.729 I-0.7507 J-2.9046
G1 X417.4319 Y786.193
G3 X417.3791 Y786.2052 I-0.7009 J-2.917
G1 X415.4401 Y786.6342
G3 X415.3902 Y786.6447 I-0.6481 J-2.9292
G1 X413.4442 Y787.0407
G3 X413.3928 Y787.0508 I-0.5982 J-2.9397
G1 X411.4398 Y787.4128
G3 X411.3884 Y787.4218 I-0.5468 J-2.9498
G1 X409.4294 Y787.7498
G3 X409.3781 Y787.7579 I-0.4954 J-2.9588
G1 X407.4141 Y788.0519
G3 X407.3612 Y788.0594 I-0.4441 J-2.9669
G1 X405.3922 Y788.3184
G3 X405.3409 Y788.3247 I-0.3912 J-2.9744
G1 X403.3679 Y788.5497
G3 X403.315 Y788.5552 I-0.3399 J-2.9807
G1 X401.338 Y788.7452
G3 X401.2866 Y788.7497 I-0.287 J-2.9862
G1 X399.3066 Y788.9057
G3 X399.2538 Y788.9094 I-0.2356 J-2.9907
G1 X397.2718 Y789.0304
G3 X397.2204 Y789.0331 I-0.1828 J-2.9944
G1 X396.6326 Y789.0589
G3 X394.133 Y790.4 I-2.4996 J-1.6589
G1 X225.5
G0 Z-15.0
G1 X204.5
G1 F300.0 Z-16.0
G1 F800.0 X0.0
G3 X-3.0 Y787.4 I0.0 J-3.0
G1 Y407.5
G0 Z-15.0
G1 Y386.5
G1 F300.0 Z-16.0
G1 F800.0 Y0.0
G3 X0.0 Y-3.0 I3.0 J0.0
G1 X320.5
G0 Z-15.0
G1 X341.5
G1 F300.0 Z-16.0
G1 F800.0 X558.8
G3 X561.8 Y0.0 I0.0 J3.0
G1 Y16.05
G1 X560.9213 Y16.9287
G1 X561.8 Y16.05
G1 F300.0 Z-17.0
G1 F800.0 X682.8
G1 X683.6787 Y16.9287
G1 X682.8 Y16.05
G1 Y0.0
G3 X685.8 Y-3.0 I3.0 J0.0
G1 X711.2
G3 X714.2 Y0.0 I0.0 J3.0
G1 Y1.0
G3 X714.0723 Y1.8659 I-3.0 J0.0
G1 X598.0166 Y386.847
G0 Z-15.0
G1 X591.9554 Y406.9533
G1 F300.0 Z-17.0
G1 F800.0 X507.1513 Y688.2659
G3 X506.7145 Y689.1517 I-2.8723 J-0.8659
G1 X506.4909 Y690.6451
G3 X506.4831 Y690.6949 I-2.9669 J-0.4441
G1 X506.1561 Y692.6539
G3 X506.1468 Y692.7068 I-2.9591 J-0.4939
G1 X505.7848 Y694.6598
G3 X505.7747 Y694.7112 I-2.9498 J-0.5468
G1 X505.3787 Y696.6572
G3 X505.3678 Y696.7085 I-2.9397 J-0.5982
G1 X504.9378 Y698.6475
G3 X504.926 Y698.6989 I-2.9288 J-0.6495
G1 X504.462 Y700.6299
G3 X504.4496 Y700.6797 I-2.917 J-0.7009
G1 X503.9526 Y702.6027
G3 X503.9387 Y702.6544 I-2.9046 J-0.7507
G1 X503.4077 Y704.5674
G3 X503.3936 Y704.6166 I-2.8907 J-0.8024
G1 X502.8296 Y706.5216
G3 X502.8142 Y706.5719 I-2.8766 J-0.8516
G1 X502.2172 Y708.4659
G3 X502.201 Y708.5159 I-2.8612 J-0.9019
G1 X501.571 Y710.3989
G3 X501.5539 Y710.4485 I-2.845 J-0.9519
G1 X500.8909 Y712.3205
G3 X500.8727 Y712.3704 I-2.8279 J-1.0015
G1 X500.1767 Y714.2304
G3 X500.1582 Y714.2786 I-2.8097 J-1.0514
G1 X499.4302 Y716.1266
G3 X499.4107 Y716.1749 I-2.7912 J-1.0996
G1 X498.6507 Y718.0099
G3 X498.6301 Y718.0585 I-2.7717 J-1.1479
G1 X497.8381 Y719.8795
G3 X497.8174 Y719.9259 I-2.7511 J-1.1965
G1 X496.9944 Y721.7339
G3 X496.9716 Y721.7829 I-2.7304 J-1.2429
G1 X496.1166 Y723.5749
G3 X496.0938 Y723.6216 I-2.7076 J-1.2919
G1 X495.2078 Y725.3986
G3 X495.1842 Y725.445 I-2.6848 J-1.3386
G1 X494.2672 Y727.207
G3 X494.2421 Y727.2541 I-2.6612 J-1.385
G1 X493.2941 Y728.9991
G3 X493.2692 Y729.044 I-2.6361 J-1.4321
G1 X492.2912 Y730.773
G3 X492.2648 Y730.8188 I-2.6112 J-1.477
G1 X491.2568 Y732.5298
G3 X491.23 Y732.5744 I-2.5848 J-1.5228
G1 X490.192 Y734.2684
G3 X490.1642 Y734.3128 I-2.558 J-1.5674
G1 X489.0972 Y735.9878
G3 X489.0687 Y736.0317 I-2.5302 J-1.6118
G1 X487.9727 Y737.6877
G3 X487.9429 Y737.7318 I-2.5017 J-1.6557
G1 X486.8179 Y739.3678
G3 X486.7886 Y739.4097 I-2.4719 J-1.6998
G1 X485.6356 Y741.0267
G3 X485.6051 Y741.0688 I-2.4426 J-1.7417
G1 X484.4241 Y742.6658
G3 X484.3917 Y742.7087 I-2.4121 J-1.7838
G1 X483.1827 Y744.2837
G3 X483.1508 Y744.3246 I-2.3797 J-1.8267
G1 X481.9138 Y745.8796
G3 X481.8808 Y745.9203 I-2.3478 J-1.8676
G1 X480.6178 Y747.4523
G3 X480.584 Y747.4926 I-2.3148 J-1.9083
G1 X479.294 Y749.0026
G3 X479.2602 Y749.0415 I-2.281 J-1.9486
G1 X477.9442 Y750.5295
G3 X477.9092 Y750.5684 I-2.2472 J-1.9875
G1 X476.5682 Y752.0324
G3 X476.5317 Y752.0715 I-2.2122 J-2.0264
G1 X475.1637 Y753.5125
G3 X475.1274 Y753.5501 I-2.1757 J-2.0655
G1 X473.7354 Y754.9661
G3 X473.6991 Y755.0024 I-2.1394 J-2.1031
G1 X472.2831 Y756.3944
G3 X472.2447 Y756.4315 I-2.1031 J-2.1394
G1 X470.8037 Y757.7985
G3 X470.7662 Y757.8335 I-2.0647 J-2.1765
G1 X469.3022 Y759.1755
G3 X469.2632 Y759.2106 I-2.0272 J-2.2115
G1 X467.7762 Y760.5266
G3 X467.7359 Y760.5616 I-1.9882 J-2.2466
G1 X466.2249 Y761.8516
G3 X466.1853 Y761.8848 I-1.9479 J-2.2816
G1 X464.6533 Y763.1478
G3 X464.6124 Y763.1809 I-1.9083 J-2.3148
G1 X463.0584 Y764.4169
G3 X463.017 Y764.4493 I-1.8674 J-2.3479
G1 X461.441 Y765.6583
G3 X461.4005 Y765.6888 I-1.826 J-2.3803
G1 X459.8045 Y766.8708
G3 X459.7607 Y766.9026 I-1.7855 J-2.4108
G1 X458.1437 Y768.0556
G3 X458.1011 Y768.0854 I-1.7417 J-2.4426
G1 X456.4641 Y769.2104
G3 X456.4207 Y769.2397 I-1.6991 J-2.4724
G1 X454.7647 Y770.3357
G3 X454.7208 Y770.3642 I-1.6557 J-2.5017
G1 X453.0458 Y771.4312
G3 X453.0021 Y771.4586 I-1.6118 J-2.5302
G1 X451.3091 Y772.4966
G3 X451.2631 Y772.5242 I-1.5681 J-2.5576
G1 X449.5511 Y773.5322
G3 X449.5067 Y773.5578 I-1.5221 J-2.5852
G1 X447.7787 Y774.5358
G3 X447.7313 Y774.5621 I-1.4777 J-2.6108
G1 X445.9853 Y775.5091
G3 X445.9406 Y775.5329 I-1.4303 J-2.6371
G1 X444.1796 Y776.4499
G3 X444.1332 Y776.4735 I-1.3856 J-2.6609
G1 X442.3552 Y777.3605
G3 X442.3079 Y777.3836 I-1.3392 J-2.6845
G1 X440.5159 Y778.2386
G3 X440.4675 Y778.2612 I-1.2919 J-2.7076
G1 X438.6605 Y779.0842
G3 X438.613 Y779.1053 I-1.2435 J-2.7302
G1 X436.791 Y779.8973
G3 X436.7435 Y779.9175 I-1.196 J-2.7513
G1 X434.9095 Y780.6775
G3 X434.8606 Y780.6972 I-1.1485 J-2.7715
G1 X433.0126 Y781.4252
G3 X432.9639 Y781.4439 I-1.0996 J-2.7912
G1 X431.1029 Y782.1399
G3 X431.0522 Y782.1584 I-1.0509 J-2.8099
G1 X429.1802 Y782.8204
G3 X429.1332 Y782.8365 I-1.0002 J-2.8284
G1 X427.2502 Y783.4675
G3 X427.1989 Y783.4842 I-0.9532 J-2.8445
G1 X425.3049 Y784.0812
G3 X425.2551 Y784.0965 I-0.9019 J-2.8612
G1 X423.3511 Y784.6605
G3 X423.301 Y784.6748 I-0.8521 J-2.8765
G1 X421.387 Y785.2058
G3 X421.3357 Y785.2196 I-0.802 J-2.8908
G1 X419.4127 Y785.7166
G3 X419.3629 Y785.729 I-0.7507 J-2.9046
G1 X417.4319 Y786.193
G3 X417.3791 Y786.2052 I-0.7009 J-2.917
G1 X415.4401 Y786.6342
G3 X415.3902 Y786.6447 I-0.6481 J-2.9292
G1 X413.4442 Y787.0407
G3 X413.3928 Y787.0508 I-0.5982 J-2.9397
G1 X411.4398 Y787.4128
G3 X411.3884 Y787.4218 I-0.5468 J-2.9498
G1 X409.4294 Y787.7498
G3 X409.3781 Y787.7579 I-0.4954 J-2.9588
G1 X407.4141 Y788.0519
G3 X407.3612 Y788.0594 I-0.4441 J-2.9669
G1 X405.3922 Y788.3184
G3 X405.3409 Y788.3247 I-0.3912 J-2.9744
G1 X403.3679 Y788.5497
G3 X403.315 Y788.5552 I-0.3399 J-2.9807
G1 X401.338 Y788.7452
G3 X401.2866 Y788.7497 I-0.287 J-2.9862
G1 X399.3066 Y788.9057
G3 X399.2538 Y788.9094 I-0.2356 J-2.9907
G1 X397.2718 Y789.0304
G3 X397.2204 Y789.0331 I-0.1828 J-2.9944
G1 X396.6326 Y789.0589
G3 X394.133 Y790.4 I-2.4996 J-1.6589
G1 X225.5
G0 Z-15.0
G1 X204.5
G1 F300.0 Z-17.0
G1 F800.0 X0.0
G3 X-3.0 Y787.4 I0.0 J-3.0
G1 Y407.5
G0 Z-15.0
G1 Y386.5
G1 F300.0 Z-17.0
G1 F800.0 Y0.0
G3 X0.0 Y-3.0 I3.0 J0.0
G1 X320.5
G0 Z-15.0
G1 X341.5
G1 F300.0 Z-17.0
G1 F800.0 X558.8
G3 X561.8 Y0.0 I0.0 J3.0
G1 Y16.05
G1 X560.9213 Y16.9287
G1 X561.8 Y16.05
G1 F300.0 Z-18.0
G1 F800.0 X682.8
G1 X683.6787 Y16.9287
G1 X682.8 Y16.05
G1 Y0.0
G3 X685.8 Y-3.0 I3.0 J0.0
G1 X711.2
G3 X714.2 Y0.0 I0.0 J3.0
G1 Y1.0
G3 X714.0723 Y1.8659 I-3.0 J0.0
G1 X598.0166 Y386.847
G0 Z-15.0
G1 X591.9554 Y406.9533
G0 Z-16.0
G1 F300.0 Z-18.0
G1 F800.0 X507.1513 Y688.2659
G3 X506.7145 Y689.1517 I-2.8723 J-0.8659
G1 X506.4909 Y690.6451
G3 X506.4831 Y690.6949 I-2.9669 J-0.4441
G1 X506.1561 Y692.6539
G3 X506.1468 Y692.7068 I-2.9591 J-0.4939
G1 X505.7848 Y694.6598
G3 X505.7747 Y694.7112 I-2.9498 J-0.5468
G1 X505.3787 Y696.6572
G3 X505.3678 Y696.7085 I-2.9397 J-0.5982
G1 X504.9378 Y698.6475
G3 X504.926 Y698.6989 I-2.9288 J-0.6495
G1 X504.462 Y700.6299
G3 X504.4496 Y700.6797 I-2.917 J-0.7009
G1 X503.9526 Y702.6027
G3 X503.9387 Y702.6544 I-2.9046 J-0.7507
G1 X503.4077 Y704.5674
G3 X503.3936 Y704.6166 I-2.8907 J-0.8024
G1 X502.8296 Y706.5216
G3 X502.8142 Y706.5719 I-2.8766 J-0.8516
G1 X502.2172 Y708.4659
G3 X502.201 Y708.5159 I-2.8612 J-0.9019
G1 X501.571 Y710.3989
G3 X501.5539 Y710.4485 I-2.845 J-0.9519
G1 X500.8909 Y712.3205
G3 X500.8727 Y712.3704 I-2.8279 J-1.0015
G1 X500.1767 Y714.2304
G3 X500.1582 Y714.2786 I-2.8097 J-1.0514
G1 X499.4302 Y716.1266
G3 X499.4107 Y716.1749 I-2.7912 J-1.0996
G1 X498.6507 Y718.0099
G3 X498.6301 Y718.0585 I-2.7717 J-1.1479
G1 X497.8381 Y719.8795
G3 X497.8174 Y719.9259 I-2.7511 J-1.1965
G1 X496.9944 Y721.7339
G3 X496.9716 Y721.7829 I-2.7304 J-1.2429
G1 X496.1166 Y723.5749
G3 X496.0938 Y723.6216 I-2.7076 J-1.2919
G1 X495.2078 Y725.3986
G3 X495.1842 Y725.445 I-2.6848 J-1.3386
G1 X494.2672 Y727.207
G3 X494.2421 Y727.2541 I-2.6612 J-1.385
G1 X493.2941 Y728.9991
G3 X493.2692 Y729.044 I-2.6361 J-1.4321
G1 X492.2912 Y730.773
G3 X492.2648 Y730.8188 I-2.6112 J-1.477
G1 X491.2568 Y732.5298
G3 X491.23 Y732.5744 I-2.5848 J-1.5228
G1 X490.192 Y734.2684
G3 X490.1642 Y734.3128 I-2.558 J-1.5674
G1 X489.0972 Y735.9878
G3 X489.0687 Y736.0317 I-2.5302 J-1.6118
G1 X487.9727 Y737.6877
G3 X487.9429 Y737.7318 I-2.5017 J-1.6557
G1 X486.8179 Y739.3678
G3 X486.7886 Y739.4097 I-2.4719 J-1.6998
G1 X485.6356 Y741.0267
G3 X485.6051 Y741.0688 I-2.4426 J-1.7417
G1 X484.4241 Y742.6658
G3 X484.3917 Y742.7087 I-2.4121 J-1.7838
G1 X483.1827 Y744.2837
G3 X483.1508 Y744.3246 I-2.3797 J-1.8267
G1 X481.9138 Y745.8796
G3 X481.8808 Y745.9203 I-2.3478 J-1.8676
G1 X480.6178 Y747.4523
G3 X480.584 Y747.4926 I-2.3148 J-1.9083
G1 X479.294 Y749.0026
G3 X479.2602 Y749.0415 I-2.281 J-1.9486
G1 X477.9442 Y750.5295
G3 X477.9092 Y750.5684 I-2.2472 J-1.9875
G1 X476.5682 Y752.0324
G3 X476.5317 Y752.0715 I-2.2122 J-2.0264
G1 X475.1637 Y753.5125
G3 X475.1274 Y753.5501 I-2.1757 J-2.0655
G1 X473.7354 Y754.9661
G3 X473.6991 Y755.0024 I-2.1394 J-2.1031
G1 X472.2831 Y756.3944
G3 X472.2447 Y756.4315 I-2.1031 J-2.1394
G1 X470.8037 Y757.7985
G3 X470.7662 Y757.8335 I-2.0647 J-2.1765
G1 X469.3022 Y759.1755
G3 X469.2632 Y759.2106 I-2.0272 J-2.2115
G1 X467.7762 Y760.5266
G3 X467.7359 Y760.5616 I-1.9882 J-2.2466
G1 X466.2249 Y761.8516
G3 X466.1853 Y761.8848 I-1.9479 J-2.2816
G1 X464.6533 Y763.1478
G3 X464.6124 Y763.1809 I-1.9083 J-2.3148
G1 X463.0584 Y764.4169
G3 X463.017 Y764.4493 I-1.8674 J-2.3479
G1 X461.441 Y765.6583
G3 X461.4005 Y765.6888 I-1.826 J-2.3803
G1 X459.8045 Y766.8708
G3 X459.7607 Y766.9026 I-1.7855 J-2.4108
G1 X458.1437 Y768.0556
G3 X458.1011 Y768.0854 I-1.7417 J-2.4426
G1 X456.4641 Y769.2104
G3 X456.4207 Y769.2397 I-1.6991 J-2.4724
G1 X454.7647 Y770.3357
G3 X454.7208 Y770.3642 I-1.6557 J-2.5017
G1 X453.0458 Y771.4312
G3 X453.0021 Y771.4586 I-1.6118 J-2.5302
G1 X451.3091 Y772.4966
G3 X451.2631 Y772.5242 I-1.5681 J-2.5576
G1 X449.5511 Y773.5322
G3 X449.5067 Y773.5578 I-1.5221 J-2.5852
G1 X447.7787 Y774.5358
G3 X447.7313 Y774.5621 I-1.4777 J-2.6108
G1 X445.9853 Y775.5091
G3 X445.9406 Y775.5329 I-1.4303 J-2.6371
G1 X444.1796 Y776.4499
G3 X444.1332 Y776.4735 I-1.3856 J-2.6609
G1 X442.3552 Y777.3605
G3 X442.3079 Y777.3836 I-1.3392 J-2.6845
G1 X440.5159 Y778.2386
G3 X440.4675 Y778.2612 I-1.2919 J-2.7076
G1 X438.6605 Y779.0842
G3 X438.613 Y779.1053 I-1.2435 J-2.7302
G1 X436.791 Y779.8973
G3 X436.7435 Y779.9175 I-1.196 J-2.7513
G1 X434.9095 Y780.6775
G3 X434.8606 Y780.6972 I-1.1485 J-2.7715
G1 X433.0126 Y781.4252
G3 X432.9639 Y781.4439 I-1.0996 J-2.7912
G1 X431.1029 Y782.1399
G3 X431.0522 Y782.1584 I-1.0509 J-2.8099
G1 X429.1802 Y782.8204
G3 X429.1332 Y782.8365 I-1.0002 J-2.8284
G1 X427.2502 Y783.4675
G3 X427.1989 Y783.4842 I-0.9532 J-2.8445
G1 X425.3049 Y784.0812
G3 X425.2551 Y784.0965 I-0.9019 J-2.8612
G1 X423.3511 Y784.6605
G3 X423.301 Y784.6748 I-0.8521 J-2.8765
G1 X421.387 Y785.2058
G3 X421.3357 Y785.2196 I-0.802 J-2.8908
G1 X419.4127 Y785.7166
G3 X419.3629 Y785.729 I-0.7507 J-2.9046
G1 X417.4319 Y786.193
G3 X417.3791 Y786.2052 I-0.7009 J-2.917
G1 X415.4401 Y786.6342
G3 X415.3902 Y786.6447 I-0.6481 J-2.9292
G1 X413.4442 Y787.0407
G3 X413.3928 Y787.0508 I-0.5982 J-2.9397
G1 X411.4398 Y787.4128
G3 X411.3884 Y787.4218 I-0.5468 J-2.9498
G1 X409.4294 Y787.7498
G3 X409.3781 Y787.7579 I-0.4954 J-2.9588
G1 X407.4141 Y788.0519
G3 X407.3612 Y788.0594 I-0.4441 J-2.9669
G1 X405.3922 Y788.3184
G3 X405.3409 Y788.3247 I-0.3912 J-2.9744
G1 X403.3679 Y788.5497
G3 X403.315 Y788.5552 I-0.3399 J-2.9807
G1 X401.338 Y788.7452
G3 X401.2866 Y788.7497 I-0.287 J-2.9862
G1 X399.3066 Y788.9057
G3 X399.2538 Y788.9094 I-0.2356 J-2.9907
G1 X397.2718 Y789.0304
G3 X397.2204 Y789.0331 I-0.1828 J-2.9944
G1 X396.6326 Y789.0589
G3 X394.133 Y790.4 I-2.4996 J-1.6589
G1 X225.5
G0 Z-15.0
G1 X204.5
G0 Z-16.0
G1 F300.0 Z-18.0
G1 F800.0 X0.0
G3 X-3.0 Y787.4 I0.0 J-3.0
G1 Y407.5
G0 Z-15.0
G1 Y386.5
G0 Z-16.0
G1 F300.0 Z-18.0
G1 F800.0 Y0.0
G3 X0.0 Y-3.0 I3.0 J0.0
G1 X320.5
G0 Z-15.0
G1 X341.5
G0 Z-16.0
G1 F300.0 Z-18.0
G1 F800.0 X558.8
G3 X561.8 Y0.0 I0.0 J3.0
G1 Y16.05
G1 X560.9213 Y16.9287
G1 X561.8 Y16.05
G1 F300.0 Z-19.0
G1 F800.0 X682.8
G1 X683.6787 Y16.9287
G1 X682.8 Y16.05
G1 Y0.0
G3 X685.8 Y-3.0 I3.0 J0.0
G1 X711.2
G3 X714.2 Y0.0 I0.0 J3.0
G1 Y1.0
G3 X714.0723 Y1.8659 I-3.0 J0.0
G1 X598.0166 Y386.847
G0 Z-15.0
G1 X591.9554 Y406.9533
G0 Z-17.0
G1 F300.0 Z-19.0
G1 F800.0 X507.1513 Y688.2659
G3 X506.7145 Y689.1517 I-2.8723 J-0.8659
G1 X506.4909 Y690.6451
G3 X506.4831 Y690.6949 I-2.9669 J-0.4441
