( Made using CamBam - http://www.cambam.co.uk )
( ParametricShelf_sheet1 1/1/2016 10:23:36 PM )
( T6 : 6.35 )
G21 G90 G64 G40
G0 Z15.0
( T6 : 6.35 )
T6 M6
( Profile1 )
G17
M3 S1000
G0 X513.323 Y972.825
G0 Z1.0
G1 F300.0 Z-1.0
G1 F800.0 X383.47
G1 X382.5401 Y971.8951
G1 X383.47 Y972.825
G1 Y984.885
G1 X382.5401 Y985.8149
G1 X383.47 Y984.885
G1 X513.323
G1 X514.2529 Y985.8149
G1 X513.323 Y984.885
G1 Y972.825
G1 X514.2529 Y971.8951
G1 X513.323 Y972.825
G1 F300.0 Z-2.0
G1 F800.0 X383.47
G1 X382.5401 Y971.8951
G1 X383.47 Y972.825
G1 Y984.885
G1 X382.5401 Y985.8149
G1 X383.47 Y984.885
G1 X513.323
G1 X514.2529 Y985.8149
G1 X513.323 Y984.885
G1 Y972.825
G1 X514.2529 Y971.8951
G1 X513.323 Y972.825
G1 F300.0 Z-3.0
G1 F800.0 X383.47
G1 X382.5401 Y971.8951
G1 X383.47 Y972.825
G1 Y984.885
G1 X382.5401 Y985.8149
G1 X383.47 Y984.885
G1 X513.323
G1 X514.2529 Y985.8149
G1 X513.323 Y984.885
G1 Y972.825
G1 X514.2529 Y971.8951
G1 X513.323 Y972.825
G1 F300.0 Z-4.0
G1 F800.0 X383.47
G1 X382.5401 Y971.8951
G1 X383.47 Y972.825
G1 Y984.885
G1 X382.5401 Y985.8149
G1 X383.47 Y984.885
G1 X513.323
G1 X514.2529 Y985.8149
G1 X513.323 Y984.885
G1 Y972.825
G1 X514.2529 Y971.8951
G1 X513.323 Y972.825
G1 F300.0 Z-5.0
G1 F800.0 X383.47
G1 X382.5401 Y971.8951
G1 X383.47 Y972.825
G1 Y984.885
G1 X382.5401 Y985.8149
G1 X383.47 Y984.885
G1 X513.323
G1 X514.2529 Y985.8149
G1 X513.323 Y984.885
G1 Y972.825
G1 X514.2529 Y971.8951
G1 X513.323 Y972.825
G1 F300.0 Z-6.0
G1 F800.0 X383.47
G1 X382.5401 Y971.8951
G1 X383.47 Y972.825
G1 Y984.885
G1 X382.5401 Y985.8149
G1 X383.47 Y984.885
G1 X513.323
G1 X514.2529 Y985.8149
G1 X513.323 Y984.885
G1 Y972.825
G1 X514.2529 Y971.8951
G1 X513.323 Y972.825
G1 F300.0 Z-7.0
G1 F800.0 X383.47
G1 X382.5401 Y971.8951
G1 X383.47 Y972.825
G1 Y984.885
G1 X382.5401 Y985.8149
G1 X383.47 Y984.885
G1 X513.323
G1 X514.2529 Y985.8149
G1 X513.323 Y984.885
G1 Y972.825
G1 X514.2529 Y971.8951
G1 X513.323 Y972.825
G1 F300.0 Z-8.0
G1 F800.0 X383.47
G1 X382.5401 Y971.8951
G1 X383.47 Y972.825
G1 Y984.885
G1 X382.5401 Y985.8149
G1 X383.47 Y984.885
G1 X513.323
G1 X514.2529 Y985.8149
G1 X513.323 Y984.885
G1 Y972.825
G1 X514.2529 Y971.8951
G1 X513.323 Y972.825
G1 F300.0 Z-9.0
G1 F800.0 X383.47
G1 X382.5401 Y971.8951
G1 X383.47 Y972.825
G1 Y984.885
G1 X382.5401 Y985.8149
G1 X383.47 Y984.885
G1 X513.323
G1 X514.2529 Y985.8149
G1 X513.323 Y984.885
G1 Y972.825
G1 X514.2529 Y971.8951
G1 X513.323 Y972.825
G1 F300.0 Z-10.0
G1 F800.0 X383.47
G1 X382.5401 Y971.8951
G1 X383.47 Y972.825
G1 Y984.885
G1 X382.5401 Y985.8149
G1 X383.47 Y984.885
G1 X513.323
G1 X514.2529 Y985.8149
G1 X513.323 Y984.885
G1 Y972.825
G1 X514.2529 Y971.8951
G1 X513.323 Y972.825
G1 F300.0 Z-11.0
G1 F800.0 X383.47
G1 X382.5401 Y971.8951
G1 X383.47 Y972.825
G1 Y984.885
G1 X382.5401 Y985.8149
G1 X383.47 Y984.885
G1 X513.323
G1 X514.2529 Y985.8149
G1 X513.323 Y984.885
G1 Y972.825
G1 X514.2529 Y971.8951
G1 X513.323 Y972.825
G1 F300.0 Z-12.0
G1 F800.0 X383.47
G1 X382.5401 Y971.8951
G1 X383.47 Y972.825
G1 Y984.885
G1 X382.5401 Y985.8149
G1 X383.47 Y984.885
G1 X513.323
G1 X514.2529 Y985.8149
G1 X513.323 Y984.885
G1 Y972.825
G1 X514.2529 Y971.8951
G1 X513.323 Y972.825
G1 F300.0 Z-13.0
G1 F800.0 X383.47
G1 X382.5401 Y971.8951
G1 X383.47 Y972.825
G1 Y984.885
G1 X382.5401 Y985.8149
G1 X383.47 Y984.885
G1 X513.323
G1 X514.2529 Y985.8149
G1 X513.323 Y984.885
G1 Y972.825
G1 X514.2529 Y971.8951
G1 X513.323 Y972.825
G1 F300.0 Z-14.0
G1 F800.0 X383.47
G1 X382.5401 Y971.8951
G1 X383.47 Y972.825
G1 Y984.885
G1 X382.5401 Y985.8149
G1 X383.47 Y984.885
G1 X513.323
G1 X514.2529 Y985.8149
G1 X513.323 Y984.885
G1 Y972.825
G1 X514.2529 Y971.8951
G1 X513.323 Y972.825
G1 F300.0 Z-15.0
G1 F800.0 X383.47
G1 X382.5401 Y971.8951
G1 X383.47 Y972.825
G1 Y984.885
G1 X382.5401 Y985.8149
G1 X383.47 Y984.885
G1 X513.323
G1 X514.2529 Y985.8149
G1 X513.323 Y984.885
G1 Y972.825
G1 X514.2529 Y971.8951
G1 X513.323 Y972.825
G1 F300.0 Z-16.0
G1 F800.0 X383.47
G1 X382.5401 Y971.8951
G1 X383.47 Y972.825
G1 Y984.885
G1 X382.5401 Y985.8149
G1 X383.47 Y984.885
G1 X513.323
G1 X514.2529 Y985.8149
G1 X513.323 Y984.885
G1 Y972.825
G1 X514.2529 Y971.8951
G1 X513.323 Y972.825
G1 F300.0 Z-17.0
G1 F800.0 X383.47
G1 X382.5401 Y971.8951
G1 X383.47 Y972.825
G1 Y984.885
G1 X382.5401 Y985.8149
G1 X383.47 Y984.885
G1 X513.323
G1 X514.2529 Y985.8149
G1 X513.323 Y984.885
G1 Y972.825
G1 X514.2529 Y971.8951
G1 X513.323 Y972.825
G1 F300.0 Z-18.0
G1 F800.0 X444.8665
G0 Z-17.0
G1 X433.5165
G1 F300.0 Z-18.0
G1 F800.0 X383.47
G1 X382.5401 Y971.8951
G1 X383.47 Y972.825
G1 Y984.885
G1 X382.5401 Y985.8149
G1 X383.47 Y984.885
G1 X451.9265
G0 Z-17.0
G1 X463.2765
G1 F300.0 Z-18.0
G1 F800.0 X513.323
G1 X514.2529 Y985.8149
G1 X513.323 Y984.885
G1 Y972.825
G1 X514.2529 Y971.8951
G1 X513.323 Y972.825
G1 F300.0 Z-19.0
G1 F800.0 X444.8665
G0 Z-17.0
G1 X433.5165
G1 F300.0 Z-19.0
G1 F800.0 X383.47
G1 X382.5401 Y971.8951
G1 X383.47 Y972.825
G1 Y984.885
G1 X382.5401 Y985.8149
G1 X383.47 Y984.885
G1 X451.9265
G0 Z-17.0
G1 X463.2765
G1 F300.0 Z-19.0
G1 F800.0 X513.323
G1 X514.2529 Y985.8149
G1 X513.323 Y984.885
G1 Y972.825
G1 X514.2529 Y971.8951
G1 X513.323 Y972.825
G1 F300.0 Z-20.0
G1 F800.0 X444.8665
G0 Z-17.0
G1 X433.5165
G0 Z-18.0
G1 F300.0 Z-20.0
G1 F800.0 X383.47
G1 X382.5401 Y971.8951
G1 X383.47 Y972.825
G1 Y984.885
G1 X382.5401 Y985.8149
G1 X383.47 Y984.885
G1 X451.9265
G0 Z-17.0
G1 X463.2765
G0 Z-18.0
G1 F300.0 Z-20.0
G1 F800.0 X513.323
G1 X514.2529 Y985.8149
G1 X513.323 Y984.885
G1 Y972.825
G1 X514.2529 Y971.8951
G1 X513.323 Y972.825
G1 F300.0 Z-21.0
G1 F800.0 X444.8665
G0 Z-17.0
G1 X433.5165
G0 Z-19.0
G1 F300.0 Z-21.0
G1 F800.0 X383.47
G1 X382.5401 Y971.8951
G1 X383.47 Y972.825
G1 Y984.885
G1 X382.5401 Y985.8149
G1 X383.47 Y984.885
G1 X451.9265
G0 Z-17.0
G1 X463.2765
G0 Z-19.0
G1 F300.0 Z-21.0
G1 F800.0 X513.323
G1 X514.2529 Y985.8149
G1 X513.323 Y984.885
G1 Y972.825
G1 X514.2529 Y971.8951
G1 X513.323 Y972.825
G1 F300.0 Z-22.0
G1 F800.0 X444.8665
G0 Z-17.0
G1 X433.5165
G0 Z-20.0
G1 F300.0 Z-22.0
G1 F800.0 X383.47
G1 X382.5401 Y971.8951
G1 X383.47 Y972.825
G1 Y984.885
G1 X382.5401 Y985.8149
G1 X383.47 Y984.885
G1 X451.9265
G0 Z-17.0
G1 X463.2765
G0 Z-20.0
G1 F300.0 Z-22.0
G1 F800.0 X513.323
G1 X514.2529 Y985.8149
G1 X513.323 Y984.885
G1 Y972.825
G1 X514.2529 Y971.8951
G1 X513.323 Y972.825
G0 Z15.0
G0 X726.3451 Y971.8951
G0 Z1.0
G1 F300.0 Z-1.0
G1 F800.0 X727.275 Y972.825
G1 Y984.885
G1 X726.3451 Y985.8149
G1 X727.275 Y984.885
G1 X949.525
G1 X950.4549 Y985.8149
G1 X949.525 Y984.885
G1 Y972.825
G1 X950.4549 Y971.8951
G1 X949.525 Y972.825
G1 X727.275
G1 X726.3451 Y971.8951
G1 F300.0 Z-2.0
G1 F800.0 X727.275 Y972.825
G1 Y984.885
G1 X726.3451 Y985.8149
G1 X727.275 Y984.885
G1 X949.525
G1 X950.4549 Y985.8149
G1 X949.525 Y984.885
G1 Y972.825
G1 X950.4549 Y971.8951
G1 X949.525 Y972.825
G1 X727.275
G1 X726.3451 Y971.8951
G1 F300.0 Z-3.0
G1 F800.0 X727.275 Y972.825
G1 Y984.885
G1 X726.3451 Y985.8149
G1 X727.275 Y984.885
G1 X949.525
G1 X950.4549 Y985.8149
G1 X949.525 Y984.885
G1 Y972.825
G1 X950.4549 Y971.8951
G1 X949.525 Y972.825
G1 X727.275
G1 X726.3451 Y971.8951
G1 F300.0 Z-4.0
G1 F800.0 X727.275 Y972.825
G1 Y984.885
G1 X726.3451 Y985.8149
G1 X727.275 Y984.885
G1 X949.525
G1 X950.4549 Y985.8149
G1 X949.525 Y984.885
G1 Y972.825
G1 X950.4549 Y971.8951
G1 X949.525 Y972.825
G1 X727.275
G1 X726.3451 Y971.8951
G1 F300.0 Z-5.0
G1 F800.0 X727.275 Y972.825
G1 Y984.885
G1 X726.3451 Y985.8149
G1 X727.275 Y984.885
G1 X949.525
G1 X950.4549 Y985.8149
G1 X949.525 Y984.885
G1 Y972.825
G1 X950.4549 Y971.8951
G1 X949.525 Y972.825
G1 X727.275
G1 X726.3451 Y971.8951
G1 F300.0 Z-6.0
G1 F800.0 X727.275 Y972.825
G1 Y984.885
G1 X726.3451 Y985.8149
G1 X727.275 Y984.885
G1 X949.525
G1 X950.4549 Y985.8149
G1 X949.525 Y984.885
G1 Y972.825
G1 X950.4549 Y971.8951
G1 X949.525 Y972.825
G1 X727.275
G1 X726.3451 Y971.8951
G1 F300.0 Z-7.0
G1 F800.0 X727.275 Y972.825
G1 Y984.885
G1 X726.3451 Y985.8149
G1 X727.275 Y984.885
G1 X949.525
G1 X950.4549 Y985.8149
G1 X949.525 Y984.885
G1 Y972.825
G1 X950.4549 Y971.8951
G1 X949.525 Y972.825
G1 X727.275
G1 X726.3451 Y971.8951
G1 F300.0 Z-8.0
G1 F800.0 X727.275 Y972.825
G1 Y984.885
G1 X726.3451 Y985.8149
G1 X727.275 Y984.885
G1 X949.525
G1 X950.4549 Y985.8149
G1 X949.525 Y984.885
G1 Y972.825
G1 X950.4549 Y971.8951
G1 X949.525 Y972.825
G1 X727.275
G1 X726.3451 Y971.8951
G1 F300.0 Z-9.0
G1 F800.0 X727.275 Y972.825
G1 Y984.885
G1 X726.3451 Y985.8149
G1 X727.275 Y984.885
G1 X949.525
G1 X950.4549 Y985.8149
G1 X949.525 Y984.885
G1 Y972.825
G1 X950.4549 Y971.8951
G1 X949.525 Y972.825
G1 X727.275
G1 X726.3451 Y971.8951
G1 F300.0 Z-10.0
G1 F800.0 X727.275 Y972.825
G1 Y984.885
G1 X726.3451 Y985.8149
G1 X727.275 Y984.885
G1 X949.525
G1 X950.4549 Y985.8149
G1 X949.525 Y984.885
G1 Y972.825
G1 X950.4549 Y971.8951
G1 X949.525 Y972.825
G1 X727.275
G1 X726.3451 Y971.8951
G1 F300.0 Z-11.0
G1 F800.0 X727.275 Y972.825
G1 Y984.885
G1 X726.3451 Y985.8149
G1 X727.275 Y984.885
G1 X949.525
G1 X950.4549 Y985.8149
G1 X949.525 Y984.885
G1 Y972.825
G1 X950.4549 Y971.8951
G1 X949.525 Y972.825
G1 X727.275
G1 X726.3451 Y971.8951
G1 F300.0 Z-12.0
G1 F800.0 X727.275 Y972.825
G1 Y984.885
G1 X726.3451 Y985.8149
G1 X727.275 Y984.885
G1 X949.525
G1 X950.4549 Y985.8149
G1 X949.525 Y984.885
G1 Y972.825
G1 X950.4549 Y971.8951
G1 X949.525 Y972.825
G1 X727.275
G1 X726.3451 Y971.8951
G1 F300.0 Z-13.0
G1 F800.0 X727.275 Y972.825
G1 Y984.885
G1 X726.3451 Y985.8149
G1 X727.275 Y984.885
G1 X949.525
G1 X950.4549 Y985.8149
G1 X949.525 Y984.885
G1 Y972.825
G1 X950.4549 Y971.8951
G1 X949.525 Y972.825
G1 X727.275
G1 X726.3451 Y971.8951
G1 F300.0 Z-14.0
G1 F800.0 X727.275 Y972.825
G1 Y984.885
G1 X726.3451 Y985.8149
G1 X727.275 Y984.885
G1 X949.525
G1 X950.4549 Y985.8149
G1 X949.525 Y984.885
G1 Y972.825
G1 X950.4549 Y971.8951
G1 X949.525 Y972.825
G1 X727.275
G1 X726.3451 Y971.8951
G1 F300.0 Z-15.0
G1 F800.0 X727.275 Y972.825
G1 Y984.885
G1 X726.3451 Y985.8149
G1 X727.275 Y984.885
G1 X949.525
G1 X950.4549 Y985.8149
G1 X949.525 Y984.885
G1 Y972.825
G1 X950.4549 Y971.8951
G1 X949.525 Y972.825
G1 X727.275
G1 X726.3451 Y971.8951
G1 F300.0 Z-16.0
G1 F800.0 X727.275 Y972.825
G1 Y984.885
G1 X726.3451 Y985.8149
G1 X727.275 Y984.885
G1 X949.525
G1 X950.4549 Y985.8149
G1 X949.525 Y984.885
G1 Y972.825
G1 X950.4549 Y971.8951
G1 X949.525 Y972.825
G1 X727.275
G1 X726.3451 Y971.8951
G1 F300.0 Z-17.0
G1 F800.0 X727.275 Y972.825
G1 Y984.885
G1 X726.3451 Y985.8149
G1 X727.275 Y984.885
G1 X949.525
G1 X950.4549 Y985.8149
G1 X949.525 Y984.885
G1 Y972.825
G1 X950.4549 Y971.8951
G1 X949.525 Y972.825
G1 X727.275
G1 X726.3451 Y971.8951
G1 F300.0 Z-18.0
G1 F800.0 X727.275 Y972.825
G1 Y984.885
G1 X726.3451 Y985.8149
G1 X727.275 Y984.885
G1 X841.93
G0 Z-17.0
G1 X853.28
G1 F300.0 Z-18.0
G1 F800.0 X949.525
G1 X950.4549 Y985.8149
G1 X949.525 Y984.885
G1 Y972.825
G1 X950.4549 Y971.8951
G1 X949.525 Y972.825
G1 X834.87
G0 Z-17.0
G1 X823.52
G1 F300.0 Z-18.0
G1 F800.0 X727.275
G1 X726.3451 Y971.8951
G1 F300.0 Z-19.0
G1 F800.0 X727.275 Y972.825
G1 Y984.885
G1 X726.3451 Y985.8149
G1 X727.275 Y984.885
G1 X841.93
G0 Z-17.0
G1 X853.28
G1 F300.0 Z-19.0
G1 F800.0 X949.525
G1 X950.4549 Y985.8149
G1 X949.525 Y984.885
G1 Y972.825
G1 X950.4549 Y971.8951
G1 X949.525 Y972.825
G1 X834.87
G0 Z-17.0
G1 X823.52
G1 F300.0 Z-19.0
G1 F800.0 X727.275
G1 X726.3451 Y971.8951
G1 F300.0 Z-20.0
G1 F800.0 X727.275 Y972.825
G1 Y984.885
G1 X726.3451 Y985.8149
G1 X727.275 Y984.885
G1 X841.93
G0 Z-17.0
G1 X853.28
G0 Z-18.0
G1 F300.0 Z-20.0
G1 F800.0 X949.525
G1 X950.4549 Y985.8149
G1 X949.525 Y984.885
G1 Y972.825
G1 X950.4549 Y971.8951
G1 X949.525 Y972.825
G1 X834.87
G0 Z-17.0
G1 X823.52
G0 Z-18.0
G1 F300.0 Z-20.0
G1 F800.0 X727.275
G1 X726.3451 Y971.8951
G1 F300.0 Z-21.0
G1 F800.0 X727.275 Y972.825
G1 Y984.885
G1 X726.3451 Y985.8149
G1 X727.275 Y984.885
G1 X841.93
G0 Z-17.0
G1 X853.28
G0 Z-19.0
G1 F300.0 Z-21.0
G1 F800.0 X949.525
G1 X950.4549 Y985.8149
G1 X949.525 Y984.885
G1 Y972.825
G1 X950.4549 Y971.8951
G1 X949.525 Y972.825
G1 X834.87
G0 Z-17.0
G1 X823.52
G0 Z-19.0
G1 F300.0 Z-21.0
G1 F800.0 X727.275
G1 X726.3451 Y971.8951
G1 F300.0 Z-22.0
G1 F800.0 X727.275 Y972.825
G1 Y984.885
G1 X726.3451 Y985.8149
G1 X727.275 Y984.885
G1 X841.93
G0 Z-17.0
G1 X853.28
G0 Z-20.0
G1 F300.0 Z-22.0
G1 F800.0 X949.525
G1 X950.4549 Y985.8149
G1 X949.525 Y984.885
G1 Y972.825
G1 X950.4549 Y971.8951
G1 X949.525 Y972.825
G1 X834.87
G0 Z-17.0
G1 X823.52
G0 Z-20.0
G1 F300.0 Z-22.0
G1 F800.0 X727.275
G1 X726.3451 Y971.8951
G0 Z15.0
G0 Y662.5999
G0 Z1.0
G1 F300.0 Z-1.0
G1 F800.0 X727.275 Y661.67
G1 X949.525
G1 X950.4549 Y662.5999
G1 X949.525 Y661.67
G1 Y649.605
G1 X950.4549 Y648.6751
G1 X949.525 Y649.605
G1 X727.275
G1 X726.3451 Y648.6751
G1 X727.275 Y649.605
G1 Y661.67
G1 X726.3451 Y662.5999
G1 F300.0 Z-2.0
G1 F800.0 X727.275 Y661.67
G1 X949.525
G1 X950.4549 Y662.5999
G1 X949.525 Y661.67
G1 Y649.605
G1 X950.4549 Y648.6751
G1 X949.525 Y649.605
G1 X727.275
G1 X726.3451 Y648.6751
G1 X727.275 Y649.605
G1 Y661.67
G1 X726.3451 Y662.5999
G1 F300.0 Z-3.0
G1 F800.0 X727.275 Y661.67
G1 X949.525
G1 X950.4549 Y662.5999
G1 X949.525 Y661.67
G1 Y649.605
G1 X950.4549 Y648.6751
G1 X949.525 Y649.605
G1 X727.275
G1 X726.3451 Y648.6751
G1 X727.275 Y649.605
G1 Y661.67
G1 X726.3451 Y662.5999
G1 F300.0 Z-4.0
G1 F800.0 X727.275 Y661.67
G1 X949.525
G1 X950.4549 Y662.5999
G1 X949.525 Y661.67
G1 Y649.605
G1 X950.4549 Y648.6751
G1 X949.525 Y649.605
G1 X727.275
G1 X726.3451 Y648.6751
G1 X727.275 Y649.605
G1 Y661.67
G1 X726.3451 Y662.5999
G1 F300.0 Z-5.0
G1 F800.0 X727.275 Y661.67
G1 X949.525
G1 X950.4549 Y662.5999
G1 X949.525 Y661.67
G1 Y649.605
G1 X950.4549 Y648.6751
G1 X949.525 Y649.605
G1 X727.275
G1 X726.3451 Y648.6751
G1 X727.275 Y649.605
G1 Y661.67
G1 X726.3451 Y662.5999
G1 F300.0 Z-6.0
G1 F800.0 X727.275 Y661.67
G1 X949.525
G1 X950.4549 Y662.5999
G1 X949.525 Y661.67
G1 Y649.605
G1 X950.4549 Y648.6751
G1 X949.525 Y649.605
G1 X727.275
G1 X726.3451 Y648.6751
G1 X727.275 Y649.605
G1 Y661.67
G1 X726.3451 Y662.5999
G1 F300.0 Z-7.0
G1 F800.0 X727.275 Y661.67
G1 X949.525
G1 X950.4549 Y662.5999
G1 X949.525 Y661.67
G1 Y649.605
G1 X950.4549 Y648.6751
G1 X949.525 Y649.605
G1 X727.275
G1 X726.3451 Y648.6751
G1 X727.275 Y649.605
G1 Y661.67
G1 X726.3451 Y662.5999
G1 F300.0 Z-8.0
G1 F800.0 X727.275 Y661.67
G1 X949.525
G1 X950.4549 Y662.5999
G1 X949.525 Y661.67
G1 Y649.605
G1 X950.4549 Y648.6751
G1 X949.525 Y649.605
G1 X727.275
G1 X726.3451 Y648.6751
G1 X727.275 Y649.605
G1 Y661.67
G1 X726.3451 Y662.5999
G1 F300.0 Z-9.0
G1 F800.0 X727.275 Y661.67
G1 X949.525
G1 X950.4549 Y662.5999
G1 X949.525 Y661.67
G1 Y649.605
G1 X950.4549 Y648.6751
G1 X949.525 Y649.605
G1 X727.275
G1 X726.3451 Y648.6751
G1 X727.275 Y649.605
G1 Y661.67
G1 X726.3451 Y662.5999
G1 F300.0 Z-10.0
G1 F800.0 X727.275 Y661.67
G1 X949.525
G1 X950.4549 Y662.5999
G1 X949.525 Y661.67
G1 Y649.605
G1 X950.4549 Y648.6751
G1 X949.525 Y649.605
G1 X727.275
G1 X726.3451 Y648.6751
G1 X727.275 Y649.605
G1 Y661.67
G1 X726.3451 Y662.5999
G1 F300.0 Z-11.0
G1 F800.0 X727.275 Y661.67
G1 X949.525
G1 X950.4549 Y662.5999
G1 X949.525 Y661.67
G1 Y649.605
G1 X950.4549 Y648.6751
G1 X949.525 Y649.605
G1 X727.275
G1 X726.3451 Y648.6751
G1 X727.275 Y649.605
G1 Y661.67
G1 X726.3451 Y662.5999
G1 F300.0 Z-12.0
G1 F800.0 X727.275 Y661.67
G1 X949.525
G1 X950.4549 Y662.5999
G1 X949.525 Y661.67
G1 Y649.605
G1 X950.4549 Y648.6751
G1 X949.525 Y649.605
G1 X727.275
G1 X726.3451 Y648.6751
G1 X727.275 Y649.605
G1 Y661.67
G1 X726.3451 Y662.5999
G1 F300.0 Z-13.0
G1 F800.0 X727.275 Y661.67
G1 X949.525
G1 X950.4549 Y662.5999
G1 X949.525 Y661.67
G1 Y649.605
G1 X950.4549 Y648.6751
G1 X949.525 Y649.605
G1 X727.275
G1 X726.3451 Y648.6751
G1 X727.275 Y649.605
G1 Y661.67
G1 X726.3451 Y662.5999
G1 F300.0 Z-14.0
G1 F800.0 X727.275 Y661.67
G1 X949.525
G1 X950.4549 Y662.5999
G1 X949.525 Y661.67
G1 Y649.605
G1 X950.4549 Y648.6751
G1 X949.525 Y649.605
G1 X727.275
G1 X726.3451 Y648.6751
G1 X727.275 Y649.605
G1 Y661.67
G1 X726.3451 Y662.5999
G1 F300.0 Z-15.0
G1 F800.0 X727.275 Y661.67
G1 X949.525
G1 X950.4549 Y662.5999
G1 X949.525 Y661.67
G1 Y649.605
G1 X950.4549 Y648.6751
G1 X949.525 Y649.605
G1 X727.275
G1 X726.3451 Y648.6751
G1 X727.275 Y649.605
G1 Y661.67
G1 X726.3451 Y662.5999
G1 F300.0 Z-16.0
G1 F800.0 X727.275 Y661.67
G1 X949.525
G1 X950.4549 Y662.5999
G1 X949.525 Y661.67
G1 Y649.605
G1 X950.4549 Y648.6751
G1 X949.525 Y649.605
G1 X727.275
G1 X726.3451 Y648.6751
G1 X727.275 Y649.605
G1 Y661.67
G1 X726.3451 Y662.5999
G1 F300.0 Z-17.0
G1 F800.0 X727.275 Y661.67
G1 X949.525
G1 X950.4549 Y662.5999
G1 X949.525 Y661.67
G1 Y649.605
G1 X950.4549 Y648.6751
G1 X949.525 Y649.605
G1 X727.275
G1 X726.3451 Y648.6751
G1 X727.275 Y649.605
G1 Y661.67
G1 X726.3451 Y662.5999
G1 F300.0 Z-18.0
G1 F800.0 X727.275 Y661.67
G1 X841.9325
G0 Z-17.0
G1 X853.2825
G1 F300.0 Z-18.0
G1 F800.0 X949.525
G1 X950.4549 Y662.5999
G1 X949.525 Y661.67
G1 Y649.605
G1 X950.4549 Y648.6751
G1 X949.525 Y649.605
G1 X834.8675
G0 Z-17.0
G1 X823.5175
G1 F300.0 Z-18.0
G1 F800.0 X727.275
G1 X726.3451 Y648.6751
G1 X727.275 Y649.605
G1 Y661.67
G1 X726.3451 Y662.5999
G1 F300.0 Z-19.0
G1 F800.0 X727.275 Y661.67
G1 X841.9325
G0 Z-17.0
G1 X853.2825
G1 F300.0 Z-19.0
G1 F800.0 X949.525
G1 X950.4549 Y662.5999
G1 X949.525 Y661.67
G1 Y649.605
G1 X950.4549 Y648.6751
G1 X949.525 Y649.605
G1 X834.8675
G0 Z-17.0
G1 X823.5175
G1 F300.0 Z-19.0
G1 F800.0 X727.275
G1 X726.3451 Y648.6751
G1 X727.275 Y649.605
G1 Y661.67
G1 X726.3451 Y662.5999
G1 F300.0 Z-20.0
G1 F800.0 X727.275 Y661.67
G1 X841.9325
G0 Z-17.0
G1 X853.2825
G0 Z-18.0
G1 F300.0 Z-20.0
G1 F800.0 X949.525
G1 X950.4549 Y662.5999
G1 X949.525 Y661.67
G1 Y649.605
G1 X950.4549 Y648.6751
G1 X949.525 Y649.605
G1 X834.8675
G0 Z-17.0
G1 X823.5175
G0 Z-18.0
G1 F300.0 Z-20.0
G1 F800.0 X727.275
G1 X726.3451 Y648.6751
G1 X727.275 Y649.605
G1 Y661.67
G1 X726.3451 Y662.5999
G1 F300.0 Z-21.0
G1 F800.0 X727.275 Y661.67
G1 X841.9325
G0 Z-17.0
G1 X853.2825
G0 Z-19.0
G1 F300.0 Z-21.0
G1 F800.0 X949.525
G1 X950.4549 Y662.5999
G1 X949.525 Y661.67
G1 Y649.605
G1 X950.4549 Y648.6751
G1 X949.525 Y649.605
G1 X834.8675
G0 Z-17.0
G1 X823.5175
G0 Z-19.0
G1 F300.0 Z-21.0
G1 F800.0 X727.275
G1 X726.3451 Y648.6751
G1 X727.275 Y649.605
G1 Y661.67
G1 X726.3451 Y662.5999
G1 F300.0 Z-22.0
G1 F800.0 X727.275 Y661.67
G1 X841.9325
G0 Z-17.0
G1 X853.2825
G0 Z-20.0
G1 F300.0 Z-22.0
G1 F800.0 X949.525
G1 X950.4549 Y662.5999
G1 X949.525 Y661.67
G1 Y649.605
G1 X950.4549 Y648.6751
G1 X949.525 Y649.605
G1 X834.8675
G0 Z-17.0
G1 X823.5175
G0 Z-20.0
G1 F300.0 Z-22.0
G1 F800.0 X727.275
G1 X726.3451 Y648.6751
G1 X727.275 Y649.605
G1 Y661.67
G1 X726.3451 Y662.5999
G0 Z15.0
G0 X511.5539
G0 Z1.0
G1 F300.0 Z-1.0
G1 F800.0 X510.624 Y661.67
G1 Y649.605
G1 X511.5539 Y648.6751
G1 X510.624 Y649.605
G1 X375.372
G1 X374.4421 Y648.6751
G1 X375.372 Y649.605
G1 Y661.67
G1 X374.4421 Y662.5999
G1 X375.372 Y661.67
G1 X510.624
G1 X511.5539 Y662.5999
G1 F300.0 Z-2.0
G1 F800.0 X510.624 Y661.67
G1 Y649.605
G1 X511.5539 Y648.6751
G1 X510.624 Y649.605
G1 X375.372
G1 X374.4421 Y648.6751
G1 X375.372 Y649.605
G1 Y661.67
G1 X374.4421 Y662.5999
G1 X375.372 Y661.67
G1 X510.624
G1 X511.5539 Y662.5999
G1 F300.0 Z-3.0
G1 F800.0 X510.624 Y661.67
G1 Y649.605
G1 X511.5539 Y648.6751
G1 X510.624 Y649.605
G1 X375.372
G1 X374.4421 Y648.6751
G1 X375.372 Y649.605
G1 Y661.67
G1 X374.4421 Y662.5999
G1 X375.372 Y661.67
G1 X510.624
G1 X511.5539 Y662.5999
G1 F300.0 Z-4.0
G1 F800.0 X510.624 Y661.67
G1 Y649.605
G1 X511.5539 Y648.6751
G1 X510.624 Y649.605
G1 X375.372
G1 X374.4421 Y648.6751
G1 X375.372 Y649.605
G1 Y661.67
G1 X374.4421 Y662.5999
G1 X375.372 Y661.67
G1 X510.624
G1 X511.5539 Y662.5999
G1 F300.0 Z-5.0
G1 F800.0 X510.624 Y661.67
G1 Y649.605
G1 X511.5539 Y648.6751
G1 X510.624 Y649.605
G1 X375.372
G1 X374.4421 Y648.6751
G1 X375.372 Y649.605
G1 Y661.67
G1 X374.4421 Y662.5999
G1 X375.372 Y661.67
G1 X510.624
G1 X511.5539 Y662.5999
G1 F300.0 Z-6.0
G1 F800.0 X510.624 Y661.67
G1 Y649.605
G1 X511.5539 Y648.6751
G1 X510.624 Y649.605
G1 X375.372
G1 X374.4421 Y648.6751
G1 X375.372 Y649.605
G1 Y661.67
G1 X374.4421 Y662.5999
G1 X375.372 Y661.67
G1 X510.624
G1 X511.5539 Y662.5999
G1 F300.0 Z-7.0
G1 F800.0 X510.624 Y661.67
G1 Y649.605
G1 X511.5539 Y648.6751
G1 X510.624 Y649.605
G1 X375.372
G1 X374.4421 Y648.6751
G1 X375.372 Y649.605
G1 Y661.67
G1 X374.4421 Y662.5999
G1 X375.372 Y661.67
G1 X510.624
G1 X511.5539 Y662.5999
G1 F300.0 Z-8.0
G1 F800.0 X510.624 Y661.67
G1 Y649.605
G1 X511.5539 Y648.6751
G1 X510.624 Y649.605
G1 X375.372
G1 X374.4421 Y648.6751
G1 X375.372 Y649.605
G1 Y661.67
G1 X374.4421 Y662.5999
G1 X375.372 Y661.67
G1 X510.624
G1 X511.5539 Y662.5999
G1 F300.0 Z-9.0
G1 F800.0 X510.624 Y661.67
G1 Y649.605
G1 X511.5539 Y648.6751
G1 X510.624 Y649.605
G1 X375.372
G1 X374.4421 Y648.6751
G1 X375.372 Y649.605
G1 Y661.67
G1 X374.4421 Y662.5999
G1 X375.372 Y661.67
G1 X510.624
G1 X511.5539 Y662.5999
G1 F300.0 Z-10.0
G1 F800.0 X510.624 Y661.67
G1 Y649.605
G1 X511.5539 Y648.6751
G1 X510.624 Y649.605
G1 X375.372
G1 X374.4421 Y648.6751
G1 X375.372 Y649.605
G1 Y661.67
G1 X374.4421 Y662.5999
G1 X375.372 Y661.67
G1 X510.624
G1 X511.5539 Y662.5999
G1 F300.0 Z-11.0
G1 F800.0 X510.624 Y661.67
G1 Y649.605
G1 X511.5539 Y648.6751
G1 X510.624 Y649.605
G1 X375.372
G1 X374.4421 Y648.6751
G1 X375.372 Y649.605
G1 Y661.67
G1 X374.4421 Y662.5999
G1 X375.372 Y661.67
G1 X510.624
G1 X511.5539 Y662.5999
G1 F300.0 Z-12.0
G1 F800.0 X510.624 Y661.67
G1 Y649.605
G1 X511.5539 Y648.6751
G1 X510.624 Y649.605
G1 X375.372
G1 X374.4421 Y648.6751
G1 X375.372 Y649.605
G1 Y661.67
G1 X374.4421 Y662.5999
G1 X375.372 Y661.67
G1 X510.624
G1 X511.5539 Y662.5999
G1 F300.0 Z-13.0
G1 F800.0 X510.624 Y661.67
G1 Y649.605
G1 X511.5539 Y648.6751
G1 X510.624 Y649.605
G1 X375.372
G1 X374.4421 Y648.6751
G1 X375.372 Y649.605
G1 Y661.67
G1 X374.4421 Y662.5999
G1 X375.372 Y661.67
G1 X510.624
G1 X511.5539 Y662.5999
G1 F300.0 Z-14.0
G1 F800.0 X510.624 Y661.67
G1 Y649.605
G1 X511.5539 Y648.6751
G1 X510.624 Y649.605
G1 X375.372
G1 X374.4421 Y648.6751
G1 X375.372 Y649.605
G1 Y661.67
G1 X374.4421 Y662.5999
G1 X375.372 Y661.67
G1 X510.624
G1 X511.5539 Y662.5999
G1 F300.0 Z-15.0
G1 F800.0 X510.624 Y661.67
G1 Y649.605
G1 X511.5539 Y648.6751
G1 X510.624 Y649.605
G1 X375.372
G1 X374.4421 Y648.6751
G1 X375.372 Y649.605
G1 Y661.67
G1 X374.4421 Y662.5999
G1 X375.372 Y661.67
G1 X510.624
G1 X511.5539 Y662.5999
G1 F300.0 Z-16.0
G1 F800.0 X510.624 Y661.67
G1 Y649.605
G1 X511.5539 Y648.6751
G1 X510.624 Y649.605
G1 X375.372
G1 X374.4421 Y648.6751
G1 X375.372 Y649.605
G1 Y661.67
G1 X374.4421 Y662.5999
G1 X375.372 Y661.67
G1 X510.624
G1 X511.5539 Y662.5999
G1 F300.0 Z-17.0
G1 F800.0 X510.624 Y661.67
G1 Y649.605
G1 X511.5539 Y648.6751
G1 X510.624 Y649.605
G1 X375.372
G1 X374.4421 Y648.6751
G1 X375.372 Y649.605
G1 Y661.67
G1 X374.4421 Y662.5999
G1 X375.372 Y661.67
G1 X510.624
G1 X511.5539 Y662.5999
G1 F300.0 Z-18.0
G1 F800.0 X510.624 Y661.67
G1 Y649.605
G1 X511.5539 Y648.6751
G1 X510.624 Y649.605
G1 X439.4655
G0 Z-17.0
G1 X428.1155
G1 F300.0 Z-18.0
G1 F800.0 X375.372
G1 X374.4421 Y648.6751
G1 X375.372 Y649.605
G1 Y661.67
G1 X374.4421 Y662.5999
G1 X375.372 Y661.67
G1 X446.5305
G0 Z-17.0
G1 X457.8805
G1 F300.0 Z-18.0
G1 F800.0 X510.624
G1 X511.5539 Y662.5999
G1 F300.0 Z-19.0
G1 F800.0 X510.624 Y661.67
G1 Y649.605
G1 X511.5539 Y648.6751
G1 X510.624 Y649.605
G1 X439.4655
G0 Z-17.0
G1 X428.1155
G1 F300.0 Z-19.0
G1 F800.0 X375.372
G1 X374.4421 Y648.6751
G1 X375.372 Y649.605
G1 Y661.67
G1 X374.4421 Y662.5999
G1 X375.372 Y661.67
G1 X446.5305
G0 Z-17.0
G1 X457.8805
G1 F300.0 Z-19.0
G1 F800.0 X510.624
G1 X511.5539 Y662.5999
G1 F300.0 Z-20.0
G1 F800.0 X510.624 Y661.67
G1 Y649.605
G1 X511.5539 Y648.6751
G1 X510.624 Y649.605
G1 X439.4655
G0 Z-17.0
G1 X428.1155
G0 Z-18.0
G1 F300.0 Z-20.0
G1 F800.0 X375.372
G1 X374.4421 Y648.6751
G1 X375.372 Y649.605
G1 Y661.67
G1 X374.4421 Y662.5999
G1 X375.372 Y661.67
G1 X446.5305
G0 Z-17.0
G1 X457.8805
G0 Z-18.0
G1 F300.0 Z-20.0
G1 F800.0 X510.624
G1 X511.5539 Y662.5999
G1 F300.0 Z-21.0
G1 F800.0 X510.624 Y661.67
G1 Y649.605
G1 X511.5539 Y648.6751
G1 X510.624 Y649.605
G1 X439.4655
G0 Z-17.0
G1 X428.1155
G0 Z-19.0
G1 F300.0 Z-21.0
G1 F800.0 X375.372
G1 X374.4421 Y648.6751
G1 X375.372 Y649.605
G1 Y661.67
G1 X374.4421 Y662.5999
G1 X375.372 Y661.67
G1 X446.5305
G0 Z-17.0
G1 X457.8805
G0 Z-19.0
G1 F300.0 Z-21.0
G1 F800.0 X510.624
G1 X511.5539 Y662.5999
G1 F300.0 Z-22.0
G1 F800.0 X510.624 Y661.67
G1 Y649.605
G1 X511.5539 Y648.6751
G1 X510.624 Y649.605
G1 X439.4655
G0 Z-17.0
G1 X428.1155
G0 Z-20.0
G1 F300.0 Z-22.0
G1 F800.0 X375.372
G1 X374.4421 Y648.6751
G1 X375.372 Y649.605
G1 Y661.67
G1 X374.4421 Y662.5999
G1 X375.372 Y661.67
G1 X446.5305
G0 Z-17.0
G1 X457.8805
G0 Z-20.0
G1 F300.0 Z-22.0
G1 F800.0 X510.624
G1 X511.5539 Y662.5999
G0 Z15.0
G0 X508.8539 Y339.3849
G0 Z1.0
G1 F300.0 Z-1.0
G1 F800.0 X507.924 Y338.455
G1 Y326.39
G1 X508.8539 Y325.4601
G1 X507.924 Y326.39
G1 X367.273
G1 X366.3431 Y325.4601
G1 X367.273 Y326.39
G1 Y338.455
G1 X366.3431 Y339.3849
G1 X367.273 Y338.455
G1 X507.924
G1 X508.8539 Y339.3849
G1 F300.0 Z-2.0
G1 F800.0 X507.924 Y338.455
G1 Y326.39
G1 X508.8539 Y325.4601
G1 X507.924 Y326.39
G1 X367.273
G1 X366.3431 Y325.4601
G1 X367.273 Y326.39
G1 Y338.455
G1 X366.3431 Y339.3849
G1 X367.273 Y338.455
G1 X507.924
G1 X508.8539 Y339.3849
G1 F300.0 Z-3.0
G1 F800.0 X507.924 Y338.455
G1 Y326.39
G1 X508.8539 Y325.4601
G1 X507.924 Y326.39
G1 X367.273
G1 X366.3431 Y325.4601
G1 X367.273 Y326.39
G1 Y338.455
G1 X366.3431 Y339.3849
G1 X367.273 Y338.455
G1 X507.924
G1 X508.8539 Y339.3849
G1 F300.0 Z-4.0
G1 F800.0 X507.924 Y338.455
G1 Y326.39
G1 X508.8539 Y325.4601
G1 X507.924 Y326.39
G1 X367.273
G1 X366.3431 Y325.4601
G1 X367.273 Y326.39
G1 Y338.455
G1 X366.3431 Y339.3849
G1 X367.273 Y338.455
G1 X507.924
G1 X508.8539 Y339.3849
G1 F300.0 Z-5.0
G1 F800.0 X507.924 Y338.455
G1 Y326.39
G1 X508.8539 Y325.4601
G1 X507.924 Y326.39
G1 X367.273
G1 X366.3431 Y325.4601
G1 X367.273 Y326.39
G1 Y338.455
G1 X366.3431 Y339.3849
G1 X367.273 Y338.455
G1 X507.924
G1 X508.8539 Y339.3849
G1 F300.0 Z-6.0
G1 F800.0 X507.924 Y338.455
G1 Y326.39
G1 X508.8539 Y325.4601
G1 X507.924 Y326.39
G1 X367.273
G1 X366.3431 Y325.4601
G1 X367.273 Y326.39
G1 Y338.455
G1 X366.3431 Y339.3849
G1 X367.273 Y338.455
G1 X507.924
G1 X508.8539 Y339.3849
G1 F300.0 Z-7.0
G1 F800.0 X507.924 Y338.455
G1 Y326.39
G1 X508.8539 Y325.4601
G1 X507.924 Y326.39
G1 X367.273
G1 X366.3431 Y325.4601
G1 X367.273 Y326.39
G1 Y338.455
G1 X366.3431 Y339.3849
G1 X367.273 Y338.455
G1 X507.924
G1 X508.8539 Y339.3849
G1 F300.0 Z-8.0
G1 F800.0 X507.924 Y338.455
G1 Y326.39
G1 X508.8539 Y325.4601
G1 X507.924 Y326.39
G1 X367.273
G1 X366.3431 Y325.4601
G1 X367.273 Y326.39
G1 Y338.455
G1 X366.3431 Y339.3849
G1 X367.273 Y338.455
G1 X507.924
G1 X508.8539 Y339.3849
G1 F300.0 Z-9.0
G1 F800.0 X507.924 Y338.455
G1 Y326.39
G1 X508.8539 Y325.4601
G1 X507.924 Y326.39
G1 X367.273
G1 X366.3431 Y325.4601
G1 X367.273 Y326.39
G1 Y338.455
G1 X366.3431 Y339.3849
G1 X367.273 Y338.455
G1 X507.924
G1 X508.8539 Y339.3849
G1 F300.0 Z-10.0
G1 F800.0 X507.924 Y338.455
G1 Y326.39
G1 X508.8539 Y325.4601
G1 X507.924 Y326.39
G1 X367.273
G1 X366.3431 Y325.4601
G1 X367.273 Y326.39
G1 Y338.455
G1 X366.3431 Y339.3849
G1 X367.273 Y338.455
G1 X507.924
G1 X508.8539 Y339.3849
G1 F300.0 Z-11.0
G1 F800.0 X507.924 Y338.455
G1 Y326.39
G1 X508.8539 Y325.4601
G1 X507.924 Y326.39
G1 X367.273
G1 X366.3431 Y325.4601
G1 X367.273 Y326.39
G1 Y338.455
G1 X366.3431 Y339.3849
G1 X367.273 Y338.455
G1 X507.924
G1 X508.8539 Y339.3849
G1 F300.0 Z-12.0
G1 F800.0 X507.924 Y338.455
G1 Y326.39
G1 X508.8539 Y325.4601
G1 X507.924 Y326.39
G1 X367.273
G1 X366.3431 Y325.4601
G1 X367.273 Y326.39
G1 Y338.455
G1 X366.3431 Y339.3849
G1 X367.273 Y338.455
G1 X507.924
G1 X508.8539 Y339.3849
G1 F300.0 Z-13.0
G1 F800.0 X507.924 Y338.455
G1 Y326.39
G1 X508.8539 Y325.4601
G1 X507.924 Y326.39
G1 X367.273
G1 X366.3431 Y325.4601
G1 X367.273 Y326.39
G1 Y338.455
G1 X366.3431 Y339.3849
G1 X367.273 Y338.455
G1 X507.924
G1 X508.8539 Y339.3849
G1 F300.0 Z-14.0
G1 F800.0 X507.924 Y338.455
G1 Y326.39
G1 X508.8539 Y325.4601
G1 X507.924 Y326.39
G1 X367.273
G1 X366.3431 Y325.4601
G1 X367.273 Y326.39
G1 Y338.455
G1 X366.3431 Y339.3849
G1 X367.273 Y338.455
G1 X507.924
G1 X508.8539 Y339.3849
G1 F300.0 Z-15.0
G1 F800.0 X507.924 Y338.455
G1 Y326.39
G1 X508.8539 Y325.4601
G1 X507.924 Y326.39
G1 X367.273
G1 X366.3431 Y325.4601
G1 X367.273 Y326.39
G1 Y338.455
G1 X366.3431 Y339.3849
G1 X367.273 Y338.455
G1 X507.924
G1 X508.8539 Y339.3849
G1 F300.0 Z-16.0
G1 F800.0 X507.924 Y338.455
G1 Y326.39
G1 X508.8539 Y325.4601
G1 X507.924 Y326.39
G1 X367.273
G1 X366.3431 Y325.4601
G1 X367.273 Y326.39
G1 Y338.455
G1 X366.3431 Y339.3849
G1 X367.273 Y338.455
G1 X507.924
G1 X508.8539 Y339.3849
G1 F300.0 Z-17.0
G1 F800.0 X507.924 Y338.455
G1 Y326.39
G1 X508.8539 Y325.4601
G1 X507.924 Y326.39
G1 X367.273
G1 X366.3431 Y325.4601
G1 X367.273 Y326.39
G1 Y338.455
G1 X366.3431 Y339.3849
G1 X367.273 Y338.455
G1 X507.924
G1 X508.8539 Y339.3849
G1 F300.0 Z-18.0
G1 F800.0 X507.924 Y338.455
G1 Y326.39
G1 X508.8539 Y325.4601
G1 X507.924 Y326.39
G1 X434.066
G0 Z-17.0
G1 X422.716
G1 F300.0 Z-18.0
G1 F800.0 X367.273
G1 X366.3431 Y325.4601
G1 X367.273 Y326.39
G1 Y338.455
G1 X366.3431 Y339.3849
G1 X367.273 Y338.455
G1 X441.131
G0 Z-17.0
G1 X452.481
G1 F300.0 Z-18.0
G1 F800.0 X507.924
G1 X508.8539 Y339.3849
G1 F300.0 Z-19.0
G1 F800.0 X507.924 Y338.455
G1 Y326.39
G1 X508.8539 Y325.4601
G1 X507.924 Y326.39
G1 X434.066
G0 Z-17.0
G1 X422.716
G1 F300.0 Z-19.0
G1 F800.0 X367.273
G1 X366.3431 Y325.4601
G1 X367.273 Y326.39
G1 Y338.455
G1 X366.3431 Y339.3849
G1 X367.273 Y338.455
G1 X441.131
G0 Z-17.0
G1 X452.481
G1 F300.0 Z-19.0
G1 F800.0 X507.924
G1 X508.8539 Y339.3849
G1 F300.0 Z-20.0
G1 F800.0 X507.924 Y338.455
G1 Y326.39
G1 X508.8539 Y325.4601
G1 X507.924 Y326.39
G1 X434.066
G0 Z-17.0
G1 X422.716
G0 Z-18.0
G1 F300.0 Z-20.0
G1 F800.0 X367.273
G1 X366.3431 Y325.4601
G1 X367.273 Y326.39
G1 Y338.455
G1 X366.3431 Y339.3849
G1 X367.273 Y338.455
G1 X441.131
G0 Z-17.0
G1 X452.481
G0 Z-18.0
G1 F300.0 Z-20.0
G1 F800.0 X507.924
G1 X508.8539 Y339.3849
G1 F300.0 Z-21.0
G1 F800.0 X507.924 Y338.455
G1 Y326.39
G1 X508.8539 Y325.4601
G1 X507.924 Y326.39
G1 X434.066
G0 Z-17.0
G1 X422.716
G0 Z-19.0
G1 F300.0 Z-21.0
G1 F800.0 X367.273
G1 X366.3431 Y325.4601
G1 X367.273 Y326.39
G1 Y338.455
G1 X366.3431 Y339.3849
G1 X367.273 Y338.455
G1 X441.131
G0 Z-17.0
G1 X452.481
G0 Z-19.0
G1 F300.0 Z-21.0
G1 F800.0 X507.924
G1 X508.8539 Y339.3849
G1 F300.0 Z-22.0
G1 F800.0 X507.924 Y338.455
G1 Y326.39
G1 X508.8539 Y325.4601
G1 X507.924 Y326.39
G1 X434.066
G0 Z-17.0
G1 X422.716
G0 Z-20.0
G1 F300.0 Z-22.0
G1 F800.0 X367.273
G1 X366.3431 Y325.4601
G1 X367.273 Y326.39
G1 Y338.455
G1 X366.3431 Y339.3849
G1 X367.273 Y338.455
G1 X441.131
G0 Z-17.0
G1 X452.481
G0 Z-20.0
G1 F300.0 Z-22.0
G1 F800.0 X507.924
G1 X508.8539 Y339.3849
G0 Z15.0
G0 X726.3451
G0 Z1.0
G1 F300.0 Z-1.0
G1 F800.0 X727.275 Y338.455
G1 X949.525
G1 X950.4549 Y339.3849
G1 X949.525 Y338.455
G1 Y326.39
G1 X950.4549 Y325.4601
G1 X949.525 Y326.39
G1 X727.275
G1 X726.3451 Y325.4601
G1 X727.275 Y326.39
G1 Y338.455
G1 X726.3451 Y339.3849
G1 F300.0 Z-2.0
G1 F800.0 X727.275 Y338.455
G1 X949.525
G1 X950.4549 Y339.3849
G1 X949.525 Y338.455
G1 Y326.39
G1 X950.4549 Y325.4601
G1 X949.525 Y326.39
G1 X727.275
G1 X726.3451 Y325.4601
G1 X727.275 Y326.39
G1 Y338.455
G1 X726.3451 Y339.3849
G1 F300.0 Z-3.0
G1 F800.0 X727.275 Y338.455
G1 X949.525
G1 X950.4549 Y339.3849
G1 X949.525 Y338.455
G1 Y326.39
G1 X950.4549 Y325.4601
G1 X949.525 Y326.39
G1 X727.275
G1 X726.3451 Y325.4601
G1 X727.275 Y326.39
G1 Y338.455
G1 X726.3451 Y339.3849
G1 F300.0 Z-4.0
G1 F800.0 X727.275 Y338.455
G1 X949.525
G1 X950.4549 Y339.3849
G1 X949.525 Y338.455
G1 Y326.39
G1 X950.4549 Y325.4601
G1 X949.525 Y326.39
G1 X727.275
G1 X726.3451 Y325.4601
G1 X727.275 Y326.39
G1 Y338.455
G1 X726.3451 Y339.3849
G1 F300.0 Z-5.0
G1 F800.0 X727.275 Y338.455
G1 X949.525
G1 X950.4549 Y339.3849
G1 X949.525 Y338.455
G1 Y326.39
G1 X950.4549 Y325.4601
G1 X949.525 Y326.39
G1 X727.275
G1 X726.3451 Y325.4601
G1 X727.275 Y326.39
G1 Y338.455
G1 X726.3451 Y339.3849
G1 F300.0 Z-6.0
G1 F800.0 X727.275 Y338.455
G1 X949.525
G1 X950.4549 Y339.3849
G1 X949.525 Y338.455
G1 Y326.39
G1 X950.4549 Y325.4601
G1 X949.525 Y326.39
G1 X727.275
G1 X726.3451 Y325.4601
G1 X727.275 Y326.39
G1 Y338.455
G1 X726.3451 Y339.3849
G1 F300.0 Z-7.0
G1 F800.0 X727.275 Y338.455
G1 X949.525
G1 X950.4549 Y339.3849
G1 X949.525 Y338.455
G1 Y326.39
G1 X950.4549 Y325.4601
G1 X949.525 Y326.39
G1 X727.275
G1 X726.3451 Y325.4601
G1 X727.275 Y326.39
G1 Y338.455
G1 X726.3451 Y339.3849
G1 F300.0 Z-8.0
G1 F800.0 X727.275 Y338.455
G1 X949.525
G1 X950.4549 Y339.3849
G1 X949.525 Y338.455
G1 Y326.39
G1 X950.4549 Y325.4601
G1 X949.525 Y326.39
G1 X727.275
G1 X726.3451 Y325.4601
G1 X727.275 Y326.39
G1 Y338.455
G1 X726.3451 Y339.3849
G1 F300.0 Z-9.0
G1 F800.0 X727.275 Y338.455
G1 X949.525
G1 X950.4549 Y339.3849
G1 X949.525 Y338.455
G1 Y326.39
G1 X950.4549 Y325.4601
G1 X949.525 Y326.39
G1 X727.275
G1 X726.3451 Y325.4601
G1 X727.275 Y326.39
G1 Y338.455
G1 X726.3451 Y339.3849
G1 F300.0 Z-10.0
G1 F800.0 X727.275 Y338.455
G1 X949.525
G1 X950.4549 Y339.3849
G1 X949.525 Y338.455
G1 Y326.39
G1 X950.4549 Y325.4601
G1 X949.525 Y326.39
G1 X727.275
G1 X726.3451 Y325.4601
G1 X727.275 Y326.39
G1 Y338.455
G1 X726.3451 Y339.3849
G1 F300.0 Z-11.0
G1 F800.0 X727.275 Y338.455
G1 X949.525
G1 X950.4549 Y339.3849
G1 X949.525 Y338.455
G1 Y326.39
G1 X950.4549 Y325.4601
G1 X949.525 Y326.39
G1 X727.275
G1 X726.3451 Y325.4601
G1 X727.275 Y326.39
G1 Y338.455
G1 X726.3451 Y339.3849
G1 F300.0 Z-12.0
G1 F800.0 X727.275 Y338.455
G1 X949.525
G1 X950.4549 Y339.3849
G1 X949.525 Y338.455
G1 Y326.39
G1 X950.4549 Y325.4601
G1 X949.525 Y326.39
G1 X727.275
G1 X726.3451 Y325.4601
G1 X727.275 Y326.39
G1 Y338.455
G1 X726.3451 Y339.3849
G1 F300.0 Z-13.0
G1 F800.0 X727.275 Y338.455
G1 X949.525
G1 X950.4549 Y339.3849
G1 X949.525 Y338.455
G1 Y326.39
G1 X950.4549 Y325.4601
G1 X949.525 Y326.39
G1 X727.275
G1 X726.3451 Y325.4601
G1 X727.275 Y326.39
G1 Y338.455
G1 X726.3451 Y339.3849
G1 F300.0 Z-14.0
G1 F800.0 X727.275 Y338.455
G1 X949.525
G1 X950.4549 Y339.3849
G1 X949.525 Y338.455
G1 Y326.39
G1 X950.4549 Y325.4601
G1 X949.525 Y326.39
G1 X727.275
G1 X726.3451 Y325.4601
G1 X727.275 Y326.39
G1 Y338.455
G1 X726.3451 Y339.3849
G1 F300.0 Z-15.0
G1 F800.0 X727.275 Y338.455
G1 X949.525
G1 X950.4549 Y339.3849
G1 X949.525 Y338.455
G1 Y326.39
G1 X950.4549 Y325.4601
G1 X949.525 Y326.39
G1 X727.275
G1 X726.3451 Y325.4601
G1 X727.275 Y326.39
G1 Y338.455
G1 X726.3451 Y339.3849
G1 F300.0 Z-16.0
G1 F800.0 X727.275 Y338.455
G1 X949.525
G1 X950.4549 Y339.3849
G1 X949.525 Y338.455
G1 Y326.39
G1 X950.4549 Y325.4601
G1 X949.525 Y326.39
G1 X727.275
G1 X726.3451 Y325.4601
G1 X727.275 Y326.39
G1 Y338.455
G1 X726.3451 Y339.3849
G1 F300.0 Z-17.0
G1 F800.0 X727.275 Y338.455
G1 X949.525
G1 X950.4549 Y339.3849
G1 X949.525 Y338.455
G1 Y326.39
G1 X950.4549 Y325.4601
G1 X949.525 Y326.39
G1 X727.275
G1 X726.3451 Y325.4601
G1 X727.275 Y326.39
G1 Y338.455
G1 X726.3451 Y339.3849
G1 F300.0 Z-18.0
G1 F800.0 X727.275 Y338.455
G1 X841.9325
G0 Z-17.0
G1 X853.2825
G1 F300.0 Z-18.0
G1 F800.0 X949.525
G1 X950.4549 Y339.3849
G1 X949.525 Y338.455
G1 Y326.39
G1 X950.4549 Y325.4601
G1 X949.525 Y326.39
G1 X834.8675
G0 Z-17.0
G1 X823.5175
G1 F300.0 Z-18.0
G1 F800.0 X727.275
G1 X726.3451 Y325.4601
G1 X727.275 Y326.39
G1 Y338.455
G1 X726.3451 Y339.3849
G1 F300.0 Z-19.0
G1 F800.0 X727.275 Y338.455
G1 X841.9325
G0 Z-17.0
G1 X853.2825
G1 F300.0 Z-19.0
G1 F800.0 X949.525
G1 X950.4549 Y339.3849
G1 X949.525 Y338.455
G1 Y326.39
G1 X950.4549 Y325.4601
G1 X949.525 Y326.39
G1 X834.8675
G0 Z-17.0
G1 X823.5175
G1 F300.0 Z-19.0
G1 F800.0 X727.275
G1 X726.3451 Y325.4601
G1 X727.275 Y326.39
G1 Y338.455
G1 X726.3451 Y339.3849
G1 F300.0 Z-20.0
G1 F800.0 X727.275 Y338.455
G1 X841.9325
G0 Z-17.0
G1 X853.2825
G0 Z-18.0
G1 F300.0 Z-20.0
G1 F800.0 X949.525
G1 X950.4549 Y339.3849
G1 X949.525 Y338.455
G1 Y326.39
G1 X950.4549 Y325.4601
G1 X949.525 Y326.39
G1 X834.8675
G0 Z-17.0
G1 X823.5175
G0 Z-18.0
G1 F300.0 Z-20.0
G1 F800.0 X727.275
G1 X726.3451 Y325.4601
G1 X727.275 Y326.39
G1 Y338.455
G1 X726.3451 Y339.3849
G1 F300.0 Z-21.0
G1 F800.0 X727.275 Y338.455
G1 X841.9325
G0 Z-17.0
G1 X853.2825
G0 Z-19.0
G1 F300.0 Z-21.0
G1 F800.0 X949.525
G1 X950.4549 Y339.3849
G1 X949.525 Y338.455
G1 Y326.39
G1 X950.4549 Y325.4601
G1 X949.525 Y326.39
G1 X834.8675
G0 Z-17.0
G1 X823.5175
G0 Z-19.0
G1 F300.0 Z-21.0
G1 F800.0 X727.275
G1 X726.3451 Y325.4601
G1 X727.275 Y326.39
G1 Y338.455
G1 X726.3451 Y339.3849
G1 F300.0 Z-22.0
G1 F800.0 X727.275 Y338.455
G1 X841.9325
G0 Z-17.0
G1 X853.2825
G0 Z-20.0
G1 F300.0 Z-22.0
G1 F800.0 X949.525
G1 X950.4549 Y339.3849
G1 X949.525 Y338.455
G1 Y326.39
G1 X950.4549 Y325.4601
G1 X949.525 Y326.39
G1 X834.8675
G0 Z-17.0
G1 X823.5175
G0 Z-20.0
G1 F300.0 Z-22.0
G1 F800.0 X727.275
G1 X726.3451 Y325.4601
G1 X727.275 Y326.39
G1 Y338.455
G1 X726.3451 Y339.3849
G0 Z15.0
G0 X177.7649
G0 Z1.0
G1 F300.0 Z-1.0
G1 F800.0 X176.835 Y338.455
G1 Y326.39
G1 X177.7649 Y325.4601
G1 X176.835 Y326.39
G1 X63.178
G1 X62.2481 Y325.4601
G1 X63.178 Y326.39
G1 Y338.455
G1 X62.2481 Y339.3849
G1 X63.178 Y338.455
G1 X176.835
G1 X177.7649 Y339.3849
G1 F300.0 Z-2.0
G1 F800.0 X176.835 Y338.455
G1 Y326.39
G1 X177.7649 Y325.4601
G1 X176.835 Y326.39
G1 X63.178
G1 X62.2481 Y325.4601
G1 X63.178 Y326.39
G1 Y338.455
G1 X62.2481 Y339.3849
G1 X63.178 Y338.455
G1 X176.835
G1 X177.7649 Y339.3849
G1 F300.0 Z-3.0
G1 F800.0 X176.835 Y338.455
G1 Y326.39
G1 X177.7649 Y325.4601
G1 X176.835 Y326.39
G1 X63.178
G1 X62.2481 Y325.4601
G1 X63.178 Y326.39
G1 Y338.455
G1 X62.2481 Y339.3849
G1 X63.178 Y338.455
G1 X176.835
G1 X177.7649 Y339.3849
G1 F300.0 Z-4.0
G1 F800.0 X176.835 Y338.455
G1 Y326.39
G1 X177.7649 Y325.4601
G1 X176.835 Y326.39
G1 X63.178
G1 X62.2481 Y325.4601
G1 X63.178 Y326.39
G1 Y338.455
G1 X62.2481 Y339.3849
G1 X63.178 Y338.455
G1 X176.835
G1 X177.7649 Y339.3849
G1 F300.0 Z-5.0
G1 F800.0 X176.835 Y338.455
G1 Y326.39
G1 X177.7649 Y325.4601
G1 X176.835 Y326.39
G1 X63.178
G1 X62.2481 Y325.4601
G1 X63.178 Y326.39
G1 Y338.455
G1 X62.2481 Y339.3849
G1 X63.178 Y338.455
G1 X176.835
G1 X177.7649 Y339.3849
G1 F300.0 Z-6.0
G1 F800.0 X176.835 Y338.455
G1 Y326.39
G1 X177.7649 Y325.4601
G1 X176.835 Y326.39
G1 X63.178
G1 X62.2481 Y325.4601
G1 X63.178 Y326.39
G1 Y338.455
G1 X62.2481 Y339.3849
G1 X63.178 Y338.455
G1 X176.835
G1 X177.7649 Y339.3849
G1 F300.0 Z-7.0
G1 F800.0 X176.835 Y338.455
G1 Y326.39
G1 X177.7649 Y325.4601
G1 X176.835 Y326.39
G1 X63.178
G1 X62.2481 Y325.4601
G1 X63.178 Y326.39
G1 Y338.455
G1 X62.2481 Y339.3849
G1 X63.178 Y338.455
G1 X176.835
G1 X177.7649 Y339.3849
G1 F300.0 Z-8.0
G1 F800.0 X176.835 Y338.455
G1 Y326.39
G1 X177.7649 Y325.4601
G1 X176.835 Y326.39
G1 X63.178
G1 X62.2481 Y325.4601
G1 X63.178 Y326.39
G1 Y338.455
G1 X62.2481 Y339.3849
G1 X63.178 Y338.455
G1 X176.835
G1 X177.7649 Y339.3849
G1 F300.0 Z-9.0
G1 F800.0 X176.835 Y338.455
G1 Y326.39
G1 X177.7649 Y325.4601
G1 X176.835 Y326.39
G1 X63.178
G1 X62.2481 Y325.4601
G1 X63.178 Y326.39
G1 Y338.455
G1 X62.2481 Y339.3849
G1 X63.178 Y338.455
G1 X176.835
G1 X177.7649 Y339.3849
G1 F300.0 Z-10.0
G1 F800.0 X176.835 Y338.455
G1 Y326.39
G1 X177.7649 Y325.4601
G1 X176.835 Y326.39
G1 X63.178
G1 X62.2481 Y325.4601
G1 X63.178 Y326.39
G1 Y338.455
G1 X62.2481 Y339.3849
G1 X63.178 Y338.455
G1 X176.835
G1 X177.7649 Y339.3849
G1 F300.0 Z-11.0
G1 F800.0 X176.835 Y338.455
G1 Y326.39
G1 X177.7649 Y325.4601
G1 X176.835 Y326.39
G1 X63.178
G1 X62.2481 Y325.4601
G1 X63.178 Y326.39
G1 Y338.455
G1 X62.2481 Y339.3849
G1 X63.178 Y338.455
G1 X176.835
G1 X177.7649 Y339.3849
G1 F300.0 Z-12.0
G1 F800.0 X176.835 Y338.455
G1 Y326.39
G1 X177.7649 Y325.4601
G1 X176.835 Y326.39
G1 X63.178
G1 X62.2481 Y325.4601
G1 X63.178 Y326.39
G1 Y338.455
G1 X62.2481 Y339.3849
G1 X63.178 Y338.455
G1 X176.835
G1 X177.7649 Y339.3849
G1 F300.0 Z-13.0
G1 F800.0 X176.835 Y338.455
G1 Y326.39
G1 X177.7649 Y325.4601
G1 X176.835 Y326.39
G1 X63.178
G1 X62.2481 Y325.4601
G1 X63.178 Y326.39
G1 Y338.455
G1 X62.2481 Y339.3849
G1 X63.178 Y338.455
G1 X176.835
G1 X177.7649 Y339.3849
G1 F300.0 Z-14.0
G1 F800.0 X176.835 Y338.455
G1 Y326.39
G1 X177.7649 Y325.4601
G1 X176.835 Y326.39
G1 X63.178
G1 X62.2481 Y325.4601
G1 X63.178 Y326.39
G1 Y338.455
G1 X62.2481 Y339.3849
G1 X63.178 Y338.455
G1 X176.835
G1 X177.7649 Y339.3849
G1 F300.0 Z-15.0
G1 F800.0 X176.835 Y338.455
G1 Y326.39
G1 X177.7649 Y325.4601
G1 X176.835 Y326.39
G1 X63.178
G1 X62.2481 Y325.4601
G1 X63.178 Y326.39
G1 Y338.455
G1 X62.2481 Y339.3849
G1 X63.178 Y338.455
G1 X176.835
G1 X177.7649 Y339.3849
G1 F300.0 Z-16.0
G1 F800.0 X176.835 Y338.455
G1 Y326.39
G1 X177.7649 Y325.4601
G1 X176.835 Y326.39
G1 X63.178
G1 X62.2481 Y325.4601
G1 X63.178 Y326.39
G1 Y338.455
G1 X62.2481 Y339.3849
G1 X63.178 Y338.455
G1 X176.835
G1 X177.7649 Y339.3849
G1 F300.0 Z-17.0
G1 F800.0 X176.835 Y338.455
G1 Y326.39
G1 X177.7649 Y325.4601
G1 X176.835 Y326.39
G1 X63.178
G1 X62.2481 Y325.4601
G1 X63.178 Y326.39
G1 Y338.455
G1 X62.2481 Y339.3849
G1 X63.178 Y338.455
G1 X176.835
G1 X177.7649 Y339.3849
G1 F300.0 Z-18.0
G1 F800.0 X176.835 Y338.455
G1 Y326.39
G1 X177.7649 Y325.4601
G1 X176.835 Y326.39
G1 X116.474
G0 Z-17.0
G1 X105.124
G1 F300.0 Z-18.0
G1 F800.0 X63.178
G1 X62.2481 Y325.4601
G1 X63.178 Y326.39
G1 Y338.455
G1 X62.2481 Y339.3849
G1 X63.178 Y338.455
G1 X123.539
G0 Z-17.0
G1 X134.889
G1 F300.0 Z-18.0
G1 F800.0 X176.835
G1 X177.7649 Y339.3849
G1 F300.0 Z-19.0
G1 F800.0 X176.835 Y338.455
G1 Y326.39
G1 X177.7649 Y325.4601
G1 X176.835 Y326.39
G1 X116.474
G0 Z-17.0
G1 X105.124
G1 F300.0 Z-19.0
G1 F800.0 X63.178
G1 X62.2481 Y325.4601
G1 X63.178 Y326.39
G1 Y338.455
G1 X62.2481 Y339.3849
G1 X63.178 Y338.455
G1 X123.539
G0 Z-17.0
G1 X134.889
G1 F300.0 Z-19.0
G1 F800.0 X176.835
G1 X177.7649 Y339.3849
G1 F300.0 Z-20.0
G1 F800.0 X176.835 Y338.455
G1 Y326.39
G1 X177.7649 Y325.4601
G1 X176.835 Y326.39
G1 X116.474
G0 Z-17.0
G1 X105.124
G0 Z-18.0
G1 F300.0 Z-20.0
G1 F800.0 X63.178
G1 X62.2481 Y325.4601
G1 X63.178 Y326.39
G1 Y338.455
G1 X62.2481 Y339.3849
G1 X63.178 Y338.455
G1 X123.539
G0 Z-17.0
G1 X134.889
G0 Z-18.0
G1 F300.0 Z-20.0
G1 F800.0 X176.835
G1 X177.7649 Y339.3849
G1 F300.0 Z-21.0
G1 F800.0 X176.835 Y338.455
G1 Y326.39
G1 X177.7649 Y325.4601
G1 X176.835 Y326.39
G1 X116.474
G0 Z-17.0
G1 X105.124
G0 Z-19.0
G1 F300.0 Z-21.0
G1 F800.0 X63.178
G1 X62.2481 Y325.4601
G1 X63.178 Y326.39
G1 Y338.455
G1 X62.2481 Y339.3849
G1 X63.178 Y338.455
G1 X123.539
G0 Z-17.0
G1 X134.889
G0 Z-19.0
G1 F300.0 Z-21.0
G1 F800.0 X176.835
G1 X177.7649 Y339.3849
G1 F300.0 Z-22.0
G1 F800.0 X176.835 Y338.455
G1 Y326.39
G1 X177.7649 Y325.4601
G1 X176.835 Y326.39
G1 X116.474
G0 Z-17.0
G1 X105.124
G0 Z-20.0
G1 F300.0 Z-22.0
G1 F800.0 X63.178
G1 X62.2481 Y325.4601
G1 X63.178 Y326.39
G1 Y338.455
G1 X62.2481 Y339.3849
G1 X63.178 Y338.455
G1 X123.539
G0 Z-17.0
G1 X134.889
G0 Z-20.0
G1 F300.0 Z-22.0
G1 F800.0 X176.835
G1 X177.7649 Y339.3849
G0 Z15.0
G0 X185.8629 Y648.6751
G0 Z1.0
G1 F300.0 Z-1.0
G1 F800.0 X184.933 Y649.605
G1 X65.878
G1 X64.9481 Y648.6751
G1 X65.878 Y649.605
G1 Y661.67
G1 X64.9481 Y662.5999
G1 X65.878 Y661.67
G1 X184.933
G1 X185.8629 Y662.5999
G1 X184.933 Y661.67
G1 Y649.605
G1 X185.8629 Y648.6751
G1 F300.0 Z-2.0
G1 F800.0 X184.933 Y649.605
G1 X65.878
G1 X64.9481 Y648.6751
G1 X65.878 Y649.605
G1 Y661.67
G1 X64.9481 Y662.5999
G1 X65.878 Y661.67
G1 X184.933
G1 X185.8629 Y662.5999
G1 X184.933 Y661.67
G1 Y649.605
G1 X185.8629 Y648.6751
G1 F300.0 Z-3.0
G1 F800.0 X184.933 Y649.605
G1 X65.878
G1 X64.9481 Y648.6751
G1 X65.878 Y649.605
G1 Y661.67
G1 X64.9481 Y662.5999
G1 X65.878 Y661.67
G1 X184.933
G1 X185.8629 Y662.5999
G1 X184.933 Y661.67
G1 Y649.605
G1 X185.8629 Y648.6751
G1 F300.0 Z-4.0
G1 F800.0 X184.933 Y649.605
G1 X65.878
G1 X64.9481 Y648.6751
G1 X65.878 Y649.605
G1 Y661.67
G1 X64.9481 Y662.5999
G1 X65.878 Y661.67
G1 X184.933
G1 X185.8629 Y662.5999
G1 X184.933 Y661.67
G1 Y649.605
G1 X185.8629 Y648.6751
G1 F300.0 Z-5.0
G1 F800.0 X184.933 Y649.605
G1 X65.878
G1 X64.9481 Y648.6751
G1 X65.878 Y649.605
G1 Y661.67
G1 X64.9481 Y662.5999
G1 X65.878 Y661.67
G1 X184.933
G1 X185.8629 Y662.5999
G1 X184.933 Y661.67
G1 Y649.605
G1 X185.8629 Y648.6751
G1 F300.0 Z-6.0
G1 F800.0 X184.933 Y649.605
G1 X65.878
G1 X64.9481 Y648.6751
G1 X65.878 Y649.605
G1 Y661.67
G1 X64.9481 Y662.5999
G1 X65.878 Y661.67
G1 X184.933
G1 X185.8629 Y662.5999
G1 X184.933 Y661.67
G1 Y649.605
G1 X185.8629 Y648.6751
G1 F300.0 Z-7.0
G1 F800.0 X184.933 Y649.605
G1 X65.878
G1 X64.9481 Y648.6751
G1 X65.878 Y649.605
G1 Y661.67
G1 X64.9481 Y662.5999
G1 X65.878 Y661.67
G1 X184.933
G1 X185.8629 Y662.5999
G1 X184.933 Y661.67
G1 Y649.605
G1 X185.8629 Y648.6751
G1 F300.0 Z-8.0
G1 F800.0 X184.933 Y649.605
G1 X65.878
G1 X64.9481 Y648.6751
G1 X65.878 Y649.605
G1 Y661.67
G1 X64.9481 Y662.5999
G1 X65.878 Y661.67
G1 X184.933
G1 X185.8629 Y662.5999
G1 X184.933 Y661.67
G1 Y649.605
G1 X185.8629 Y648.6751
G1 F300.0 Z-9.0
G1 F800.0 X184.933 Y649.605
G1 X65.878
G1 X64.9481 Y648.6751
G1 X65.878 Y649.605
G1 Y661.67
G1 X64.9481 Y662.5999
G1 X65.878 Y661.67
G1 X184.933
G1 X185.8629 Y662.5999
G1 X184.933 Y661.67
G1 Y649.605
G1 X185.8629 Y648.6751
G1 F300.0 Z-10.0
G1 F800.0 X184.933 Y649.605
G1 X65.878
G1 X64.9481 Y648.6751
G1 X65.878 Y649.605
G1 Y661.67
G1 X64.9481 Y662.5999
G1 X65.878 Y661.67
G1 X184.933
G1 X185.8629 Y662.5999
G1 X184.933 Y661.67
G1 Y649.605
G1 X185.8629 Y648.6751
G1 F300.0 Z-11.0
G1 F800.0 X184.933 Y649.605
G1 X65.878
G1 X64.9481 Y648.6751
G1 X65.878 Y649.605
G1 Y661.67
G1 X64.9481 Y662.5999
G1 X65.878 Y661.67
G1 X184.933
G1 X185.8629 Y662.5999
G1 X184.933 Y661.67
G1 Y649.605
G1 X185.8629 Y648.6751
G1 F300.0 Z-12.0
G1 F800.0 X184.933 Y649.605
G1 X65.878
G1 X64.9481 Y648.6751
G1 X65.878 Y649.605
G1 Y661.67
G1 X64.9481 Y662.5999
G1 X65.878 Y661.67
G1 X184.933
G1 X185.8629 Y662.5999
G1 X184.933 Y661.67
G1 Y649.605
G1 X185.8629 Y648.6751
G1 F300.0 Z-13.0
G1 F800.0 X184.933 Y649.605
G1 X65.878
G1 X64.9481 Y648.6751
G1 X65.878 Y649.605
G1 Y661.67
G1 X64.9481 Y662.5999
G1 X65.878 Y661.67
G1 X184.933
G1 X185.8629 Y662.5999
G1 X184.933 Y661.67
G1 Y649.605
G1 X185.8629 Y648.6751
G1 F300.0 Z-14.0
G1 F800.0 X184.933 Y649.605
G1 X65.878
G1 X64.9481 Y648.6751
G1 X65.878 Y649.605
G1 Y661.67
G1 X64.9481 Y662.5999
G1 X65.878 Y661.67
G1 X184.933
G1 X185.8629 Y662.5999
G1 X184.933 Y661.67
G1 Y649.605
G1 X185.8629 Y648.6751
G1 F300.0 Z-15.0
G1 F800.0 X184.933 Y649.605
G1 X65.878
G1 X64.9481 Y648.6751
G1 X65.878 Y649.605
G1 Y661.67
G1 X64.9481 Y662.5999
G1 X65.878 Y661.67
G1 X184.933
G1 X185.8629 Y662.5999
G1 X184.933 Y661.67
G1 Y649.605
G1 X185.8629 Y648.6751
G1 F300.0 Z-16.0
G1 F800.0 X184.933 Y649.605
G1 X65.878
G1 X64.9481 Y648.6751
G1 X65.878 Y649.605
G1 Y661.67
G1 X64.9481 Y662.5999
G1 X65.878 Y661.67
G1 X184.933
G1 X185.8629 Y662.5999
G1 X184.933 Y661.67
G1 Y649.605
G1 X185.8629 Y648.6751
G1 F300.0 Z-17.0
G1 F800.0 X184.933 Y649.605
G1 X65.878
G1 X64.9481 Y648.6751
G1 X65.878 Y649.605
G1 Y661.67
G1 X64.9481 Y662.5999
G1 X65.878 Y661.67
G1 X184.933
G1 X185.8629 Y662.5999
G1 X184.933 Y661.67
G1 Y649.605
G1 X185.8629 Y648.6751
G1 F300.0 Z-18.0
G1 F800.0 X184.933 Y649.605
G1 X121.873
G0 Z-17.0
G1 X110.523
G1 F300.0 Z-18.0
G1 F800.0 X65.878
G1 X64.9481 Y648.6751
G1 X65.878 Y649.605
G1 Y661.67
G1 X64.9481 Y662.5999
G1 X65.878 Y661.67
G1 X128.938
G0 Z-17.0
G1 X140.288
G1 F300.0 Z-18.0
G1 F800.0 X184.933
G1 X185.8629 Y662.5999
G1 X184.933 Y661.67
G1 Y649.605
G1 X185.8629 Y648.6751
G1 F300.0 Z-19.0
G1 F800.0 X184.933 Y649.605
G1 X121.873
G0 Z-17.0
G1 X110.523
G1 F300.0 Z-19.0
G1 F800.0 X65.878
G1 X64.9481 Y648.6751
G1 X65.878 Y649.605
G1 Y661.67
G1 X64.9481 Y662.5999
G1 X65.878 Y661.67
G1 X128.938
G0 Z-17.0
G1 X140.288
G1 F300.0 Z-19.0
G1 F800.0 X184.933
G1 X185.8629 Y662.5999
G1 X184.933 Y661.67
G1 Y649.605
G1 X185.8629 Y648.6751
G1 F300.0 Z-20.0
G1 F800.0 X184.933 Y649.605
G1 X121.873
G0 Z-17.0
G1 X110.523
G0 Z-18.0
G1 F300.0 Z-20.0
G1 F800.0 X65.878
G1 X64.9481 Y648.6751
G1 X65.878 Y649.605
G1 Y661.67
G1 X64.9481 Y662.5999
G1 X65.878 Y661.67
G1 X128.938
G0 Z-17.0
G1 X140.288
G0 Z-18.0
G1 F300.0 Z-20.0
G1 F800.0 X184.933
G1 X185.8629 Y662.5999
G1 X184.933 Y661.67
G1 Y649.605
G1 X185.8629 Y648.6751
G1 F300.0 Z-21.0
G1 F800.0 X184.933 Y649.605
G1 X121.873
G0 Z-17.0
G1 X110.523
G0 Z-19.0
G1 F300.0 Z-21.0
G1 F800.0 X65.878
G1 X64.9481 Y648.6751
G1 X65.878 Y649.605
G1 Y661.67
G1 X64.9481 Y662.5999
G1 X65.878 Y661.67
G1 X128.938
G0 Z-17.0
G1 X140.288
G0 Z-19.0
G1 F300.0 Z-21.0
G1 F800.0 X184.933
G1 X185.8629 Y662.5999
G1 X184.933 Y661.67
G1 Y649.605
G1 X185.8629 Y648.6751
G1 F300.0 Z-22.0
G1 F800.0 X184.933 Y649.605
G1 X121.873
G0 Z-17.0
G1 X110.523
G0 Z-20.0
G1 F300.0 Z-22.0
G1 F800.0 X65.878
G1 X64.9481 Y648.6751
G1 X65.878 Y649.605
G1 Y661.67
G1 X64.9481 Y662.5999
G1 X65.878 Y661.67
G1 X128.938
G0 Z-17.0
G1 X140.288
G0 Z-20.0
G1 F300.0 Z-22.0
G1 F800.0 X184.933
G1 X185.8629 Y662.5999
G1 X184.933 Y661.67
G1 Y649.605
G1 X185.8629 Y648.6751
G0 Z15.0
G0 X193.9619 Y971.8951
G0 Z1.0
G1 F300.0 Z-1.0
G1 F800.0 X193.032 Y972.825
G1 X68.577
G1 X67.6471 Y971.8951
G1 X68.577 Y972.825
G1 Y984.885
G1 X67.6471 Y985.8149
G1 X68.577 Y984.885
G1 X193.032
G1 X193.9619 Y985.8149
G1 X193.032 Y984.885
G1 Y972.825
G1 X193.9619 Y971.8951
G1 F300.0 Z-2.0
G1 F800.0 X193.032 Y972.825
G1 X68.577
G1 X67.6471 Y971.8951
G1 X68.577 Y972.825
G1 Y984.885
G1 X67.6471 Y985.8149
G1 X68.577 Y984.885
G1 X193.032
G1 X193.9619 Y985.8149
G1 X193.032 Y984.885
G1 Y972.825
G1 X193.9619 Y971.8951
G1 F300.0 Z-3.0
G1 F800.0 X193.032 Y972.825
G1 X68.577
G1 X67.6471 Y971.8951
G1 X68.577 Y972.825
G1 Y984.885
G1 X67.6471 Y985.8149
G1 X68.577 Y984.885
G1 X193.032
G1 X193.9619 Y985.8149
G1 X193.032 Y984.885
G1 Y972.825
G1 X193.9619 Y971.8951
G1 F300.0 Z-4.0
G1 F800.0 X193.032 Y972.825
G1 X68.577
G1 X67.6471 Y971.8951
G1 X68.577 Y972.825
G1 Y984.885
G1 X67.6471 Y985.8149
G1 X68.577 Y984.885
G1 X193.032
G1 X193.9619 Y985.8149
G1 X193.032 Y984.885
G1 Y972.825
G1 X193.9619 Y971.8951
G1 F300.0 Z-5.0
G1 F800.0 X193.032 Y972.825
G1 X68.577
G1 X67.6471 Y971.8951
G1 X68.577 Y972.825
G1 Y984.885
G1 X67.6471 Y985.8149
G1 X68.577 Y984.885
G1 X193.032
G1 X193.9619 Y985.8149
G1 X193.032 Y984.885
G1 Y972.825
G1 X193.9619 Y971.8951
G1 F300.0 Z-6.0
G1 F800.0 X193.032 Y972.825
G1 X68.577
G1 X67.6471 Y971.8951
G1 X68.577 Y972.825
G1 Y984.885
G1 X67.6471 Y985.8149
G1 X68.577 Y984.885
G1 X193.032
G1 X193.9619 Y985.8149
G1 X193.032 Y984.885
G1 Y972.825
G1 X193.9619 Y971.8951
G1 F300.0 Z-7.0
G1 F800.0 X193.032 Y972.825
G1 X68.577
G1 X67.6471 Y971.8951
G1 X68.577 Y972.825
G1 Y984.885
G1 X67.6471 Y985.8149
G1 X68.577 Y984.885
G1 X193.032
G1 X193.9619 Y985.8149
G1 X193.032 Y984.885
G1 Y972.825
G1 X193.9619 Y971.8951
G1 F300.0 Z-8.0
G1 F800.0 X193.032 Y972.825
G1 X68.577
G1 X67.6471 Y971.8951
G1 X68.577 Y972.825
G1 Y984.885
G1 X67.6471 Y985.8149
G1 X68.577 Y984.885
G1 X193.032
G1 X193.9619 Y985.8149
G1 X193.032 Y984.885
G1 Y972.825
G1 X193.9619 Y971.8951
G1 F300.0 Z-9.0
G1 F800.0 X193.032 Y972.825
G1 X68.577
G1 X67.6471 Y971.8951
G1 X68.577 Y972.825
G1 Y984.885
G1 X67.6471 Y985.8149
G1 X68.577 Y984.885
G1 X193.032
G1 X193.9619 Y985.8149
G1 X193.032 Y984.885
G1 Y972.825
G1 X193.9619 Y971.8951
G1 F300.0 Z-10.0
G1 F800.0 X193.032 Y972.825
G1 X68.577
G1 X67.6471 Y971.8951
G1 X68.577 Y972.825
G1 Y984.885
G1 X67.6471 Y985.8149
G1 X68.577 Y984.885
G1 X193.032
G1 X193.9619 Y985.8149
G1 X193.032 Y984.885
G1 Y972.825
G1 X193.9619 Y971.8951
G1 F300.0 Z-11.0
G1 F800.0 X193.032 Y972.825
G1 X68.577
G1 X67.6471 Y971.8951
G1 X68.577 Y972.825
G1 Y984.885
G1 X67.6471 Y985.8149
G1 X68.577 Y984.885
G1 X193.032
G1 X193.9619 Y985.8149
G1 X193.032 Y984.885
G1 Y972.825
G1 X193.9619 Y971.8951
G1 F300.0 Z-12.0
G1 F800.0 X193.032 Y972.825
G1 X68.577
G1 X67.6471 Y971.8951
G1 X68.577 Y972.825
G1 Y984.885
G1 X67.6471 Y985.8149
G1 X68.577 Y984.885
G1 X193.032
G1 X193.9619 Y985.8149
G1 X193.032 Y984.885
G1 Y972.825
G1 X193.9619 Y971.8951
G1 F300.0 Z-13.0
G1 F800.0 X193.032 Y972.825
G1 X68.577
G1 X67.6471 Y971.8951
G1 X68.577 Y972.825
G1 Y984.885
G1 X67.6471 Y985.8149
G1 X68.577 Y984.885
G1 X193.032
G1 X193.9619 Y985.8149
G1 X193.032 Y984.885
G1 Y972.825
G1 X193.9619 Y971.8951
G1 F300.0 Z-14.0
G1 F800.0 X193.032 Y972.825
G1 X68.577
G1 X67.6471 Y971.8951
G1 X68.577 Y972.825
G1 Y984.885
G1 X67.6471 Y985.8149
G1 X68.577 Y984.885
G1 X193.032
G1 X193.9619 Y985.8149
G1 X193.032 Y984.885
G1 Y972.825
G1 X193.9619 Y971.8951
G1 F300.0 Z-15.0
G1 F800.0 X193.032 Y972.825
G1 X68.577
G1 X67.6471 Y971.8951
G1 X68.577 Y972.825
G1 Y984.885
G1 X67.6471 Y985.8149
G1 X68.577 Y984.885
G1 X193.032
G1 X193.9619 Y985.8149
G1 X193.032 Y984.885
G1 Y972.825
G1 X193.9619 Y971.8951
G1 F300.0 Z-16.0
G1 F800.0 X193.032 Y972.825
G1 X68.577
G1 X67.6471 Y971.8951
G1 X68.577 Y972.825
G1 Y984.885
G1 X67.6471 Y985.8149
G1 X68.577 Y984.885
G1 X193.032
G1 X193.9619 Y985.8149
G1 X193.032 Y984.885
G1 Y972.825
G1 X193.9619 Y971.8951
G1 F300.0 Z-17.0
G1 F800.0 X193.032 Y972.825
G1 X68.577
G1 X67.6471 Y971.8951
G1 X68.577 Y972.825
G1 Y984.885
G1 X67.6471 Y985.8149
G1 X68.577 Y984.885
G1 X193.032
G1 X193.9619 Y985.8149
G1 X193.032 Y984.885
G1 Y972.825
G1 X193.9619 Y971.8951
G1 F300.0 Z-18.0
G1 F800.0 X193.032 Y972.825
G1 X127.2745
G0 Z-17.0
G1 X115.9245
G1 F300.0 Z-18.0
G1 F800.0 X68.577
G1 X67.6471 Y971.8951
G1 X68.577 Y972.825
G1 Y984.885
G1 X67.6471 Y985.8149
G1 X68.577 Y984.885
G1 X134.3345
G0 Z-17.0
G1 X145.6845
G1 F300.0 Z-18.0
G1 F800.0 X193.032
G1 X193.9619 Y985.8149
G1 X193.032 Y984.885
G1 Y972.825
G1 X193.9619 Y971.8951
G1 F300.0 Z-19.0
G1 F800.0 X193.032 Y972.825
G1 X127.2745
G0 Z-17.0
G1 X115.9245
G1 F300.0 Z-19.0
G1 F800.0 X68.577
G1 X67.6471 Y971.8951
G1 X68.577 Y972.825
G1 Y984.885
G1 X67.6471 Y985.8149
G1 X68.577 Y984.885
G1 X134.3345
G0 Z-17.0
G1 X145.6845
G1 F300.0 Z-19.0
G1 F800.0 X193.032
G1 X193.9619 Y985.8149
G1 X193.032 Y984.885
G1 Y972.825
G1 X193.9619 Y971.8951
G1 F300.0 Z-20.0
G1 F800.0 X193.032 Y972.825
G1 X127.2745
G0 Z-17.0
G1 X115.9245
G0 Z-18.0
G1 F300.0 Z-20.0
G1 F800.0 X68.577
G1 X67.6471 Y971.8951
G1 X68.577 Y972.825
G1 Y984.885
G1 X67.6471 Y985.8149
G1 X68.577 Y984.885
G1 X134.3345
G0 Z-17.0
G1 X145.6845
G0 Z-18.0
G1 F300.0 Z-20.0
G1 F800.0 X193.032
G1 X193.9619 Y985.8149
G1 X193.032 Y984.885
G1 Y972.825
G1 X193.9619 Y971.8951
G1 F300.0 Z-21.0
G1 F800.0 X193.032 Y972.825
G1 X127.2745
G0 Z-17.0
G1 X115.9245
G0 Z-19.0
G1 F300.0 Z-21.0
G1 F800.0 X68.577
G1 X67.6471 Y971.8951
G1 X68.577 Y972.825
G1 Y984.885
G1 X67.6471 Y985.8149
G1 X68.577 Y984.885
G1 X134.3345
G0 Z-17.0
G1 X145.6845
G0 Z-19.0
G1 F300.0 Z-21.0
G1 F800.0 X193.032
G1 X193.9619 Y985.8149
G1 X193.032 Y984.885
G1 Y972.825
G1 X193.9619 Y971.8951
G1 F300.0 Z-22.0
G1 F800.0 X193.032 Y972.825
G1 X127.2745
G0 Z-17.0
G1 X115.9245
G0 Z-20.0
G1 F300.0 Z-22.0
G1 F800.0 X68.577
G1 X67.6471 Y971.8951
G1 X68.577 Y972.825
G1 Y984.885
G1 X67.6471 Y985.8149
G1 X68.577 Y984.885
G1 X134.3345
G0 Z-17.0
G1 X145.6845
G0 Z-20.0
G1 F300.0 Z-22.0
G1 F800.0 X193.032
G1 X193.9619 Y985.8149
G1 X193.032 Y984.885
G1 Y972.825
G1 X193.9619 Y971.8951
G0 Z15.0
G0 X202.0599 Y1295.1051
G0 Z1.0
G1 F300.0 Z-1.0
G1 F800.0 X201.13 Y1296.035
G1 X71.277
G1 X70.3471 Y1295.1051
G1 X71.277 Y1296.035
G1 Y1308.095
G1 X70.3471 Y1309.0249
G1 X71.277 Y1308.095
G1 X201.13
G1 X202.0599 Y1309.0249
G1 X201.13 Y1308.095
G1 Y1296.035
G1 X202.0599 Y1295.1051
G1 F300.0 Z-2.0
G1 F800.0 X201.13 Y1296.035
G1 X71.277
G1 X70.3471 Y1295.1051
G1 X71.277 Y1296.035
G1 Y1308.095
G1 X70.3471 Y1309.0249
G1 X71.277 Y1308.095
G1 X201.13
G1 X202.0599 Y1309.0249
G1 X201.13 Y1308.095
G1 Y1296.035
G1 X202.0599 Y1295.1051
G1 F300.0 Z-3.0
G1 F800.0 X201.13 Y1296.035
G1 X71.277
G1 X70.3471 Y1295.1051
G1 X71.277 Y1296.035
G1 Y1308.095
G1 X70.3471 Y1309.0249
G1 X71.277 Y1308.095
G1 X201.13
G1 X202.0599 Y1309.0249
G1 X201.13 Y1308.095
G1 Y1296.035
G1 X202.0599 Y1295.1051
G1 F300.0 Z-4.0
G1 F800.0 X201.13 Y1296.035
G1 X71.277
G1 X70.3471 Y1295.1051
G1 X71.277 Y1296.035
G1 Y1308.095
G1 X70.3471 Y1309.0249
G1 X71.277 Y1308.095
G1 X201.13
G1 X202.0599 Y1309.0249
G1 X201.13 Y1308.095
G1 Y1296.035
G1 X202.0599 Y1295.1051
G1 F300.0 Z-5.0
G1 F800.0 X201.13 Y1296.035
G1 X71.277
G1 X70.3471 Y1295.1051
G1 X71.277 Y1296.035
G1 Y1308.095
G1 X70.3471 Y1309.0249
G1 X71.277 Y1308.095
G1 X201.13
G1 X202.0599 Y1309.0249
G1 X201.13 Y1308.095
G1 Y1296.035
G1 X202.0599 Y1295.1051
G1 F300.0 Z-6.0
G1 F800.0 X201.13 Y1296.035
G1 X71.277
G1 X70.3471 Y1295.1051
G1 X71.277 Y1296.035
G1 Y1308.095
G1 X70.3471 Y1309.0249
G1 X71.277 Y1308.095
G1 X201.13
G1 X202.0599 Y1309.0249
G1 X201.13 Y1308.095
G1 Y1296.035
G1 X202.0599 Y1295.1051
G1 F300.0 Z-7.0
G1 F800.0 X201.13 Y1296.035
G1 X71.277
G1 X70.3471 Y1295.1051
G1 X71.277 Y1296.035
G1 Y1308.095
G1 X70.3471 Y1309.0249
G1 X71.277 Y1308.095
G1 X201.13
G1 X202.0599 Y1309.0249
G1 X201.13 Y1308.095
G1 Y1296.035
G1 X202.0599 Y1295.1051
G1 F300.0 Z-8.0
G1 F800.0 X201.13 Y1296.035
G1 X71.277
G1 X70.3471 Y1295.1051
G1 X71.277 Y1296.035
G1 Y1308.095
G1 X70.3471 Y1309.0249
G1 X71.277 Y1308.095
G1 X201.13
G1 X202.0599 Y1309.0249
G1 X201.13 Y1308.095
G1 Y1296.035
G1 X202.0599 Y1295.1051
G1 F300.0 Z-9.0
G1 F800.0 X201.13 Y1296.035
G1 X71.277
G1 X70.3471 Y1295.1051
G1 X71.277 Y1296.035
G1 Y1308.095
G1 X70.3471 Y1309.0249
G1 X71.277 Y1308.095
G1 X201.13
G1 X202.0599 Y1309.0249
G1 X201.13 Y1308.095
G1 Y1296.035
G1 X202.0599 Y1295.1051
G1 F300.0 Z-10.0
G1 F800.0 X201.13 Y1296.035
G1 X71.277
G1 X70.3471 Y1295.1051
G1 X71.277 Y1296.035
G1 Y1308.095
G1 X70.3471 Y1309.0249
G1 X71.277 Y1308.095
G1 X201.13
G1 X202.0599 Y1309.0249
G1 X201.13 Y1308.095
G1 Y1296.035
G1 X202.0599 Y1295.1051
G1 F300.0 Z-11.0
G1 F800.0 X201.13 Y1296.035
G1 X71.277
G1 X70.3471 Y1295.1051
G1 X71.277 Y1296.035
G1 Y1308.095
G1 X70.3471 Y1309.0249
G1 X71.277 Y1308.095
G1 X201.13
G1 X202.0599 Y1309.0249
G1 X201.13 Y1308.095
G1 Y1296.035
G1 X202.0599 Y1295.1051
G1 F300.0 Z-12.0
G1 F800.0 X201.13 Y1296.035
G1 X71.277
G1 X70.3471 Y1295.1051
G1 X71.277 Y1296.035
G1 Y1308.095
G1 X70.3471 Y1309.0249
G1 X71.277 Y1308.095
G1 X201.13
G1 X202.0599 Y1309.0249
G1 X201.13 Y1308.095
G1 Y1296.035
G1 X202.0599 Y1295.1051
G1 F300.0 Z-13.0
G1 F800.0 X201.13 Y1296.035
G1 X71.277
G1 X70.3471 Y1295.1051
G1 X71.277 Y1296.035
G1 Y1308.095
G1 X70.3471 Y1309.0249
G1 X71.277 Y1308.095
G1 X201.13
G1 X202.0599 Y1309.0249
G1 X201.13 Y1308.095
G1 Y1296.035
G1 X202.0599 Y1295.1051
G1 F300.0 Z-14.0
G1 F800.0 X201.13 Y1296.035
G1 X71.277
G1 X70.3471 Y1295.1051
G1 X71.277 Y1296.035
G1 Y1308.095
G1 X70.3471 Y1309.0249
G1 X71.277 Y1308.095
G1 X201.13
G1 X202.0599 Y1309.0249
G1 X201.13 Y1308.095
G1 Y1296.035
G1 X202.0599 Y1295.1051
G1 F300.0 Z-15.0
G1 F800.0 X201.13 Y1296.035
G1 X71.277
G1 X70.3471 Y1295.1051
G1 X71.277 Y1296.035
G1 Y1308.095
G1 X70.3471 Y1309.0249
G1 X71.277 Y1308.095
G1 X201.13
G1 X202.0599 Y1309.0249
G1 X201.13 Y1308.095
G1 Y1296.035
G1 X202.0599 Y1295.1051
G1 F300.0 Z-16.0
G1 F800.0 X201.13 Y1296.035
G1 X71.277
G1 X70.3471 Y1295.1051
G1 X71.277 Y1296.035
G1 Y1308.095
G1 X70.3471 Y1309.0249
G1 X71.277 Y1308.095
G1 X201.13
G1 X202.0599 Y1309.0249
G1 X201.13 Y1308.095
G1 Y1296.035
G1 X202.0599 Y1295.1051
G1 F300.0 Z-17.0
G1 F800.0 X201.13 Y1296.035
G1 X71.277
G1 X70.3471 Y1295.1051
G1 X71.277 Y1296.035
G1 Y1308.095
G1 X70.3471 Y1309.0249
G1 X71.277 Y1308.095
G1 X201.13
G1 X202.0599 Y1309.0249
G1 X201.13 Y1308.095
G1 Y1296.035
G1 X202.0599 Y1295.1051
G1 F300.0 Z-18.0
G1 F800.0 X201.13 Y1296.035
G1 X132.6735
G0 Z-17.0
G1 X121.3235
G1 F300.0 Z-18.0
G1 F800.0 X71.277
G1 X70.3471 Y1295.1051
G1 X71.277 Y1296.035
G1 Y1308.095
G1 X70.3471 Y1309.0249
G1 X71.277 Y1308.095
G1 X139.7335
G0 Z-17.0
G1 X151.0835
G1 F300.0 Z-18.0
G1 F800.0 X201.13
G1 X202.0599 Y1309.0249
G1 X201.13 Y1308.095
G1 Y1296.035
G1 X202.0599 Y1295.1051
G1 F300.0 Z-19.0
G1 F800.0 X201.13 Y1296.035
G1 X132.6735
G0 Z-17.0
G1 X121.3235
G1 F300.0 Z-19.0
G1 F800.0 X71.277
G1 X70.3471 Y1295.1051
G1 X71.277 Y1296.035
G1 Y1308.095
G1 X70.3471 Y1309.0249
G1 X71.277 Y1308.095
G1 X139.7335
G0 Z-17.0
G1 X151.0835
G1 F300.0 Z-19.0
G1 F800.0 X201.13
G1 X202.0599 Y1309.0249
G1 X201.13 Y1308.095
G1 Y1296.035
G1 X202.0599 Y1295.1051
G1 F300.0 Z-20.0
G1 F800.0 X201.13 Y1296.035
G1 X132.6735
G0 Z-17.0
G1 X121.3235
G0 Z-18.0
G1 F300.0 Z-20.0
G1 F800.0 X71.277
G1 X70.3471 Y1295.1051
G1 X71.277 Y1296.035
G1 Y1308.095
G1 X70.3471 Y1309.0249
G1 X71.277 Y1308.095
G1 X139.7335
G0 Z-17.0
G1 X151.0835
G0 Z-18.0
G1 F300.0 Z-20.0
G1 F800.0 X201.13
G1 X202.0599 Y1309.0249
G1 X201.13 Y1308.095
G1 Y1296.035
G1 X202.0599 Y1295.1051
G1 F300.0 Z-21.0
G1 F800.0 X201.13 Y1296.035
G1 X132.6735
G0 Z-17.0
G1 X121.3235
G0 Z-19.0
G1 F300.0 Z-21.0
G1 F800.0 X71.277
G1 X70.3471 Y1295.1051
G1 X71.277 Y1296.035
G1 Y1308.095
G1 X70.3471 Y1309.0249
G1 X71.277 Y1308.095
G1 X139.7335
G0 Z-17.0
G1 X151.0835
G0 Z-19.0
G1 F300.0 Z-21.0
G1 F800.0 X201.13
G1 X202.0599 Y1309.0249
G1 X201.13 Y1308.095
G1 Y1296.035
G1 X202.0599 Y1295.1051
G1 F300.0 Z-22.0
G1 F800.0 X201.13 Y1296.035
G1 X132.6735
G0 Z-17.0
G1 X121.3235
G0 Z-20.0
G1 F300.0 Z-22.0
G1 F800.0 X71.277
G1 X70.3471 Y1295.1051
G1 X71.277 Y1296.035
G1 Y1308.095
G1 X70.3471 Y1309.0249
G1 X71.277 Y1308.095
G1 X139.7335
G0 Z-17.0
G1 X151.0835
G0 Z-20.0
G1 F300.0 Z-22.0
G1 F800.0 X201.13
G1 X202.0599 Y1309.0249
G1 X201.13 Y1308.095
G1 Y1296.035
G1 X202.0599 Y1295.1051
G0 Z15.0
G0 X390.6381
G0 Z1.0
G1 F300.0 Z-1.0
G1 F800.0 X391.568 Y1296.035
G1 Y1308.095
G1 X390.6381 Y1309.0249
G1 X391.568 Y1308.095
G1 X516.023
G1 X516.9529 Y1309.0249
G1 X516.023 Y1308.095
G1 Y1296.035
G1 X516.9529 Y1295.1051
G1 X516.023 Y1296.035
G1 X391.568
G1 X390.6381 Y1295.1051
G1 F300.0 Z-2.0
G1 F800.0 X391.568 Y1296.035
G1 Y1308.095
G1 X390.6381 Y1309.0249
G1 X391.568 Y1308.095
G1 X516.023
G1 X516.9529 Y1309.0249
G1 X516.023 Y1308.095
G1 Y1296.035
G1 X516.9529 Y1295.1051
G1 X516.023 Y1296.035
G1 X391.568
G1 X390.6381 Y1295.1051
G1 F300.0 Z-3.0
G1 F800.0 X391.568 Y1296.035
G1 Y1308.095
G1 X390.6381 Y1309.0249
G1 X391.568 Y1308.095
G1 X516.023
G1 X516.9529 Y1309.0249
G1 X516.023 Y1308.095
G1 Y1296.035
G1 X516.9529 Y1295.1051
G1 X516.023 Y1296.035
G1 X391.568
G1 X390.6381 Y1295.1051
G1 F300.0 Z-4.0
G1 F800.0 X391.568 Y1296.035
G1 Y1308.095
G1 X390.6381 Y1309.0249
G1 X391.568 Y1308.095
G1 X516.023
G1 X516.9529 Y1309.0249
G1 X516.023 Y1308.095
G1 Y1296.035
G1 X516.9529 Y1295.1051
G1 X516.023 Y1296.035
G1 X391.568
G1 X390.6381 Y1295.1051
G1 F300.0 Z-5.0
G1 F800.0 X391.568 Y1296.035
G1 Y1308.095
G1 X390.6381 Y1309.0249
G1 X391.568 Y1308.095
G1 X516.023
G1 X516.9529 Y1309.0249
G1 X516.023 Y1308.095
G1 Y1296.035
G1 X516.9529 Y1295.1051
G1 X516.023 Y1296.035
G1 X391.568
G1 X390.6381 Y1295.1051
G1 F300.0 Z-6.0
G1 F800.0 X391.568 Y1296.035
G1 Y1308.095
G1 X390.6381 Y1309.0249
G1 X391.568 Y1308.095
G1 X516.023
G1 X516.9529 Y1309.0249
G1 X516.023 Y1308.095
G1 Y1296.035
G1 X516.9529 Y1295.1051
G1 X516.023 Y1296.035
G1 X391.568
G1 X390.6381 Y1295.1051
G1 F300.0 Z-7.0
G1 F800.0 X391.568 Y1296.035
G1 Y1308.095
G1 X390.6381 Y1309.0249
G1 X391.568 Y1308.095
G1 X516.023
G1 X516.9529 Y1309.0249
G1 X516.023 Y1308.095
G1 Y1296.035
G1 X516.9529 Y1295.1051
G1 X516.023 Y1296.035
G1 X391.568
G1 X390.6381 Y1295.1051
G1 F300.0 Z-8.0
G1 F800.0 X391.568 Y1296.035
G1 Y1308.095
G1 X390.6381 Y1309.0249
G1 X391.568 Y1308.095
G1 X516.023
G1 X516.9529 Y1309.0249
G1 X516.023 Y1308.095
G1 Y1296.035
G1 X516.9529 Y1295.1051
G1 X516.023 Y1296.035
G1 X391.568
G1 X390.6381 Y1295.1051
G1 F300.0 Z-9.0
G1 F800.0 X391.568 Y1296.035
G1 Y1308.095
G1 X390.6381 Y1309.0249
G1 X391.568 Y1308.095
G1 X516.023
G1 X516.9529 Y1309.0249
G1 X516.023 Y1308.095
G1 Y1296.035
G1 X516.9529 Y1295.1051
G1 X516.023 Y1296.035
G1 X391.568
G1 X390.6381 Y1295.1051
G1 F300.0 Z-10.0
G1 F800.0 X391.568 Y1296.035
G1 Y1308.095
G1 X390.6381 Y1309.0249
G1 X391.568 Y1308.095
G1 X516.023
G1 X516.9529 Y1309.0249
G1 X516.023 Y1308.095
G1 Y1296.035
G1 X516.9529 Y1295.1051
G1 X516.023 Y1296.035
G1 X391.568
G1 X390.6381 Y1295.1051
G1 F300.0 Z-11.0
G1 F800.0 X391.568 Y1296.035
G1 Y1308.095
G1 X390.6381 Y1309.0249
G1 X391.568 Y1308.095
G1 X516.023
G1 X516.9529 Y1309.0249
G1 X516.023 Y1308.095
G1 Y1296.035
G1 X516.9529 Y1295.1051
G1 X516.023 Y1296.035
G1 X391.568
G1 X390.6381 Y1295.1051
G1 F300.0 Z-12.0
G1 F800.0 X391.568 Y1296.035
G1 Y1308.095
G1 X390.6381 Y1309.0249
G1 X391.568 Y1308.095
G1 X516.023
G1 X516.9529 Y1309.0249
G1 X516.023 Y1308.095
G1 Y1296.035
G1 X516.9529 Y1295.1051
G1 X516.023 Y1296.035
G1 X391.568
G1 X390.6381 Y1295.1051
G1 F300.0 Z-13.0
G1 F800.0 X391.568 Y1296.035
G1 Y1308.095
G1 X390.6381 Y1309.0249
G1 X391.568 Y1308.095
G1 X516.023
G1 X516.9529 Y1309.0249
G1 X516.023 Y1308.095
G1 Y1296.035
G1 X516.9529 Y1295.1051
G1 X516.023 Y1296.035
G1 X391.568
G1 X390.6381 Y1295.1051
G1 F300.0 Z-14.0
G1 F800.0 X391.568 Y1296.035
G1 Y1308.095
G1 X390.6381 Y1309.0249
G1 X391.568 Y1308.095
G1 X516.023
G1 X516.9529 Y1309.0249
G1 X516.023 Y1308.095
G1 Y1296.035
G1 X516.9529 Y1295.1051
G1 X516.023 Y1296.035
G1 X391.568
G1 X390.6381 Y1295.1051
G1 F300.0 Z-15.0
G1 F800.0 X391.568 Y1296.035
G1 Y1308.095
G1 X390.6381 Y1309.0249
G1 X391.568 Y1308.095
G1 X516.023
G1 X516.9529 Y1309.0249
G1 X516.023 Y1308.095
G1 Y1296.035
G1 X516.9529 Y1295.1051
G1 X516.023 Y1296.035
G1 X391.568
G1 X390.6381 Y1295.1051
G1 F300.0 Z-16.0
G1 F800.0 X391.568 Y1296.035
G1 Y1308.095
G1 X390.6381 Y1309.0249
G1 X391.568 Y1308.095
G1 X516.023
G1 X516.9529 Y1309.0249
G1 X516.023 Y1308.095
G1 Y1296.035
G1 X516.9529 Y1295.1051
G1 X516.023 Y1296.035
G1 X391.568
G1 X390.6381 Y1295.1051
G1 F300.0 Z-17.0
G1 F800.0 X391.568 Y1296.035
G1 Y1308.095
G1 X390.6381 Y1309.0249
G1 X391.568 Y1308.095
G1 X516.023
G1 X516.9529 Y1309.0249
G1 X516.023 Y1308.095
G1 Y1296.035
G1 X516.9529 Y1295.1051
G1 X516.023 Y1296.035
G1 X391.568
G1 X390.6381 Y1295.1051
G1 F300.0 Z-18.0
G1 F800.0 X391.568 Y1296.035
G1 Y1308.095
G1 X390.6381 Y1309.0249
G1 X391.568 Y1308.095
G1 X457.3255
G0 Z-17.0
G1 X468.6755
G1 F300.0 Z-18.0
G1 F800.0 X516.023
G1 X516.9529 Y1309.0249
G1 X516.023 Y1308.095
G1 Y1296.035
G1 X516.9529 Y1295.1051
G1 X516.023 Y1296.035
G1 X450.2655
G0 Z-17.0
G1 X438.9155
G1 F300.0 Z-18.0
G1 F800.0 X391.568
G1 X390.6381 Y1295.1051
G1 F300.0 Z-19.0
G1 F800.0 X391.568 Y1296.035
G1 Y1308.095
G1 X390.6381 Y1309.0249
G1 X391.568 Y1308.095
G1 X457.3255
G0 Z-17.0
G1 X468.6755
G1 F300.0 Z-19.0
G1 F800.0 X516.023
G1 X516.9529 Y1309.0249
G1 X516.023 Y1308.095
G1 Y1296.035
G1 X516.9529 Y1295.1051
G1 X516.023 Y1296.035
G1 X450.2655
G0 Z-17.0
G1 X438.9155
G1 F300.0 Z-19.0
G1 F800.0 X391.568
G1 X390.6381 Y1295.1051
G1 F300.0 Z-20.0
G1 F800.0 X391.568 Y1296.035
G1 Y1308.095
G1 X390.6381 Y1309.0249
G1 X391.568 Y1308.095
G1 X457.3255
G0 Z-17.0
G1 X468.6755
G0 Z-18.0
G1 F300.0 Z-20.0
G1 F800.0 X516.023
G1 X516.9529 Y1309.0249
G1 X516.023 Y1308.095
G1 Y1296.035
G1 X516.9529 Y1295.1051
G1 X516.023 Y1296.035
G1 X450.2655
G0 Z-17.0
G1 X438.9155
G0 Z-18.0
G1 F300.0 Z-20.0
G1 F800.0 X391.568
G1 X390.6381 Y1295.1051
G1 F300.0 Z-21.0
G1 F800.0 X391.568 Y1296.035
G1 Y1308.095
G1 X390.6381 Y1309.0249
G1 X391.568 Y1308.095
G1 X457.3255
G0 Z-17.0
G1 X468.6755
G0 Z-19.0
G1 F300.0 Z-21.0
G1 F800.0 X516.023
G1 X516.9529 Y1309.0249
G1 X516.023 Y1308.095
G1 Y1296.035
G1 X516.9529 Y1295.1051
G1 X516.023 Y1296.035
G1 X450.2655
G0 Z-17.0
G1 X438.9155
G0 Z-19.0
G1 F300.0 Z-21.0
G1 F800.0 X391.568
G1 X390.6381 Y1295.1051
G1 F300.0 Z-22.0
G1 F800.0 X391.568 Y1296.035
G1 Y1308.095
G1 X390.6381 Y1309.0249
G1 X391.568 Y1308.095
G1 X457.3255
G0 Z-17.0
G1 X468.6755
G0 Z-20.0
G1 F300.0 Z-22.0
G1 F800.0 X516.023
G1 X516.9529 Y1309.0249
G1 X516.023 Y1308.095
G1 Y1296.035
G1 X516.9529 Y1295.1051
G1 X516.023 Y1296.035
G1 X450.2655
G0 Z-17.0
G1 X438.9155
G0 Z-20.0
G1 F300.0 Z-22.0
G1 F800.0 X391.568
G1 X390.6381 Y1295.1051
G0 Z15.0
G0 X398.7371 Y1618.3251
G0 Z1.0
G1 F300.0 Z-1.0
G1 F800.0 X399.667 Y1619.255
G1 Y1631.315
G1 X398.7371 Y1632.2449
G1 X399.667 Y1631.315
G1 X518.722
G1 X519.6519 Y1632.2449
G1 X518.722 Y1631.315
G1 Y1619.255
G1 X519.6519 Y1618.3251
G1 X518.722 Y1619.255
G1 X399.667
G1 X398.7371 Y1618.3251
G1 F300.0 Z-2.0
G1 F800.0 X399.667 Y1619.255
G1 Y1631.315
G1 X398.7371 Y1632.2449
G1 X399.667 Y1631.315
G1 X518.722
G1 X519.6519 Y1632.2449
G1 X518.722 Y1631.315
G1 Y1619.255
G1 X519.6519 Y1618.3251
G1 X518.722 Y1619.255
G1 X399.667
G1 X398.7371 Y1618.3251
G1 F300.0 Z-3.0
G1 F800.0 X399.667 Y1619.255
G1 Y1631.315
G1 X398.7371 Y1632.2449
G1 X399.667 Y1631.315
G1 X518.722
G1 X519.6519 Y1632.2449
G1 X518.722 Y1631.315
G1 Y1619.255
G1 X519.6519 Y1618.3251
G1 X518.722 Y1619.255
G1 X399.667
G1 X398.7371 Y1618.3251
G1 F300.0 Z-4.0
G1 F800.0 X399.667 Y1619.255
G1 Y1631.315
G1 X398.7371 Y1632.2449
G1 X399.667 Y1631.315
G1 X518.722
G1 X519.6519 Y1632.2449
G1 X518.722 Y1631.315
G1 Y1619.255
G1 X519.6519 Y1618.3251
G1 X518.722 Y1619.255
G1 X399.667
G1 X398.7371 Y1618.3251
G1 F300.0 Z-5.0
G1 F800.0 X399.667 Y1619.255
G1 Y1631.315
G1 X398.7371 Y1632.2449
G1 X399.667 Y1631.315
G1 X518.722
G1 X519.6519 Y1632.2449
G1 X518.722 Y1631.315
G1 Y1619.255
G1 X519.6519 Y1618.3251
G1 X518.722 Y1619.255
G1 X399.667
G1 X398.7371 Y1618.3251
G1 F300.0 Z-6.0
G1 F800.0 X399.667 Y1619.255
G1 Y1631.315
G1 X398.7371 Y1632.2449
G1 X399.667 Y1631.315
G1 X518.722
G1 X519.6519 Y1632.2449
G1 X518.722 Y1631.315
G1 Y1619.255
G1 X519.6519 Y1618.3251
G1 X518.722 Y1619.255
G1 X399.667
G1 X398.7371 Y1618.3251
G1 F300.0 Z-7.0
G1 F800.0 X399.667 Y1619.255
G1 Y1631.315
G1 X398.7371 Y1632.2449
G1 X399.667 Y1631.315
G1 X518.722
G1 X519.6519 Y1632.2449
G1 X518.722 Y1631.315
G1 Y1619.255
G1 X519.6519 Y1618.3251
G1 X518.722 Y1619.255
G1 X399.667
G1 X398.7371 Y1618.3251
G1 F300.0 Z-8.0
G1 F800.0 X399.667 Y1619.255
G1 Y1631.315
G1 X398.7371 Y1632.2449
G1 X399.667 Y1631.315
G1 X518.722
G1 X519.6519 Y1632.2449
G1 X518.722 Y1631.315
G1 Y1619.255
G1 X519.6519 Y1618.3251
G1 X518.722 Y1619.255
G1 X399.667
G1 X398.7371 Y1618.3251
G1 F300.0 Z-9.0
G1 F800.0 X399.667 Y1619.255
G1 Y1631.315
G1 X398.7371 Y1632.2449
G1 X399.667 Y1631.315
G1 X518.722
G1 X519.6519 Y1632.2449
G1 X518.722 Y1631.315
G1 Y1619.255
G1 X519.6519 Y1618.3251
G1 X518.722 Y1619.255
G1 X399.667
G1 X398.7371 Y1618.3251
G1 F300.0 Z-10.0
G1 F800.0 X399.667 Y1619.255
G1 Y1631.315
G1 X398.7371 Y1632.2449
G1 X399.667 Y1631.315
G1 X518.722
G1 X519.6519 Y1632.2449
G1 X518.722 Y1631.315
G1 Y1619.255
G1 X519.6519 Y1618.3251
G1 X518.722 Y1619.255
G1 X399.667
G1 X398.7371 Y1618.3251
G1 F300.0 Z-11.0
G1 F800.0 X399.667 Y1619.255
G1 Y1631.315
G1 X398.7371 Y1632.2449
G1 X399.667 Y1631.315
G1 X518.722
G1 X519.6519 Y1632.2449
G1 X518.722 Y1631.315
G1 Y1619.255
G1 X519.6519 Y1618.3251
G1 X518.722 Y1619.255
G1 X399.667
G1 X398.7371 Y1618.3251
G1 F300.0 Z-12.0
G1 F800.0 X399.667 Y1619.255
G1 Y1631.315
G1 X398.7371 Y1632.2449
G1 X399.667 Y1631.315
G1 X518.722
G1 X519.6519 Y1632.2449
G1 X518.722 Y1631.315
G1 Y1619.255
G1 X519.6519 Y1618.3251
G1 X518.722 Y1619.255
G1 X399.667
G1 X398.7371 Y1618.3251
G1 F300.0 Z-13.0
G1 F800.0 X399.667 Y1619.255
G1 Y1631.315
G1 X398.7371 Y1632.2449
G1 X399.667 Y1631.315
G1 X518.722
G1 X519.6519 Y1632.2449
G1 X518.722 Y1631.315
G1 Y1619.255
G1 X519.6519 Y1618.3251
G1 X518.722 Y1619.255
G1 X399.667
G1 X398.7371 Y1618.3251
G1 F300.0 Z-14.0
G1 F800.0 X399.667 Y1619.255
G1 Y1631.315
G1 X398.7371 Y1632.2449
G1 X399.667 Y1631.315
G1 X518.722
G1 X519.6519 Y1632.2449
G1 X518.722 Y1631.315
G1 Y1619.255
G1 X519.6519 Y1618.3251
G1 X518.722 Y1619.255
G1 X399.667
G1 X398.7371 Y1618.3251
G1 F300.0 Z-15.0
G1 F800.0 X399.667 Y1619.255
G1 Y1631.315
G1 X398.7371 Y1632.2449
G1 X399.667 Y1631.315
G1 X518.722
G1 X519.6519 Y1632.2449
G1 X518.722 Y1631.315
G1 Y1619.255
G1 X519.6519 Y1618.3251
G1 X518.722 Y1619.255
G1 X399.667
G1 X398.7371 Y1618.3251
G1 F300.0 Z-16.0
G1 F800.0 X399.667 Y1619.255
G1 Y1631.315
G1 X398.7371 Y1632.2449
G1 X399.667 Y1631.315
G1 X518.722
G1 X519.6519 Y1632.2449
G1 X518.722 Y1631.315
G1 Y1619.255
G1 X519.6519 Y1618.3251
G1 X518.722 Y1619.255
G1 X399.667
G1 X398.7371 Y1618.3251
G1 F300.0 Z-17.0
G1 F800.0 X399.667 Y1619.255
G1 Y1631.315
G1 X398.7371 Y1632.2449
G1 X399.667 Y1631.315
G1 X518.722
G1 X519.6519 Y1632.2449
G1 X518.722 Y1631.315
G1 Y1619.255
G1 X519.6519 Y1618.3251
G1 X518.722 Y1619.255
G1 X399.667
G1 X398.7371 Y1618.3251
G1 F300.0 Z-18.0
G1 F800.0 X399.667 Y1619.255
G1 Y1631.315
G1 X398.7371 Y1632.2449
G1 X399.667 Y1631.315
G1 X462.7245
G0 Z-17.0
G1 X474.0745
G1 F300.0 Z-18.0
G1 F800.0 X518.722
G1 X519.6519 Y1632.2449
G1 X518.722 Y1631.315
G1 Y1619.255
G1 X519.6519 Y1618.3251
G1 X518.722 Y1619.255
G1 X455.6645
G0 Z-17.0
G1 X444.3145
G1 F300.0 Z-18.0
G1 F800.0 X399.667
G1 X398.7371 Y1618.3251
G1 F300.0 Z-19.0
G1 F800.0 X399.667 Y1619.255
G1 Y1631.315
G1 X398.7371 Y1632.2449
G1 X399.667 Y1631.315
G1 X462.7245
G0 Z-17.0
G1 X474.0745
G1 F300.0 Z-19.0
G1 F800.0 X518.722
G1 X519.6519 Y1632.2449
G1 X518.722 Y1631.315
G1 Y1619.255
G1 X519.6519 Y1618.3251
G1 X518.722 Y1619.255
G1 X455.6645
G0 Z-17.0
G1 X444.3145
G1 F300.0 Z-19.0
G1 F800.0 X399.667
G1 X398.7371 Y1618.3251
G1 F300.0 Z-20.0
G1 F800.0 X399.667 Y1619.255
G1 Y1631.315
G1 X398.7371 Y1632.2449
G1 X399.667 Y1631.315
G1 X462.7245
G0 Z-17.0
G1 X474.0745
G0 Z-18.0
G1 F300.0 Z-20.0
G1 F800.0 X518.722
G1 X519.6519 Y1632.2449
G1 X518.722 Y1631.315
G1 Y1619.255
G1 X519.6519 Y1618.3251
G1 X518.722 Y1619.255
G1 X455.6645
G0 Z-17.0
G1 X444.3145
G0 Z-18.0
G1 F300.0 Z-20.0
G1 F800.0 X399.667
G1 X398.7371 Y1618.3251
G1 F300.0 Z-21.0
G1 F800.0 X399.667 Y1619.255
G1 Y1631.315
G1 X398.7371 Y1632.2449
G1 X399.667 Y1631.315
G1 X462.7245
G0 Z-17.0
G1 X474.0745
G0 Z-19.0
G1 F300.0 Z-21.0
G1 F800.0 X518.722
G1 X519.6519 Y1632.2449
G1 X518.722 Y1631.315
G1 Y1619.255
G1 X519.6519 Y1618.3251
G1 X518.722 Y1619.255
G1 X455.6645
G0 Z-17.0
G1 X444.3145
G0 Z-19.0
G1 F300.0 Z-21.0
G1 F800.0 X399.667
G1 X398.7371 Y1618.3251
G1 F300.0 Z-22.0
G1 F800.0 X399.667 Y1619.255
G1 Y1631.315
G1 X398.7371 Y1632.2449
G1 X399.667 Y1631.315
G1 X462.7245
G0 Z-17.0
G1 X474.0745
G0 Z-20.0
G1 F300.0 Z-22.0
G1 F800.0 X518.722
G1 X519.6519 Y1632.2449
G1 X518.722 Y1631.315
G1 Y1619.255
G1 X519.6519 Y1618.3251
G1 X518.722 Y1619.255
G1 X455.6645
G0 Z-17.0
G1 X444.3145
G0 Z-20.0
G1 F300.0 Z-22.0
G1 F800.0 X399.667
G1 X398.7371 Y1618.3251
G0 Z15.0
G0 X210.1579
G0 Z1.0
G1 F300.0 Z-1.0
G1 F800.0 X209.228 Y1619.255
G1 X73.976
G1 X73.0461 Y1618.3251
G1 X73.976 Y1619.255
G1 Y1631.315
G1 X73.0461 Y1632.2449
G1 X73.976 Y1631.315
G1 X209.228
G1 X210.1579 Y1632.2449
G1 X209.228 Y1631.315
G1 Y1619.255
G1 X210.1579 Y1618.3251
G1 F300.0 Z-2.0
G1 F800.0 X209.228 Y1619.255
G1 X73.976
G1 X73.0461 Y1618.3251
G1 X73.976 Y1619.255
G1 Y1631.315
G1 X73.0461 Y1632.2449
G1 X73.976 Y1631.315
G1 X209.228
G1 X210.1579 Y1632.2449
G1 X209.228 Y1631.315
G1 Y1619.255
G1 X210.1579 Y1618.3251
G1 F300.0 Z-3.0
G1 F800.0 X209.228 Y1619.255
G1 X73.976
G1 X73.0461 Y1618.3251
G1 X73.976 Y1619.255
G1 Y1631.315
G1 X73.0461 Y1632.2449
G1 X73.976 Y1631.315
G1 X209.228
G1 X210.1579 Y1632.2449
G1 X209.228 Y1631.315
G1 Y1619.255
G1 X210.1579 Y1618.3251
G1 F300.0 Z-4.0
G1 F800.0 X209.228 Y1619.255
G1 X73.976
G1 X73.0461 Y1618.3251
G1 X73.976 Y1619.255
G1 Y1631.315
G1 X73.0461 Y1632.2449
G1 X73.976 Y1631.315
G1 X209.228
G1 X210.1579 Y1632.2449
G1 X209.228 Y1631.315
G1 Y1619.255
G1 X210.1579 Y1618.3251
G1 F300.0 Z-5.0
G1 F800.0 X209.228 Y1619.255
G1 X73.976
G1 X73.0461 Y1618.3251
G1 X73.976 Y1619.255
G1 Y1631.315
G1 X73.0461 Y1632.2449
G1 X73.976 Y1631.315
G1 X209.228
G1 X210.1579 Y1632.2449
G1 X209.228 Y1631.315
G1 Y1619.255
G1 X210.1579 Y1618.3251
G1 F300.0 Z-6.0
G1 F800.0 X209.228 Y1619.255
G1 X73.976
G1 X73.0461 Y1618.3251
G1 X73.976 Y1619.255
G1 Y1631.315
G1 X73.0461 Y1632.2449
G1 X73.976 Y1631.315
G1 X209.228
G1 X210.1579 Y1632.2449
G1 X209.228 Y1631.315
G1 Y1619.255
G1 X210.1579 Y1618.3251
G1 F300.0 Z-7.0
G1 F800.0 X209.228 Y1619.255
G1 X73.976
G1 X73.0461 Y1618.3251
G1 X73.976 Y1619.255
G1 Y1631.315
G1 X73.0461 Y1632.2449
G1 X73.976 Y1631.315
G1 X209.228
G1 X210.1579 Y1632.2449
G1 X209.228 Y1631.315
G1 Y1619.255
G1 X210.1579 Y1618.3251
G1 F300.0 Z-8.0
G1 F800.0 X209.228 Y1619.255
G1 X73.976
G1 X73.0461 Y1618.3251
G1 X73.976 Y1619.255
G1 Y1631.315
G1 X73.0461 Y1632.2449
G1 X73.976 Y1631.315
G1 X209.228
G1 X210.1579 Y1632.2449
G1 X209.228 Y1631.315
G1 Y1619.255
G1 X210.1579 Y1618.3251
G1 F300.0 Z-9.0
G1 F800.0 X209.228 Y1619.255
G1 X73.976
G1 X73.0461 Y1618.3251
G1 X73.976 Y1619.255
G1 Y1631.315
G1 X73.0461 Y1632.2449
G1 X73.976 Y1631.315
G1 X209.228
G1 X210.1579 Y1632.2449
G1 X209.228 Y1631.315
G1 Y1619.255
G1 X210.1579 Y1618.3251
G1 F300.0 Z-10.0
G1 F800.0 X209.228 Y1619.255
G1 X73.976
G1 X73.0461 Y1618.3251
G1 X73.976 Y1619.255
G1 Y1631.315
G1 X73.0461 Y1632.2449
G1 X73.976 Y1631.315
G1 X209.228
G1 X210.1579 Y1632.2449
G1 X209.228 Y1631.315
G1 Y1619.255
G1 X210.1579 Y1618.3251
G1 F300.0 Z-11.0
G1 F800.0 X209.228 Y1619.255
G1 X73.976
G1 X73.0461 Y1618.3251
G1 X73.976 Y1619.255
G1 Y1631.315
G1 X73.0461 Y1632.2449
G1 X73.976 Y1631.315
G1 X209.228
G1 X210.1579 Y1632.2449
G1 X209.228 Y1631.315
G1 Y1619.255
G1 X210.1579 Y1618.3251
G1 F300.0 Z-12.0
G1 F800.0 X209.228 Y1619.255
G1 X73.976
G1 X73.0461 Y1618.3251
G1 X73.976 Y1619.255
G1 Y1631.315
G1 X73.0461 Y1632.2449
G1 X73.976 Y1631.315
G1 X209.228
G1 X210.1579 Y1632.2449
G1 X209.228 Y1631.315
G1 Y1619.255
G1 X210.1579 Y1618.3251
G1 F300.0 Z-13.0
G1 F800.0 X209.228 Y1619.255
G1 X73.976
G1 X73.0461 Y1618.3251
G1 X73.976 Y1619.255
G1 Y1631.315
G1 X73.0461 Y1632.2449
G1 X73.976 Y1631.315
G1 X209.228
G1 X210.1579 Y1632.2449
G1 X209.228 Y1631.315
G1 Y1619.255
G1 X210.1579 Y1618.3251
G1 F300.0 Z-14.0
G1 F800.0 X209.228 Y1619.255
G1 X73.976
G1 X73.0461 Y1618.3251
G1 X73.976 Y1619.255
G1 Y1631.315
G1 X73.0461 Y1632.2449
G1 X73.976 Y1631.315
G1 X209.228
G1 X210.1579 Y1632.2449
G1 X209.228 Y1631.315
G1 Y1619.255
G1 X210.1579 Y1618.3251
G1 F300.0 Z-15.0
G1 F800.0 X209.228 Y1619.255
G1 X73.976
G1 X73.0461 Y1618.3251
G1 X73.976 Y1619.255
G1 Y1631.315
G1 X73.0461 Y1632.2449
G1 X73.976 Y1631.315
G1 X209.228
G1 X210.1579 Y1632.2449
G1 X209.228 Y1631.315
G1 Y1619.255
G1 X210.1579 Y1618.3251
G1 F300.0 Z-16.0
G1 F800.0 X209.228 Y1619.255
G1 X73.976
G1 X73.0461 Y1618.3251
G1 X73.976 Y1619.255
G1 Y1631.315
G1 X73.0461 Y1632.2449
G1 X73.976 Y1631.315
G1 X209.228
G1 X210.1579 Y1632.2449
G1 X209.228 Y1631.315
G1 Y1619.255
G1 X210.1579 Y1618.3251
G1 F300.0 Z-17.0
G1 F800.0 X209.228 Y1619.255
G1 X73.976
G1 X73.0461 Y1618.3251
G1 X73.976 Y1619.255
G1 Y1631.315
G1 X73.0461 Y1632.2449
G1 X73.976 Y1631.315
G1 X209.228
G1 X210.1579 Y1632.2449
G1 X209.228 Y1631.315
G1 Y1619.255
G1 X210.1579 Y1618.3251
G1 F300.0 Z-18.0
G1 F800.0 X209.228 Y1619.255
G1 X138.072
G0 Z-17.0
G1 X126.722
G1 F300.0 Z-18.0
G1 F800.0 X73.976
G1 X73.0461 Y1618.3251
G1 X73.976 Y1619.255
G1 Y1631.315
G1 X73.0461 Y1632.2449
G1 X73.976 Y1631.315
G1 X145.132
G0 Z-17.0
G1 X156.482
G1 F300.0 Z-18.0
G1 F800.0 X209.228
G1 X210.1579 Y1632.2449
G1 X209.228 Y1631.315
G1 Y1619.255
G1 X210.1579 Y1618.3251
G1 F300.0 Z-19.0
G1 F800.0 X209.228 Y1619.255
G1 X138.072
G0 Z-17.0
G1 X126.722
G1 F300.0 Z-19.0
G1 F800.0 X73.976
G1 X73.0461 Y1618.3251
G1 X73.976 Y1619.255
G1 Y1631.315
G1 X73.0461 Y1632.2449
G1 X73.976 Y1631.315
G1 X145.132
G0 Z-17.0
G1 X156.482
G1 F300.0 Z-19.0
G1 F800.0 X209.228
G1 X210.1579 Y1632.2449
G1 X209.228 Y1631.315
G1 Y1619.255
G1 X210.1579 Y1618.3251
G1 F300.0 Z-20.0
G1 F800.0 X209.228 Y1619.255
G1 X138.072
G0 Z-17.0
G1 X126.722
G0 Z-18.0
G1 F300.0 Z-20.0
G1 F800.0 X73.976
G1 X73.0461 Y1618.3251
G1 X73.976 Y1619.255
G1 Y1631.315
G1 X73.0461 Y1632.2449
G1 X73.976 Y1631.315
G1 X145.132
G0 Z-17.0
G1 X156.482
G0 Z-18.0
G1 F300.0 Z-20.0
G1 F800.0 X209.228
G1 X210.1579 Y1632.2449
G1 X209.228 Y1631.315
G1 Y1619.255
G1 X210.1579 Y1618.3251
G1 F300.0 Z-21.0
G1 F800.0 X209.228 Y1619.255
G1 X138.072
G0 Z-17.0
G1 X126.722
G0 Z-19.0
G1 F300.0 Z-21.0
G1 F800.0 X73.976
G1 X73.0461 Y1618.3251
G1 X73.976 Y1619.255
G1 Y1631.315
G1 X73.0461 Y1632.2449
G1 X73.976 Y1631.315
G1 X145.132
G0 Z-17.0
G1 X156.482
G0 Z-19.0
G1 F300.0 Z-21.0
G1 F800.0 X209.228
G1 X210.1579 Y1632.2449
G1 X209.228 Y1631.315
G1 Y1619.255
G1 X210.1579 Y1618.3251
G1 F300.0 Z-22.0
G1 F800.0 X209.228 Y1619.255
G1 X138.072
G0 Z-17.0
G1 X126.722
G0 Z-20.0
G1 F300.0 Z-22.0
G1 F800.0 X73.976
G1 X73.0461 Y1618.3251
G1 X73.976 Y1619.255
G1 Y1631.315
G1 X73.0461 Y1632.2449
G1 X73.976 Y1631.315
G1 X145.132
G0 Z-17.0
G1 X156.482
G0 Z-20.0
G1 F300.0 Z-22.0
G1 F800.0 X209.228
G1 X210.1579 Y1632.2449
G1 X209.228 Y1631.315
G1 Y1619.255
G1 X210.1579 Y1618.3251
G0 Z15.0
G0 X218.2569 Y1941.5351
G0 Z1.0
G1 F300.0 Z-1.0
G1 F800.0 X217.327 Y1942.465
G1 X76.676
G1 X75.7461 Y1941.5351
G1 X76.676 Y1942.465
G1 Y1954.535
G1 X75.7461 Y1955.4649
G1 X76.676 Y1954.535
G1 X217.327
G1 X218.2569 Y1955.4649
G1 X217.327 Y1954.535
G1 Y1942.465
G1 X218.2569 Y1941.5351
G1 F300.0 Z-2.0
G1 F800.0 X217.327 Y1942.465
G1 X76.676
G1 X75.7461 Y1941.5351
G1 X76.676 Y1942.465
G1 Y1954.535
G1 X75.7461 Y1955.4649
G1 X76.676 Y1954.535
G1 X217.327
G1 X218.2569 Y1955.4649
G1 X217.327 Y1954.535
G1 Y1942.465
G1 X218.2569 Y1941.5351
G1 F300.0 Z-3.0
G1 F800.0 X217.327 Y1942.465
G1 X76.676
G1 X75.7461 Y1941.5351
G1 X76.676 Y1942.465
G1 Y1954.535
G1 X75.7461 Y1955.4649
G1 X76.676 Y1954.535
G1 X217.327
G1 X218.2569 Y1955.4649
G1 X217.327 Y1954.535
G1 Y1942.465
G1 X218.2569 Y1941.5351
G1 F300.0 Z-4.0
G1 F800.0 X217.327 Y1942.465
G1 X76.676
G1 X75.7461 Y1941.5351
G1 X76.676 Y1942.465
G1 Y1954.535
G1 X75.7461 Y1955.4649
G1 X76.676 Y1954.535
G1 X217.327
G1 X218.2569 Y1955.4649
G1 X217.327 Y1954.535
G1 Y1942.465
G1 X218.2569 Y1941.5351
G1 F300.0 Z-5.0
G1 F800.0 X217.327 Y1942.465
G1 X76.676
G1 X75.7461 Y1941.5351
G1 X76.676 Y1942.465
G1 Y1954.535
G1 X75.7461 Y1955.4649
G1 X76.676 Y1954.535
G1 X217.327
G1 X218.2569 Y1955.4649
G1 X217.327 Y1954.535
G1 Y1942.465
G1 X218.2569 Y1941.5351
G1 F300.0 Z-6.0
G1 F800.0 X217.327 Y1942.465
G1 X76.676
G1 X75.7461 Y1941.5351
G1 X76.676 Y1942.465
G1 Y1954.535
G1 X75.7461 Y1955.4649
G1 X76.676 Y1954.535
G1 X217.327
G1 X218.2569 Y1955.4649
G1 X217.327 Y1954.535
G1 Y1942.465
G1 X218.2569 Y1941.5351
G1 F300.0 Z-7.0
G1 F800.0 X217.327 Y1942.465
G1 X76.676
G1 X75.7461 Y1941.5351
G1 X76.676 Y1942.465
G1 Y1954.535
G1 X75.7461 Y1955.4649
G1 X76.676 Y1954.535
G1 X217.327
G1 X218.2569 Y1955.4649
G1 X217.327 Y1954.535
G1 Y1942.465
G1 X218.2569 Y1941.5351
G1 F300.0 Z-8.0
G1 F800.0 X217.327 Y1942.465
G1 X76.676
G1 X75.7461 Y1941.5351
G1 X76.676 Y1942.465
G1 Y1954.535
G1 X75.7461 Y1955.4649
G1 X76.676 Y1954.535
G1 X217.327
G1 X218.2569 Y1955.4649
G1 X217.327 Y1954.535
G1 Y1942.465
G1 X218.2569 Y1941.5351
G1 F300.0 Z-9.0
G1 F800.0 X217.327 Y1942.465
G1 X76.676
G1 X75.7461 Y1941.5351
G1 X76.676 Y1942.465
G1 Y1954.535
G1 X75.7461 Y1955.4649
G1 X76.676 Y1954.535
G1 X217.327
G1 X218.2569 Y1955.4649
G1 X217.327 Y1954.535
G1 Y1942.465
G1 X218.2569 Y1941.5351
G1 F300.0 Z-10.0
G1 F800.0 X217.327 Y1942.465
G1 X76.676
G1 X75.7461 Y1941.5351
G1 X76.676 Y1942.465
G1 Y1954.535
G1 X75.7461 Y1955.4649
G1 X76.676 Y1954.535
G1 X217.327
G1 X218.2569 Y1955.4649
G1 X217.327 Y1954.535
G1 Y1942.465
G1 X218.2569 Y1941.5351
G1 F300.0 Z-11.0
G1 F800.0 X217.327 Y1942.465
G1 X76.676
G1 X75.7461 Y1941.5351
G1 X76.676 Y1942.465
G1 Y1954.535
G1 X75.7461 Y1955.4649
G1 X76.676 Y1954.535
G1 X217.327
G1 X218.2569 Y1955.4649
G1 X217.327 Y1954.535
G1 Y1942.465
G1 X218.2569 Y1941.5351
G1 F300.0 Z-12.0
G1 F800.0 X217.327 Y1942.465
G1 X76.676
G1 X75.7461 Y1941.5351
G1 X76.676 Y1942.465
G1 Y1954.535
G1 X75.7461 Y1955.4649
G1 X76.676 Y1954.535
G1 X217.327
G1 X218.2569 Y1955.4649
G1 X217.327 Y1954.535
G1 Y1942.465
G1 X218.2569 Y1941.5351
G1 F300.0 Z-13.0
G1 F800.0 X217.327 Y1942.465
G1 X76.676
G1 X75.7461 Y1941.5351
G1 X76.676 Y1942.465
G1 Y1954.535
G1 X75.7461 Y1955.4649
G1 X76.676 Y1954.535
G1 X217.327
G1 X218.2569 Y1955.4649
G1 X217.327 Y1954.535
G1 Y1942.465
G1 X218.2569 Y1941.5351
G1 F300.0 Z-14.0
G1 F800.0 X217.327 Y1942.465
G1 X76.676
G1 X75.7461 Y1941.5351
G1 X76.676 Y1942.465
G1 Y1954.535
G1 X75.7461 Y1955.4649
G1 X76.676 Y1954.535
G1 X217.327
G1 X218.2569 Y1955.4649
G1 X217.327 Y1954.535
G1 Y1942.465
G1 X218.2569 Y1941.5351
G1 F300.0 Z-15.0
G1 F800.0 X217.327 Y1942.465
G1 X76.676
G1 X75.7461 Y1941.5351
G1 X76.676 Y1942.465
G1 Y1954.535
G1 X75.7461 Y1955.4649
G1 X76.676 Y1954.535
G1 X217.327
G1 X218.2569 Y1955.4649
G1 X217.327 Y1954.535
G1 Y1942.465
G1 X218.2569 Y1941.5351
G1 F300.0 Z-16.0
G1 F800.0 X217.327 Y1942.465
G1 X76.676
G1 X75.7461 Y1941.5351
G1 X76.676 Y1942.465
G1 Y1954.535
G1 X75.7461 Y1955.4649
G1 X76.676 Y1954.535
G1 X217.327
G1 X218.2569 Y1955.4649
G1 X217.327 Y1954.535
G1 Y1942.465
G1 X218.2569 Y1941.5351
G1 F300.0 Z-17.0
G1 F800.0 X217.327 Y1942.465
G1 X76.676
G1 X75.7461 Y1941.5351
G1 X76.676 Y1942.465
G1 Y1954.535
G1 X75.7461 Y1955.4649
G1 X76.676 Y1954.535
G1 X217.327
G1 X218.2569 Y1955.4649
G1 X217.327 Y1954.535
G1 Y1942.465
G1 X218.2569 Y1941.5351
G1 F300.0 Z-18.0
G1 F800.0 X217.327 Y1942.465
G1 X143.4665
G0 Z-17.0
G1 X132.1165
G1 F300.0 Z-18.0
G1 F800.0 X76.676
G1 X75.7461 Y1941.5351
G1 X76.676 Y1942.465
G1 Y1954.535
G1 X75.7461 Y1955.4649
G1 X76.676 Y1954.535
G1 X150.5365
G0 Z-17.0
G1 X161.8865
G1 F300.0 Z-18.0
G1 F800.0 X217.327
G1 X218.2569 Y1955.4649
G1 X217.327 Y1954.535
G1 Y1942.465
G1 X218.2569 Y1941.5351
G1 F300.0 Z-19.0
G1 F800.0 X217.327 Y1942.465
G1 X143.4665
G0 Z-17.0
G1 X132.1165
G1 F300.0 Z-19.0
G1 F800.0 X76.676
G1 X75.7461 Y1941.5351
G1 X76.676 Y1942.465
G1 Y1954.535
G1 X75.7461 Y1955.4649
G1 X76.676 Y1954.535
G1 X150.5365
G0 Z-17.0
G1 X161.8865
G1 F300.0 Z-19.0
G1 F800.0 X217.327
G1 X218.2569 Y1955.4649
G1 X217.327 Y1954.535
G1 Y1942.465
G1 X218.2569 Y1941.5351
G1 F300.0 Z-20.0
G1 F800.0 X217.327 Y1942.465
G1 X143.4665
G0 Z-17.0
G1 X132.1165
G0 Z-18.0
G1 F300.0 Z-20.0
G1 F800.0 X76.676
G1 X75.7461 Y1941.5351
G1 X76.676 Y1942.465
G1 Y1954.535
G1 X75.7461 Y1955.4649
G1 X76.676 Y1954.535
G1 X150.5365
G0 Z-17.0
G1 X161.8865
G0 Z-18.0
G1 F300.0 Z-20.0
G1 F800.0 X217.327
G1 X218.2569 Y1955.4649
G1 X217.327 Y1954.535
G1 Y1942.465
G1 X218.2569 Y1941.5351
G1 F300.0 Z-21.0
G1 F800.0 X217.327 Y1942.465
G1 X143.4665
G0 Z-17.0
G1 X132.1165
G0 Z-19.0
G1 F300.0 Z-21.0
G1 F800.0 X76.676
G1 X75.7461 Y1941.5351
G1 X76.676 Y1942.465
G1 Y1954.535
G1 X75.7461 Y1955.4649
G1 X76.676 Y1954.535
G1 X150.5365
G0 Z-17.0
G1 X161.8865
G0 Z-19.0
G1 F300.0 Z-21.0
G1 F800.0 X217.327
G1 X218.2569 Y1955.4649
G1 X217.327 Y1954.535
G1 Y1942.465
G1 X218.2569 Y1941.5351
G1 F300.0 Z-22.0
G1 F800.0 X217.327 Y1942.465
G1 X143.4665
G0 Z-17.0
G1 X132.1165
G0 Z-20.0
G1 F300.0 Z-22.0
G1 F800.0 X76.676
G1 X75.7461 Y1941.5351
G1 X76.676 Y1942.465
G1 Y1954.535
G1 X75.7461 Y1955.4649
G1 X76.676 Y1954.535
G1 X150.5365
G0 Z-17.0
G1 X161.8865
G0 Z-20.0
G1 F300.0 Z-22.0
G1 F800.0 X217.327
G1 X218.2569 Y1955.4649
G1 X217.327 Y1954.535
G1 Y1942.465
G1 X218.2569 Y1941.5351
G0 Z15.0
G0 X406.8351
G0 Z1.0
G1 F300.0 Z-1.0
G1 F800.0 X407.765 Y1942.465
G1 Y1954.535
G1 X406.8351 Y1955.4649
G1 X407.765 Y1954.535
G1 X521.422
G1 X522.3519 Y1955.4649
G1 X521.422 Y1954.535
G1 Y1942.465
G1 X522.3519 Y1941.5351
G1 X521.422 Y1942.465
G1 X407.765
G1 X406.8351 Y1941.5351
G1 F300.0 Z-2.0
G1 F800.0 X407.765 Y1942.465
G1 Y1954.535
G1 X406.8351 Y1955.4649
G1 X407.765 Y1954.535
G1 X521.422
G1 X522.3519 Y1955.4649
G1 X521.422 Y1954.535
G1 Y1942.465
G1 X522.3519 Y1941.5351
G1 X521.422 Y1942.465
G1 X407.765
G1 X406.8351 Y1941.5351
G1 F300.0 Z-3.0
G1 F800.0 X407.765 Y1942.465
G1 Y1954.535
G1 X406.8351 Y1955.4649
G1 X407.765 Y1954.535
G1 X521.422
G1 X522.3519 Y1955.4649
G1 X521.422 Y1954.535
G1 Y1942.465
G1 X522.3519 Y1941.5351
G1 X521.422 Y1942.465
G1 X407.765
G1 X406.8351 Y1941.5351
G1 F300.0 Z-4.0
G1 F800.0 X407.765 Y1942.465
G1 Y1954.535
G1 X406.8351 Y1955.4649
G1 X407.765 Y1954.535
G1 X521.422
G1 X522.3519 Y1955.4649
G1 X521.422 Y1954.535
G1 Y1942.465
G1 X522.3519 Y1941.5351
G1 X521.422 Y1942.465
G1 X407.765
G1 X406.8351 Y1941.5351
G1 F300.0 Z-5.0
G1 F800.0 X407.765 Y1942.465
G1 Y1954.535
G1 X406.8351 Y1955.4649
G1 X407.765 Y1954.535
G1 X521.422
G1 X522.3519 Y1955.4649
G1 X521.422 Y1954.535
G1 Y1942.465
G1 X522.3519 Y1941.5351
G1 X521.422 Y1942.465
G1 X407.765
G1 X406.8351 Y1941.5351
G1 F300.0 Z-6.0
G1 F800.0 X407.765 Y1942.465
G1 Y1954.535
G1 X406.8351 Y1955.4649
G1 X407.765 Y1954.535
G1 X521.422
G1 X522.3519 Y1955.4649
G1 X521.422 Y1954.535
G1 Y1942.465
G1 X522.3519 Y1941.5351
G1 X521.422 Y1942.465
G1 X407.765
G1 X406.8351 Y1941.5351
G1 F300.0 Z-7.0
G1 F800.0 X407.765 Y1942.465
G1 Y1954.535
G1 X406.8351 Y1955.4649
G1 X407.765 Y1954.535
G1 X521.422
G1 X522.3519 Y1955.4649
G1 X521.422 Y1954.535
G1 Y1942.465
G1 X522.3519 Y1941.5351
G1 X521.422 Y1942.465
G1 X407.765
G1 X406.8351 Y1941.5351
G1 F300.0 Z-8.0
G1 F800.0 X407.765 Y1942.465
G1 Y1954.535
G1 X406.8351 Y1955.4649
G1 X407.765 Y1954.535
G1 X521.422
G1 X522.3519 Y1955.4649
G1 X521.422 Y1954.535
G1 Y1942.465
G1 X522.3519 Y1941.5351
G1 X521.422 Y1942.465
G1 X407.765
G1 X406.8351 Y1941.5351
G1 F300.0 Z-9.0
G1 F800.0 X407.765 Y1942.465
G1 Y1954.535
G1 X406.8351 Y1955.4649
G1 X407.765 Y1954.535
G1 X521.422
G1 X522.3519 Y1955.4649
G1 X521.422 Y1954.535
G1 Y1942.465
G1 X522.3519 Y1941.5351
G1 X521.422 Y1942.465
G1 X407.765
G1 X406.8351 Y1941.5351
G1 F300.0 Z-10.0
G1 F800.0 X407.765 Y1942.465
G1 Y1954.535
G1 X406.8351 Y1955.4649
G1 X407.765 Y1954.535
G1 X521.422
G1 X522.3519 Y1955.4649
G1 X521.422 Y1954.535
G1 Y1942.465
G1 X522.3519 Y1941.5351
G1 X521.422 Y1942.465
G1 X407.765
G1 X406.8351 Y1941.5351
G1 F300.0 Z-11.0
G1 F800.0 X407.765 Y1942.465
G1 Y1954.535
G1 X406.8351 Y1955.4649
G1 X407.765 Y1954.535
G1 X521.422
G1 X522.3519 Y1955.4649
G1 X521.422 Y1954.535
G1 Y1942.465
G1 X522.3519 Y1941.5351
G1 X521.422 Y1942.465
G1 X407.765
G1 X406.8351 Y1941.5351
G1 F300.0 Z-12.0
G1 F800.0 X407.765 Y1942.465
G1 Y1954.535
G1 X406.8351 Y1955.4649
G1 X407.765 Y1954.535
G1 X521.422
G1 X522.3519 Y1955.4649
G1 X521.422 Y1954.535
G1 Y1942.465
G1 X522.3519 Y1941.5351
G1 X521.422 Y1942.465
G1 X407.765
G1 X406.8351 Y1941.5351
G1 F300.0 Z-13.0
G1 F800.0 X407.765 Y1942.465
G1 Y1954.535
G1 X406.8351 Y1955.4649
G1 X407.765 Y1954.535
G1 X521.422
G1 X522.3519 Y1955.4649
G1 X521.422 Y1954.535
G1 Y1942.465
G1 X522.3519 Y1941.5351
G1 X521.422 Y1942.465
G1 X407.765
G1 X406.8351 Y1941.5351
G1 F300.0 Z-14.0
G1 F800.0 X407.765 Y1942.465
G1 Y1954.535
G1 X406.8351 Y1955.4649
G1 X407.765 Y1954.535
G1 X521.422
G1 X522.3519 Y1955.4649
G1 X521.422 Y1954.535
G1 Y1942.465
G1 X522.3519 Y1941.5351
G1 X521.422 Y1942.465
G1 X407.765
G1 X406.8351 Y1941.5351
G1 F300.0 Z-15.0
G1 F800.0 X407.765 Y1942.465
G1 Y1954.535
G1 X406.8351 Y1955.4649
G1 X407.765 Y1954.535
G1 X521.422
G1 X522.3519 Y1955.4649
G1 X521.422 Y1954.535
G1 Y1942.465
G1 X522.3519 Y1941.5351
G1 X521.422 Y1942.465
G1 X407.765
G1 X406.8351 Y1941.5351
G1 F300.0 Z-16.0
G1 F800.0 X407.765 Y1942.465
G1 Y1954.535
G1 X406.8351 Y1955.4649
G1 X407.765 Y1954.535
G1 X521.422
G1 X522.3519 Y1955.4649
G1 X521.422 Y1954.535
G1 Y1942.465
G1 X522.3519 Y1941.5351
G1 X521.422 Y1942.465
G1 X407.765
G1 X406.8351 Y1941.5351
G1 F300.0 Z-17.0
G1 F800.0 X407.765 Y1942.465
G1 Y1954.535
G1 X406.8351 Y1955.4649
G1 X407.765 Y1954.535
G1 X521.422
G1 X522.3519 Y1955.4649
G1 X521.422 Y1954.535
G1 Y1942.465
G1 X522.3519 Y1941.5351
G1 X521.422 Y1942.465
G1 X407.765
G1 X406.8351 Y1941.5351
G1 F300.0 Z-18.0
G1 F800.0 X407.765 Y1942.465
G1 Y1954.535
G1 X406.8351 Y1955.4649
G1 X407.765 Y1954.535
G1 X468.1285
G0 Z-17.0
G1 X479.4785
G1 F300.0 Z-18.0
G1 F800.0 X521.422
G1 X522.3519 Y1955.4649
G1 X521.422 Y1954.535
G1 Y1942.465
G1 X522.3519 Y1941.5351
G1 X521.422 Y1942.465
G1 X461.0585
G0 Z-17.0
G1 X449.7085
G1 F300.0 Z-18.0
G1 F800.0 X407.765
G1 X406.8351 Y1941.5351
G1 F300.0 Z-19.0
G1 F800.0 X407.765 Y1942.465
G1 Y1954.535
G1 X406.8351 Y1955.4649
G1 X407.765 Y1954.535
G1 X468.1285
G0 Z-17.0
G1 X479.4785
G1 F300.0 Z-19.0
G1 F800.0 X521.422
G1 X522.3519 Y1955.4649
G1 X521.422 Y1954.535
G1 Y1942.465
G1 X522.3519 Y1941.5351
G1 X521.422 Y1942.465
G1 X461.0585
G0 Z-17.0
G1 X449.7085
G1 F300.0 Z-19.0
G1 F800.0 X407.765
G1 X406.8351 Y1941.5351
G1 F300.0 Z-20.0
G1 F800.0 X407.765 Y1942.465
G1 Y1954.535
G1 X406.8351 Y1955.4649
G1 X407.765 Y1954.535
G1 X468.1285
G0 Z-17.0
G1 X479.4785
G0 Z-18.0
G1 F300.0 Z-20.0
G1 F800.0 X521.422
G1 X522.3519 Y1955.4649
G1 X521.422 Y1954.535
G1 Y1942.465
G1 X522.3519 Y1941.5351
G1 X521.422 Y1942.465
G1 X461.0585
G0 Z-17.0
G1 X449.7085
G0 Z-18.0
G1 F300.0 Z-20.0
G1 F800.0 X407.765
G1 X406.8351 Y1941.5351
G1 F300.0 Z-21.0
G1 F800.0 X407.765 Y1942.465
G1 Y1954.535
G1 X406.8351 Y1955.4649
G1 X407.765 Y1954.535
G1 X468.1285
G0 Z-17.0
G1 X479.4785
G0 Z-19.0
G1 F300.0 Z-21.0
G1 F800.0 X521.422
G1 X522.3519 Y1955.4649
G1 X521.422 Y1954.535
G1 Y1942.465
G1 X522.3519 Y1941.5351
G1 X521.422 Y1942.465
G1 X461.0585
G0 Z-17.0
G1 X449.7085
G0 Z-19.0
G1 F300.0 Z-21.0
G1 F800.0 X407.765
G1 X406.8351 Y1941.5351
G1 F300.0 Z-22.0
G1 F800.0 X407.765 Y1942.465
G1 Y1954.535
G1 X406.8351 Y1955.4649
G1 X407.765 Y1954.535
G1 X468.1285
G0 Z-17.0
G1 X479.4785
G0 Z-20.0
G1 F300.0 Z-22.0
G1 F800.0 X521.422
G1 X522.3519 Y1955.4649
G1 X521.422 Y1954.535
G1 Y1942.465
G1 X522.3519 Y1941.5351
G1 X521.422 Y1942.465
G1 X461.0585
G0 Z-17.0
G1 X449.7085
G0 Z-20.0
G1 F300.0 Z-22.0
G1 F800.0 X407.765
G1 X406.8351 Y1941.5351
G0 Z15.0
G0 X726.3451
G0 Z1.0
G1 F300.0 Z-1.0
G1 F800.0 X727.275 Y1942.465
G1 Y1954.535
G1 X726.3451 Y1955.4649
G1 X727.275 Y1954.535
G1 X949.525
G1 X950.4549 Y1955.4649
G1 X949.525 Y1954.535
G1 Y1942.465
G1 X950.4549 Y1941.5351
G1 X949.525 Y1942.465
G1 X727.275
G1 X726.3451 Y1941.5351
G1 F300.0 Z-2.0
G1 F800.0 X727.275 Y1942.465
G1 Y1954.535
G1 X726.3451 Y1955.4649
G1 X727.275 Y1954.535
G1 X949.525
G1 X950.4549 Y1955.4649
G1 X949.525 Y1954.535
G1 Y1942.465
G1 X950.4549 Y1941.5351
G1 X949.525 Y1942.465
G1 X727.275
G1 X726.3451 Y1941.5351
G1 F300.0 Z-3.0
G1 F800.0 X727.275 Y1942.465
G1 Y1954.535
G1 X726.3451 Y1955.4649
G1 X727.275 Y1954.535
G1 X949.525
G1 X950.4549 Y1955.4649
G1 X949.525 Y1954.535
G1 Y1942.465
G1 X950.4549 Y1941.5351
G1 X949.525 Y1942.465
G1 X727.275
G1 X726.3451 Y1941.5351
G1 F300.0 Z-4.0
G1 F800.0 X727.275 Y1942.465
G1 Y1954.535
G1 X726.3451 Y1955.4649
G1 X727.275 Y1954.535
G1 X949.525
G1 X950.4549 Y1955.4649
G1 X949.525 Y1954.535
G1 Y1942.465
G1 X950.4549 Y1941.5351
G1 X949.525 Y1942.465
G1 X727.275
G1 X726.3451 Y1941.5351
G1 F300.0 Z-5.0
G1 F800.0 X727.275 Y1942.465
G1 Y1954.535
G1 X726.3451 Y1955.4649
G1 X727.275 Y1954.535
G1 X949.525
G1 X950.4549 Y1955.4649
G1 X949.525 Y1954.535
G1 Y1942.465
G1 X950.4549 Y1941.5351
G1 X949.525 Y1942.465
G1 X727.275
G1 X726.3451 Y1941.5351
G1 F300.0 Z-6.0
G1 F800.0 X727.275 Y1942.465
G1 Y1954.535
G1 X726.3451 Y1955.4649
G1 X727.275 Y1954.535
G1 X949.525
G1 X950.4549 Y1955.4649
G1 X949.525 Y1954.535
G1 Y1942.465
G1 X950.4549 Y1941.5351
G1 X949.525 Y1942.465
G1 X727.275
G1 X726.3451 Y1941.5351
G1 F300.0 Z-7.0
G1 F800.0 X727.275 Y1942.465
G1 Y1954.535
G1 X726.3451 Y1955.4649
G1 X727.275 Y1954.535
G1 X949.525
G1 X950.4549 Y1955.4649
G1 X949.525 Y1954.535
G1 Y1942.465
G1 X950.4549 Y1941.5351
G1 X949.525 Y1942.465
G1 X727.275
G1 X726.3451 Y1941.5351
G1 F300.0 Z-8.0
G1 F800.0 X727.275 Y1942.465
G1 Y1954.535
G1 X726.3451 Y1955.4649
G1 X727.275 Y1954.535
G1 X949.525
G1 X950.4549 Y1955.4649
G1 X949.525 Y1954.535
G1 Y1942.465
G1 X950.4549 Y1941.5351
G1 X949.525 Y1942.465
G1 X727.275
G1 X726.3451 Y1941.5351
G1 F300.0 Z-9.0
G1 F800.0 X727.275 Y1942.465
G1 Y1954.535
G1 X726.3451 Y1955.4649
G1 X727.275 Y1954.535
G1 X949.525
G1 X950.4549 Y1955.4649
G1 X949.525 Y1954.535
G1 Y1942.465
G1 X950.4549 Y1941.5351
G1 X949.525 Y1942.465
G1 X727.275
G1 X726.3451 Y1941.5351
G1 F300.0 Z-10.0
G1 F800.0 X727.275 Y1942.465
G1 Y1954.535
G1 X726.3451 Y1955.4649
G1 X727.275 Y1954.535
G1 X949.525
G1 X950.4549 Y1955.4649
G1 X949.525 Y1954.535
G1 Y1942.465
G1 X950.4549 Y1941.5351
G1 X949.525 Y1942.465
G1 X727.275
G1 X726.3451 Y1941.5351
G1 F300.0 Z-11.0
G1 F800.0 X727.275 Y1942.465
G1 Y1954.535
G1 X726.3451 Y1955.4649
G1 X727.275 Y1954.535
G1 X949.525
G1 X950.4549 Y1955.4649
G1 X949.525 Y1954.535
G1 Y1942.465
G1 X950.4549 Y1941.5351
G1 X949.525 Y1942.465
G1 X727.275
G1 X726.3451 Y1941.5351
G1 F300.0 Z-12.0
G1 F800.0 X727.275 Y1942.465
G1 Y1954.535
G1 X726.3451 Y1955.4649
G1 X727.275 Y1954.535
G1 X949.525
G1 X950.4549 Y1955.4649
G1 X949.525 Y1954.535
G1 Y1942.465
G1 X950.4549 Y1941.5351
G1 X949.525 Y1942.465
G1 X727.275
G1 X726.3451 Y1941.5351
G1 F300.0 Z-13.0
G1 F800.0 X727.275 Y1942.465
G1 Y1954.535
G1 X726.3451 Y1955.4649
G1 X727.275 Y1954.535
G1 X949.525
G1 X950.4549 Y1955.4649
G1 X949.525 Y1954.535
G1 Y1942.465
G1 X950.4549 Y1941.5351
G1 X949.525 Y1942.465
G1 X727.275
G1 X726.3451 Y1941.5351
G1 F300.0 Z-14.0
G1 F800.0 X727.275 Y1942.465
G1 Y1954.535
G1 X726.3451 Y1955.4649
G1 X727.275 Y1954.535
G1 X949.525
G1 X950.4549 Y1955.4649
G1 X949.525 Y1954.535
G1 Y1942.465
G1 X950.4549 Y1941.5351
G1 X949.525 Y1942.465
G1 X727.275
G1 X726.3451 Y1941.5351
G1 F300.0 Z-15.0
G1 F800.0 X727.275 Y1942.465
G1 Y1954.535
G1 X726.3451 Y1955.4649
G1 X727.275 Y1954.535
G1 X949.525
G1 X950.4549 Y1955.4649
G1 X949.525 Y1954.535
G1 Y1942.465
G1 X950.4549 Y1941.5351
G1 X949.525 Y1942.465
G1 X727.275
G1 X726.3451 Y1941.5351
G1 F300.0 Z-16.0
G1 F800.0 X727.275 Y1942.465
G1 Y1954.535
G1 X726.3451 Y1955.4649
G1 X727.275 Y1954.535
G1 X949.525
G1 X950.4549 Y1955.4649
G1 X949.525 Y1954.535
G1 Y1942.465
G1 X950.4549 Y1941.5351
G1 X949.525 Y1942.465
G1 X727.275
G1 X726.3451 Y1941.5351
G1 F300.0 Z-17.0
G1 F800.0 X727.275 Y1942.465
G1 Y1954.535
G1 X726.3451 Y1955.4649
G1 X727.275 Y1954.535
G1 X949.525
G1 X950.4549 Y1955.4649
G1 X949.525 Y1954.535
G1 Y1942.465
G1 X950.4549 Y1941.5351
G1 X949.525 Y1942.465
G1 X727.275
G1 X726.3451 Y1941.5351
G1 F300.0 Z-18.0
G1 F800.0 X727.275 Y1942.465
G1 Y1954.535
G1 X726.3451 Y1955.4649
G1 X727.275 Y1954.535
G1 X841.935
G0 Z-17.0
G1 X853.285
G1 F300.0 Z-18.0
G1 F800.0 X949.525
G1 X950.4549 Y1955.4649
G1 X949.525 Y1954.535
G1 Y1942.465
G1 X950.4549 Y1941.5351
G1 X949.525 Y1942.465
G1 X834.865
G0 Z-17.0
G1 X823.515
G1 F300.0 Z-18.0
G1 F800.0 X727.275
G1 X726.3451 Y1941.5351
G1 F300.0 Z-19.0
G1 F800.0 X727.275 Y1942.465
G1 Y1954.535
G1 X726.3451 Y1955.4649
G1 X727.275 Y1954.535
G1 X841.935
G0 Z-17.0
G1 X853.285
G1 F300.0 Z-19.0
G1 F800.0 X949.525
G1 X950.4549 Y1955.4649
G1 X949.525 Y1954.535
G1 Y1942.465
G1 X950.4549 Y1941.5351
G1 X949.525 Y1942.465
G1 X834.865
G0 Z-17.0
G1 X823.515
G1 F300.0 Z-19.0
G1 F800.0 X727.275
G1 X726.3451 Y1941.5351
G1 F300.0 Z-20.0
G1 F800.0 X727.275 Y1942.465
G1 Y1954.535
G1 X726.3451 Y1955.4649
G1 X727.275 Y1954.535
G1 X841.935
G0 Z-17.0
G1 X853.285
G0 Z-18.0
G1 F300.0 Z-20.0
G1 F800.0 X949.525
G1 X950.4549 Y1955.4649
G1 X949.525 Y1954.535
G1 Y1942.465
G1 X950.4549 Y1941.5351
G1 X949.525 Y1942.465
G1 X834.865
G0 Z-17.0
G1 X823.515
G0 Z-18.0
G1 F300.0 Z-20.0
G1 F800.0 X727.275
G1 X726.3451 Y1941.5351
G1 F300.0 Z-21.0
G1 F800.0 X727.275 Y1942.465
G1 Y1954.535
G1 X726.3451 Y1955.4649
G1 X727.275 Y1954.535
G1 X841.935
G0 Z-17.0
G1 X853.285
G0 Z-19.0
G1 F300.0 Z-21.0
G1 F800.0 X949.525
G1 X950.4549 Y1955.4649
G1 X949.525 Y1954.535
G1 Y1942.465
G1 X950.4549 Y1941.5351
G1 X949.525 Y1942.465
G1 X834.865
G0 Z-17.0
G1 X823.515
G0 Z-19.0
G1 F300.0 Z-21.0
G1 F800.0 X727.275
G1 X726.3451 Y1941.5351
G1 F300.0 Z-22.0
G1 F800.0 X727.275 Y1942.465
G1 Y1954.535
G1 X726.3451 Y1955.4649
G1 X727.275 Y1954.535
G1 X841.935
G0 Z-17.0
G1 X853.285
G0 Z-20.0
G1 F300.0 Z-22.0
G1 F800.0 X949.525
G1 X950.4549 Y1955.4649
G1 X949.525 Y1954.535
G1 Y1942.465
G1 X950.4549 Y1941.5351
G1 X949.525 Y1942.465
G1 X834.865
G0 Z-17.0
G1 X823.515
G0 Z-20.0
G1 F300.0 Z-22.0
G1 F800.0 X727.275
G1 X726.3451 Y1941.5351
G0 Z15.0
G0 Y1632.2449
G0 Z1.0
G1 F300.0 Z-1.0
G1 F800.0 X727.275 Y1631.315
G1 X949.525
G1 X950.4549 Y1632.2449
G1 X949.525 Y1631.315
G1 Y1619.255
G1 X950.4549 Y1618.3251
G1 X949.525 Y1619.255
G1 X727.275
G1 X726.3451 Y1618.3251
G1 X727.275 Y1619.255
G1 Y1631.315
G1 X726.3451 Y1632.2449
G1 F300.0 Z-2.0
G1 F800.0 X727.275 Y1631.315
G1 X949.525
G1 X950.4549 Y1632.2449
G1 X949.525 Y1631.315
G1 Y1619.255
G1 X950.4549 Y1618.3251
G1 X949.525 Y1619.255
G1 X727.275
G1 X726.3451 Y1618.3251
G1 X727.275 Y1619.255
G1 Y1631.315
G1 X726.3451 Y1632.2449
G1 F300.0 Z-3.0
G1 F800.0 X727.275 Y1631.315
G1 X949.525
G1 X950.4549 Y1632.2449
G1 X949.525 Y1631.315
G1 Y1619.255
G1 X950.4549 Y1618.3251
G1 X949.525 Y1619.255
G1 X727.275
G1 X726.3451 Y1618.3251
G1 X727.275 Y1619.255
G1 Y1631.315
G1 X726.3451 Y1632.2449
G1 F300.0 Z-4.0
G1 F800.0 X727.275 Y1631.315
G1 X949.525
G1 X950.4549 Y1632.2449
G1 X949.525 Y1631.315
G1 Y1619.255
G1 X950.4549 Y1618.3251
G1 X949.525 Y1619.255
G1 X727.275
G1 X726.3451 Y1618.3251
G1 X727.275 Y1619.255
G1 Y1631.315
G1 X726.3451 Y1632.2449
G1 F300.0 Z-5.0
G1 F800.0 X727.275 Y1631.315
G1 X949.525
G1 X950.4549 Y1632.2449
G1 X949.525 Y1631.315
G1 Y1619.255
G1 X950.4549 Y1618.3251
G1 X949.525 Y1619.255
G1 X727.275
G1 X726.3451 Y1618.3251
G1 X727.275 Y1619.255
G1 Y1631.315
G1 X726.3451 Y1632.2449
G1 F300.0 Z-6.0
