( Made using CamBam - http://www.cambam.co.uk )
( ParametricShelf_sheet2 1/9/2016 11:57:18 PM )
( T6 : 6.35 )
G21 G90 G64 G40
G0 Z15.0
( T6 : 6.35 )
T6 M6
( Profile1 )
G17
M3 S1000
G0 X441.96 Y545.778
G0 Z1.0
G1 F300.0 Z-1.0
G1 F800.0 Y594.989
G3 X438.785 Y598.164 I-3.175 J0.0
G1 X346.075
G1 X345.1451 Y597.2341
G1 X346.075 Y598.164
G1 Y613.402
G3 X342.9 Y616.577 I-3.175 J0.0
G1 X114.3
G3 X111.125 Y613.402 I0.0 J-3.175
G1 Y598.164
G1 X112.0549 Y597.2341
G1 X111.125 Y598.164
G1 X18.415
G3 X15.24 Y594.989 I0.0 J-3.175
G1 Y545.778
G1 X16.1699 Y544.8481
G1 X15.24 Y545.778
G1 X0.0
G3 X-3.175 Y542.603 I0.0 J-3.175
G1 Y401.001
G3 X0.0 Y397.826 I3.175 J0.0
G1 X15.24
G1 X16.1699 Y398.7559
G1 X15.24 Y397.826
G1 Y330.2
G3 X18.415 Y327.025 I3.175 J0.0
G1 X438.785
G3 X441.96 Y330.2 I0.0 J3.175
G1 Y397.826
G1 X441.0301 Y398.7559
G1 X441.96 Y397.826
G1 X457.2
G3 X460.375 Y401.001 I0.0 J3.175
G1 Y542.603
G3 X457.2 Y545.778 I-3.175 J0.0
G1 X441.96
G1 X441.0301 Y544.8481
G1 X441.96 Y545.778
G1 F300.0 Z-2.0
G1 F800.0 Y594.989
G3 X438.785 Y598.164 I-3.175 J0.0
G1 X346.075
G1 X345.1451 Y597.2341
G1 X346.075 Y598.164
G1 Y613.402
G3 X342.9 Y616.577 I-3.175 J0.0
G1 X114.3
G3 X111.125 Y613.402 I0.0 J-3.175
G1 Y598.164
G1 X112.0549 Y597.2341
G1 X111.125 Y598.164
G1 X18.415
G3 X15.24 Y594.989 I0.0 J-3.175
G1 Y545.778
G1 X16.1699 Y544.8481
G1 X15.24 Y545.778
G1 X0.0
G3 X-3.175 Y542.603 I0.0 J-3.175
G1 Y401.001
G3 X0.0 Y397.826 I3.175 J0.0
G1 X15.24
G1 X16.1699 Y398.7559
G1 X15.24 Y397.826
G1 Y330.2
G3 X18.415 Y327.025 I3.175 J0.0
G1 X438.785
G3 X441.96 Y330.2 I0.0 J3.175
G1 Y397.826
G1 X441.0301 Y398.7559
G1 X441.96 Y397.826
G1 X457.2
G3 X460.375 Y401.001 I0.0 J3.175
G1 Y542.603
G3 X457.2 Y545.778 I-3.175 J0.0
G1 X441.96
G1 X441.0301 Y544.8481
G1 X441.96 Y545.778
G1 F300.0 Z-3.0
G1 F800.0 Y594.989
G3 X438.785 Y598.164 I-3.175 J0.0
G1 X346.075
G1 X345.1451 Y597.2341
G1 X346.075 Y598.164
G1 Y613.402
G3 X342.9 Y616.577 I-3.175 J0.0
G1 X114.3
G3 X111.125 Y613.402 I0.0 J-3.175
G1 Y598.164
G1 X112.0549 Y597.2341
G1 X111.125 Y598.164
G1 X18.415
G3 X15.24 Y594.989 I0.0 J-3.175
G1 Y545.778
G1 X16.1699 Y544.8481
G1 X15.24 Y545.778
G1 X0.0
G3 X-3.175 Y542.603 I0.0 J-3.175
G1 Y401.001
G3 X0.0 Y397.826 I3.175 J0.0
G1 X15.24
G1 X16.1699 Y398.7559
G1 X15.24 Y397.826
G1 Y330.2
G3 X18.415 Y327.025 I3.175 J0.0
G1 X438.785
G3 X441.96 Y330.2 I0.0 J3.175
G1 Y397.826
G1 X441.0301 Y398.7559
G1 X441.96 Y397.826
G1 X457.2
G3 X460.375 Y401.001 I0.0 J3.175
G1 Y542.603
G3 X457.2 Y545.778 I-3.175 J0.0
G1 X441.96
G1 X441.0301 Y544.8481
G1 X441.96 Y545.778
G1 F300.0 Z-4.0
G1 F800.0 Y594.989
G3 X438.785 Y598.164 I-3.175 J0.0
G1 X346.075
G1 X345.1451 Y597.2341
G1 X346.075 Y598.164
G1 Y613.402
G3 X342.9 Y616.577 I-3.175 J0.0
G1 X114.3
G3 X111.125 Y613.402 I0.0 J-3.175
G1 Y598.164
G1 X112.0549 Y597.2341
G1 X111.125 Y598.164
G1 X18.415
G3 X15.24 Y594.989 I0.0 J-3.175
G1 Y545.778
G1 X16.1699 Y544.8481
G1 X15.24 Y545.778
G1 X0.0
G3 X-3.175 Y542.603 I0.0 J-3.175
G1 Y401.001
G3 X0.0 Y397.826 I3.175 J0.0
G1 X15.24
G1 X16.1699 Y398.7559
G1 X15.24 Y397.826
G1 Y330.2
G3 X18.415 Y327.025 I3.175 J0.0
G1 X438.785
G3 X441.96 Y330.2 I0.0 J3.175
G1 Y397.826
G1 X441.0301 Y398.7559
G1 X441.96 Y397.826
G1 X457.2
G3 X460.375 Y401.001 I0.0 J3.175
G1 Y542.603
G3 X457.2 Y545.778 I-3.175 J0.0
G1 X441.96
G1 X441.0301 Y544.8481
G1 X441.96 Y545.778
G1 F300.0 Z-5.0
G1 F800.0 Y594.989
G3 X438.785 Y598.164 I-3.175 J0.0
G1 X346.075
G1 X345.1451 Y597.2341
G1 X346.075 Y598.164
G1 Y613.402
G3 X342.9 Y616.577 I-3.175 J0.0
G1 X114.3
G3 X111.125 Y613.402 I0.0 J-3.175
G1 Y598.164
G1 X112.0549 Y597.2341
G1 X111.125 Y598.164
G1 X18.415
G3 X15.24 Y594.989 I0.0 J-3.175
G1 Y545.778
G1 X16.1699 Y544.8481
G1 X15.24 Y545.778
G1 X0.0
G3 X-3.175 Y542.603 I0.0 J-3.175
G1 Y401.001
G3 X0.0 Y397.826 I3.175 J0.0
G1 X15.24
G1 X16.1699 Y398.7559
G1 X15.24 Y397.826
G1 Y330.2
G3 X18.415 Y327.025 I3.175 J0.0
G1 X438.785
G3 X441.96 Y330.2 I0.0 J3.175
G1 Y397.826
G1 X441.0301 Y398.7559
G1 X441.96 Y397.826
G1 X457.2
G3 X460.375 Y401.001 I0.0 J3.175
G1 Y542.603
G3 X457.2 Y545.778 I-3.175 J0.0
G1 X441.96
G1 X441.0301 Y544.8481
G1 X441.96 Y545.778
G1 F300.0 Z-6.0
G1 F800.0 Y594.989
G3 X438.785 Y598.164 I-3.175 J0.0
G1 X346.075
G1 X345.1451 Y597.2341
G1 X346.075 Y598.164
G1 Y613.402
G3 X342.9 Y616.577 I-3.175 J0.0
G1 X114.3
G3 X111.125 Y613.402 I0.0 J-3.175
G1 Y598.164
G1 X112.0549 Y597.2341
G1 X111.125 Y598.164
G1 X18.415
G3 X15.24 Y594.989 I0.0 J-3.175
G1 Y545.778
G1 X16.1699 Y544.8481
G1 X15.24 Y545.778
G1 X0.0
G3 X-3.175 Y542.603 I0.0 J-3.175
G1 Y401.001
G3 X0.0 Y397.826 I3.175 J0.0
G1 X15.24
G1 X16.1699 Y398.7559
G1 X15.24 Y397.826
G1 Y330.2
G3 X18.415 Y327.025 I3.175 J0.0
G1 X438.785
G3 X441.96 Y330.2 I0.0 J3.175
G1 Y397.826
G1 X441.0301 Y398.7559
G1 X441.96 Y397.826
G1 X457.2
G3 X460.375 Y401.001 I0.0 J3.175
G1 Y542.603
G3 X457.2 Y545.778 I-3.175 J0.0
G1 X441.96
G1 X441.0301 Y544.8481
G1 X441.96 Y545.778
G1 F300.0 Z-7.0
G1 F800.0 Y594.989
G3 X438.785 Y598.164 I-3.175 J0.0
G1 X346.075
G1 X345.1451 Y597.2341
G1 X346.075 Y598.164
G1 Y613.402
G3 X342.9 Y616.577 I-3.175 J0.0
G1 X114.3
G3 X111.125 Y613.402 I0.0 J-3.175
G1 Y598.164
G1 X112.0549 Y597.2341
G1 X111.125 Y598.164
G1 X18.415
G3 X15.24 Y594.989 I0.0 J-3.175
G1 Y545.778
G1 X16.1699 Y544.8481
G1 X15.24 Y545.778
G1 X0.0
G3 X-3.175 Y542.603 I0.0 J-3.175
G1 Y401.001
G3 X0.0 Y397.826 I3.175 J0.0
G1 X15.24
G1 X16.1699 Y398.7559
G1 X15.24 Y397.826
G1 Y330.2
G3 X18.415 Y327.025 I3.175 J0.0
G1 X438.785
G3 X441.96 Y330.2 I0.0 J3.175
G1 Y397.826
G1 X441.0301 Y398.7559
G1 X441.96 Y397.826
G1 X457.2
G3 X460.375 Y401.001 I0.0 J3.175
G1 Y542.603
G3 X457.2 Y545.778 I-3.175 J0.0
G1 X441.96
G1 X441.0301 Y544.8481
G1 X441.96 Y545.778
G1 F300.0 Z-8.0
G1 F800.0 Y594.989
G3 X438.785 Y598.164 I-3.175 J0.0
G1 X346.075
G1 X345.1451 Y597.2341
G1 X346.075 Y598.164
G1 Y613.402
G3 X342.9 Y616.577 I-3.175 J0.0
G1 X114.3
G3 X111.125 Y613.402 I0.0 J-3.175
G1 Y598.164
G1 X112.0549 Y597.2341
G1 X111.125 Y598.164
G1 X18.415
G3 X15.24 Y594.989 I0.0 J-3.175
G1 Y545.778
G1 X16.1699 Y544.8481
G1 X15.24 Y545.778
G1 X0.0
G3 X-3.175 Y542.603 I0.0 J-3.175
G1 Y401.001
G3 X0.0 Y397.826 I3.175 J0.0
G1 X15.24
G1 X16.1699 Y398.7559
G1 X15.24 Y397.826
G1 Y330.2
G3 X18.415 Y327.025 I3.175 J0.0
G1 X438.785
G3 X441.96 Y330.2 I0.0 J3.175
G1 Y397.826
G1 X441.0301 Y398.7559
G1 X441.96 Y397.826
G1 X457.2
G3 X460.375 Y401.001 I0.0 J3.175
G1 Y542.603
G3 X457.2 Y545.778 I-3.175 J0.0
G1 X441.96
G1 X441.0301 Y544.8481
G1 X441.96 Y545.778
G1 F300.0 Z-9.0
G1 F800.0 Y594.989
G3 X438.785 Y598.164 I-3.175 J0.0
G1 X346.075
G1 X345.1451 Y597.2341
G1 X346.075 Y598.164
G1 Y613.402
G3 X342.9 Y616.577 I-3.175 J0.0
G1 X114.3
G3 X111.125 Y613.402 I0.0 J-3.175
G1 Y598.164
G1 X112.0549 Y597.2341
G1 X111.125 Y598.164
G1 X18.415
G3 X15.24 Y594.989 I0.0 J-3.175
G1 Y545.778
G1 X16.1699 Y544.8481
G1 X15.24 Y545.778
G1 X0.0
G3 X-3.175 Y542.603 I0.0 J-3.175
G1 Y401.001
G3 X0.0 Y397.826 I3.175 J0.0
G1 X15.24
G1 X16.1699 Y398.7559
G1 X15.24 Y397.826
G1 Y330.2
G3 X18.415 Y327.025 I3.175 J0.0
G1 X438.785
G3 X441.96 Y330.2 I0.0 J3.175
G1 Y397.826
G1 X441.0301 Y398.7559
G1 X441.96 Y397.826
G1 X457.2
G3 X460.375 Y401.001 I0.0 J3.175
G1 Y542.603
G3 X457.2 Y545.778 I-3.175 J0.0
G1 X441.96
G1 X441.0301 Y544.8481
G1 X441.96 Y545.778
G1 F300.0 Z-10.0
G1 F800.0 Y594.989
G3 X438.785 Y598.164 I-3.175 J0.0
G1 X346.075
G1 X345.1451 Y597.2341
G1 X346.075 Y598.164
G1 Y613.402
G3 X342.9 Y616.577 I-3.175 J0.0
G1 X114.3
G3 X111.125 Y613.402 I0.0 J-3.175
G1 Y598.164
G1 X112.0549 Y597.2341
G1 X111.125 Y598.164
G1 X18.415
G3 X15.24 Y594.989 I0.0 J-3.175
G1 Y545.778
G1 X16.1699 Y544.8481
G1 X15.24 Y545.778
G1 X0.0
G3 X-3.175 Y542.603 I0.0 J-3.175
G1 Y401.001
G3 X0.0 Y397.826 I3.175 J0.0
G1 X15.24
G1 X16.1699 Y398.7559
G1 X15.24 Y397.826
G1 Y330.2
G3 X18.415 Y327.025 I3.175 J0.0
G1 X438.785
G3 X441.96 Y330.2 I0.0 J3.175
G1 Y397.826
G1 X441.0301 Y398.7559
G1 X441.96 Y397.826
G1 X457.2
G3 X460.375 Y401.001 I0.0 J3.175
G1 Y542.603
G3 X457.2 Y545.778 I-3.175 J0.0
G1 X441.96
G1 X441.0301 Y544.8481
G1 X441.96 Y545.778
G1 F300.0 Z-11.0
G1 F800.0 Y594.989
G3 X438.785 Y598.164 I-3.175 J0.0
G1 X346.075
G1 X345.1451 Y597.2341
G1 X346.075 Y598.164
G1 Y613.402
G3 X342.9 Y616.577 I-3.175 J0.0
G1 X114.3
G3 X111.125 Y613.402 I0.0 J-3.175
G1 Y598.164
G1 X112.0549 Y597.2341
G1 X111.125 Y598.164
G1 X18.415
G3 X15.24 Y594.989 I0.0 J-3.175
G1 Y545.778
G1 X16.1699 Y544.8481
G1 X15.24 Y545.778
G1 X0.0
G3 X-3.175 Y542.603 I0.0 J-3.175
G1 Y401.001
G3 X0.0 Y397.826 I3.175 J0.0
G1 X15.24
G1 X16.1699 Y398.7559
G1 X15.24 Y397.826
G1 Y330.2
G3 X18.415 Y327.025 I3.175 J0.0
G1 X438.785
G3 X441.96 Y330.2 I0.0 J3.175
G1 Y397.826
G1 X441.0301 Y398.7559
G1 X441.96 Y397.826
G1 X457.2
G3 X460.375 Y401.001 I0.0 J3.175
G1 Y542.603
G3 X457.2 Y545.778 I-3.175 J0.0
G1 X441.96
G1 X441.0301 Y544.8481
G1 X441.96 Y545.778
G1 F300.0 Z-12.0
G1 F800.0 Y594.989
G3 X438.785 Y598.164 I-3.175 J0.0
G1 X346.075
G1 X345.1451 Y597.2341
G1 X346.075 Y598.164
G1 Y613.402
G3 X342.9 Y616.577 I-3.175 J0.0
G1 X114.3
G3 X111.125 Y613.402 I0.0 J-3.175
G1 Y598.164
G1 X112.0549 Y597.2341
G1 X111.125 Y598.164
G1 X18.415
G3 X15.24 Y594.989 I0.0 J-3.175
G1 Y545.778
G1 X16.1699 Y544.8481
G1 X15.24 Y545.778
G1 X0.0
G3 X-3.175 Y542.603 I0.0 J-3.175
G1 Y401.001
G3 X0.0 Y397.826 I3.175 J0.0
G1 X15.24
G1 X16.1699 Y398.7559
G1 X15.24 Y397.826
G1 Y330.2
G3 X18.415 Y327.025 I3.175 J0.0
G1 X438.785
G3 X441.96 Y330.2 I0.0 J3.175
G1 Y397.826
G1 X441.0301 Y398.7559
G1 X441.96 Y397.826
G1 X457.2
G3 X460.375 Y401.001 I0.0 J3.175
G1 Y542.603
G3 X457.2 Y545.778 I-3.175 J0.0
G1 X441.96
G1 X441.0301 Y544.8481
G1 X441.96 Y545.778
G1 F300.0 Z-13.0
G1 F800.0 Y594.989
G3 X438.785 Y598.164 I-3.175 J0.0
G1 X346.075
G1 X345.1451 Y597.2341
G1 X346.075 Y598.164
G1 Y613.402
G3 X342.9 Y616.577 I-3.175 J0.0
G1 X114.3
G3 X111.125 Y613.402 I0.0 J-3.175
G1 Y598.164
G1 X112.0549 Y597.2341
G1 X111.125 Y598.164
G1 X18.415
G3 X15.24 Y594.989 I0.0 J-3.175
G1 Y545.778
G1 X16.1699 Y544.8481
G1 X15.24 Y545.778
G1 X0.0
G3 X-3.175 Y542.603 I0.0 J-3.175
G1 Y401.001
G3 X0.0 Y397.826 I3.175 J0.0
G1 X15.24
G1 X16.1699 Y398.7559
G1 X15.24 Y397.826
G1 Y330.2
G3 X18.415 Y327.025 I3.175 J0.0
G1 X438.785
G3 X441.96 Y330.2 I0.0 J3.175
G1 Y397.826
G1 X441.0301 Y398.7559
G1 X441.96 Y397.826
G1 X457.2
G3 X460.375 Y401.001 I0.0 J3.175
G1 Y542.603
G3 X457.2 Y545.778 I-3.175 J0.0
G1 X441.96
G1 X441.0301 Y544.8481
G1 X441.96 Y545.778
G1 F300.0 Z-14.0
G1 F800.0 Y594.989
G3 X438.785 Y598.164 I-3.175 J0.0
G1 X346.075
G1 X345.1451 Y597.2341
G1 X346.075 Y598.164
G1 Y613.402
G3 X342.9 Y616.577 I-3.175 J0.0
G1 X114.3
G3 X111.125 Y613.402 I0.0 J-3.175
G1 Y598.164
G1 X112.0549 Y597.2341
G1 X111.125 Y598.164
G1 X18.415
G3 X15.24 Y594.989 I0.0 J-3.175
G1 Y545.778
G1 X16.1699 Y544.8481
G1 X15.24 Y545.778
G1 X0.0
G3 X-3.175 Y542.603 I0.0 J-3.175
G1 Y401.001
G3 X0.0 Y397.826 I3.175 J0.0
G1 X15.24
G1 X16.1699 Y398.7559
G1 X15.24 Y397.826
G1 Y330.2
G3 X18.415 Y327.025 I3.175 J0.0
G1 X438.785
G3 X441.96 Y330.2 I0.0 J3.175
G1 Y397.826
G1 X441.0301 Y398.7559
G1 X441.96 Y397.826
G1 X457.2
G3 X460.375 Y401.001 I0.0 J3.175
G1 Y542.603
G3 X457.2 Y545.778 I-3.175 J0.0
G1 X441.96
G1 X441.0301 Y544.8481
G1 X441.96 Y545.778
G1 F300.0 Z-15.0
G1 F800.0 Y594.989
G3 X438.785 Y598.164 I-3.175 J0.0
G1 X346.075
G1 X345.1451 Y597.2341
G1 X346.075 Y598.164
G1 Y613.402
G3 X342.9 Y616.577 I-3.175 J0.0
G1 X114.3
G3 X111.125 Y613.402 I0.0 J-3.175
G1 Y598.164
G1 X112.0549 Y597.2341
G1 X111.125 Y598.164
G1 X18.415
G3 X15.24 Y594.989 I0.0 J-3.175
G1 Y545.778
G1 X16.1699 Y544.8481
G1 X15.24 Y545.778
G1 X0.0
G3 X-3.175 Y542.603 I0.0 J-3.175
G1 Y401.001
G3 X0.0 Y397.826 I3.175 J0.0
G1 X15.24
G1 X16.1699 Y398.7559
G1 X15.24 Y397.826
G1 Y330.2
G3 X18.415 Y327.025 I3.175 J0.0
G1 X438.785
G3 X441.96 Y330.2 I0.0 J3.175
G1 Y397.826
G1 X441.0301 Y398.7559
G1 X441.96 Y397.826
G1 X457.2
G3 X460.375 Y401.001 I0.0 J3.175
G1 Y542.603
G3 X457.2 Y545.778 I-3.175 J0.0
G1 X441.96
G1 X441.0301 Y544.8481
G1 X441.96 Y545.778
G1 F300.0 Z-16.0
G1 F800.0 Y594.989
G3 X438.785 Y598.164 I-3.175 J0.0
G1 X346.075
G1 X345.1451 Y597.2341
G1 X346.075 Y598.164
G1 Y613.402
G3 X342.9 Y616.577 I-3.175 J0.0
G1 X114.3
G3 X111.125 Y613.402 I0.0 J-3.175
G1 Y598.164
G1 X112.0549 Y597.2341
G1 X111.125 Y598.164
G1 X18.415
G3 X15.24 Y594.989 I0.0 J-3.175
G1 Y545.778
G1 X16.1699 Y544.8481
G1 X15.24 Y545.778
G1 X0.0
G3 X-3.175 Y542.603 I0.0 J-3.175
G1 Y401.001
G3 X0.0 Y397.826 I3.175 J0.0
G1 X15.24
G1 X16.1699 Y398.7559
G1 X15.24 Y397.826
G1 Y330.2
G3 X18.415 Y327.025 I3.175 J0.0
G1 X438.785
G3 X441.96 Y330.2 I0.0 J3.175
G1 Y397.826
G1 X441.0301 Y398.7559
G1 X441.96 Y397.826
G1 X457.2
G3 X460.375 Y401.001 I0.0 J3.175
G1 Y542.603
G3 X457.2 Y545.778 I-3.175 J0.0
G1 X441.96
G1 X441.0301 Y544.8481
G1 X441.96 Y545.778
G1 F300.0 Z-17.0
G1 F800.0 Y594.989
G3 X438.785 Y598.164 I-3.175 J0.0
G1 X346.075
G1 X345.1451 Y597.2341
G1 X346.075 Y598.164
G1 Y613.402
G3 X342.9 Y616.577 I-3.175 J0.0
G1 X231.175
G0 Z-16.0
G1 X214.825
G1 F300.0 Z-17.0
G1 F800.0 X114.3
G3 X111.125 Y613.402 I0.0 J-3.175
G1 Y598.164
G1 X112.0549 Y597.2341
G1 X111.125 Y598.164
G1 X18.415
G3 X15.24 Y594.989 I0.0 J-3.175
G1 Y545.778
G1 X16.1699 Y544.8481
G1 X15.24 Y545.778
G1 X0.0
G3 X-3.175 Y542.603 I0.0 J-3.175
G1 Y486.175
G0 Z-16.0
G1 Y469.825
G1 F300.0 Z-17.0
G1 F800.0 Y401.001
G3 X0.0 Y397.826 I3.175 J0.0
G1 X15.24
G1 X16.1699 Y398.7559
G1 X15.24 Y397.826
G1 Y330.2
G3 X18.415 Y327.025 I3.175 J0.0
G1 X171.825
G0 Z-16.0
G1 X188.175
G1 F300.0 Z-17.0
G1 F800.0 X438.785
G3 X441.96 Y330.2 I0.0 J3.175
G1 Y397.826
G1 X441.0301 Y398.7559
G1 X441.96 Y397.826
G1 X457.2
G3 X460.375 Y401.001 I0.0 J3.175
G1 Y466.825
G0 Z-16.0
G1 Y483.175
G1 F300.0 Z-17.0
G1 F800.0 Y542.603
G3 X457.2 Y545.778 I-3.175 J0.0
G1 X441.96
G1 X441.0301 Y544.8481
G1 X441.96 Y545.778
G1 F300.0 Z-18.0
G1 F800.0 Y594.989
G3 X438.785 Y598.164 I-3.175 J0.0
G1 X346.075
G1 X345.1451 Y597.2341
G1 X346.075 Y598.164
G1 Y613.402
G3 X342.9 Y616.577 I-3.175 J0.0
G1 X231.175
G0 Z-16.0
G1 X214.825
G1 F300.0 Z-18.0
G1 F800.0 X114.3
G3 X111.125 Y613.402 I0.0 J-3.175
G1 Y598.164
G1 X112.0549 Y597.2341
G1 X111.125 Y598.164
G1 X18.415
G3 X15.24 Y594.989 I0.0 J-3.175
G1 Y545.778
G1 X16.1699 Y544.8481
G1 X15.24 Y545.778
G1 X0.0
G3 X-3.175 Y542.603 I0.0 J-3.175
G1 Y486.175
G0 Z-16.0
G1 Y469.825
G1 F300.0 Z-18.0
G1 F800.0 Y401.001
G3 X0.0 Y397.826 I3.175 J0.0
G1 X15.24
G1 X16.1699 Y398.7559
G1 X15.24 Y397.826
G1 Y330.2
G3 X18.415 Y327.025 I3.175 J0.0
G1 X171.825
G0 Z-16.0
G1 X188.175
G1 F300.0 Z-18.0
G1 F800.0 X438.785
G3 X441.96 Y330.2 I0.0 J3.175
G1 Y397.826
G1 X441.0301 Y398.7559
G1 X441.96 Y397.826
G1 X457.2
G3 X460.375 Y401.001 I0.0 J3.175
G1 Y466.825
G0 Z-16.0
G1 Y483.175
G1 F300.0 Z-18.0
G1 F800.0 Y542.603
G3 X457.2 Y545.778 I-3.175 J0.0
G1 X441.96
G1 X441.0301 Y544.8481
G1 X441.96 Y545.778
G1 F300.0 Z-19.0
G1 F800.0 Y594.989
G3 X438.785 Y598.164 I-3.175 J0.0
G1 X346.075
G1 X345.1451 Y597.2341
G1 X346.075 Y598.164
G1 Y613.402
G3 X342.9 Y616.577 I-3.175 J0.0
G1 X231.175
G0 Z-16.0
G1 X214.825
G0 Z-17.0
G1 F300.0 Z-19.0
G1 F800.0 X114.3
G3 X111.125 Y613.402 I0.0 J-3.175
G1 Y598.164
G1 X112.0549 Y597.2341
G1 X111.125 Y598.164
G1 X18.415
G3 X15.24 Y594.989 I0.0 J-3.175
G1 Y545.778
G1 X16.1699 Y544.8481
G1 X15.24 Y545.778
G1 X0.0
G3 X-3.175 Y542.603 I0.0 J-3.175
G1 Y486.175
G0 Z-16.0
G1 Y469.825
G0 Z-17.0
G1 F300.0 Z-19.0
G1 F800.0 Y401.001
G3 X0.0 Y397.826 I3.175 J0.0
G1 X15.24
G1 X16.1699 Y398.7559
G1 X15.24 Y397.826
G1 Y330.2
G3 X18.415 Y327.025 I3.175 J0.0
G1 X171.825
G0 Z-16.0
G1 X188.175
G0 Z-17.0
G1 F300.0 Z-19.0
G1 F800.0 X438.785
G3 X441.96 Y330.2 I0.0 J3.175
G1 Y397.826
G1 X441.0301 Y398.7559
G1 X441.96 Y397.826
G1 X457.2
G3 X460.375 Y401.001 I0.0 J3.175
G1 Y466.825
G0 Z-16.0
G1 Y483.175
G0 Z-17.0
G1 F300.0 Z-19.0
G1 F800.0 Y542.603
G3 X457.2 Y545.778 I-3.175 J0.0
G1 X441.96
G1 X441.0301 Y544.8481
G1 X441.96 Y545.778
G1 F300.0 Z-20.0
G1 F800.0 Y594.989
G3 X438.785 Y598.164 I-3.175 J0.0
G1 X346.075
G1 X345.1451 Y597.2341
G1 X346.075 Y598.164
G1 Y613.402
G3 X342.9 Y616.577 I-3.175 J0.0
G1 X231.175
G0 Z-16.0
G1 X214.825
G0 Z-18.0
G1 F300.0 Z-20.0
G1 F800.0 X114.3
G3 X111.125 Y613.402 I0.0 J-3.175
G1 Y598.164
G1 X112.0549 Y597.2341
G1 X111.125 Y598.164
G1 X18.415
G3 X15.24 Y594.989 I0.0 J-3.175
G1 Y545.778
G1 X16.1699 Y544.8481
G1 X15.24 Y545.778
G1 X0.0
G3 X-3.175 Y542.603 I0.0 J-3.175
G1 Y486.175
G0 Z-16.0
G1 Y469.825
G0 Z-18.0
G1 F300.0 Z-20.0
G1 F800.0 Y401.001
G3 X0.0 Y397.826 I3.175 J0.0
G1 X15.24
G1 X16.1699 Y398.7559
G1 X15.24 Y397.826
G1 Y330.2
G3 X18.415 Y327.025 I3.175 J0.0
G1 X171.825
G0 Z-16.0
G1 X188.175
G0 Z-18.0
G1 F300.0 Z-20.0
G1 F800.0 X438.785
G3 X441.96 Y330.2 I0.0 J3.175
G1 Y397.826
G1 X441.0301 Y398.7559
G1 X441.96 Y397.826
G1 X457.2
G3 X460.375 Y401.001 I0.0 J3.175
G1 Y466.825
G0 Z-16.0
G1 Y483.175
G0 Z-18.0
G1 F300.0 Z-20.0
G1 F800.0 Y542.603
G3 X457.2 Y545.778 I-3.175 J0.0
G1 X441.96
G1 X441.0301 Y544.8481
G1 X441.96 Y545.778
G1 F300.0 Z-21.0
G1 F800.0 Y594.989
G3 X438.785 Y598.164 I-3.175 J0.0
G1 X346.075
G1 X345.1451 Y597.2341
G1 X346.075 Y598.164
G1 Y613.402
G3 X342.9 Y616.577 I-3.175 J0.0
G1 X231.175
G0 Z-16.0
G1 X214.825
G0 Z-19.0
G1 F300.0 Z-21.0
G1 F800.0 X114.3
G3 X111.125 Y613.402 I0.0 J-3.175
G1 Y598.164
G1 X112.0549 Y597.2341
G1 X111.125 Y598.164
G1 X18.415
G3 X15.24 Y594.989 I0.0 J-3.175
G1 Y545.778
G1 X16.1699 Y544.8481
G1 X15.24 Y545.778
G1 X0.0
G3 X-3.175 Y542.603 I0.0 J-3.175
G1 Y486.175
G0 Z-16.0
G1 Y469.825
G0 Z-19.0
G1 F300.0 Z-21.0
G1 F800.0 Y401.001
G3 X0.0 Y397.826 I3.175 J0.0
G1 X15.24
G1 X16.1699 Y398.7559
G1 X15.24 Y397.826
G1 Y330.2
G3 X18.415 Y327.025 I3.175 J0.0
G1 X171.825
G0 Z-16.0
G1 X188.175
G0 Z-19.0
G1 F300.0 Z-21.0
G1 F800.0 X438.785
G3 X441.96 Y330.2 I0.0 J3.175
G1 Y397.826
G1 X441.0301 Y398.7559
G1 X441.96 Y397.826
G1 X457.2
G3 X460.375 Y401.001 I0.0 J3.175
G1 Y466.825
G0 Z-16.0
G1 Y483.175
G0 Z-19.0
G1 F300.0 Z-21.0
G1 F800.0 Y542.603
G3 X457.2 Y545.778 I-3.175 J0.0
G1 X441.96
G1 X441.0301 Y544.8481
G1 X441.96 Y545.778
G0 Z15.0
G0 X438.8223 Y278.7618
G0 Z1.0
G1 F300.0 Z-1.0
G3 F800.0 X438.785 Y278.762 I-0.0373 J-3.1748
G1 X346.075
G1 X345.1451 Y277.8321
G1 X346.075 Y278.762
G1 Y294.002
G3 X342.9 Y297.177 I-3.175 J0.0
G1 X114.3
G3 X111.125 Y294.002 I0.0 J-3.175
G1 Y278.762
G1 X112.0549 Y277.8321
G1 X111.125 Y278.762
G1 X18.415
G3 X15.24 Y275.587 I0.0 J-3.175
G1 Y223.676
G1 X16.1699 Y222.7461
G1 X15.24 Y223.676
G1 X0.0
G3 X-3.175 Y220.501 I0.0 J-3.175
G1 Y73.5
G3 X0.0 Y70.325 I3.175 J0.0
G1 X15.24
G1 X16.1699 Y71.2549
G1 X15.24 Y70.325
G1 Y0.0
G3 X18.415 Y-3.175 I3.175 J0.0
G1 X438.785
G3 X441.96 Y0.0 I0.0 J3.175
G1 Y70.325
G1 X441.0301 Y71.2549
G1 X441.96 Y70.325
G1 X457.2
G3 X460.375 Y73.5 I0.0 J3.175
G1 Y220.501
G3 X457.2 Y223.676 I-3.175 J0.0
G1 X441.96
G1 X441.0301 Y222.7461
G1 X441.96 Y223.676
G1 Y275.587
G3 X438.8223 Y278.7618 I-3.175 J0.0
G1 F300.0 Z-2.0
G3 F800.0 X438.785 Y278.762 I-0.0373 J-3.1748
G1 X346.075
G1 X345.1451 Y277.8321
G1 X346.075 Y278.762
G1 Y294.002
G3 X342.9 Y297.177 I-3.175 J0.0
G1 X114.3
G3 X111.125 Y294.002 I0.0 J-3.175
G1 Y278.762
G1 X112.0549 Y277.8321
G1 X111.125 Y278.762
G1 X18.415
G3 X15.24 Y275.587 I0.0 J-3.175
G1 Y223.676
G1 X16.1699 Y222.7461
G1 X15.24 Y223.676
G1 X0.0
G3 X-3.175 Y220.501 I0.0 J-3.175
G1 Y73.5
G3 X0.0 Y70.325 I3.175 J0.0
G1 X15.24
G1 X16.1699 Y71.2549
G1 X15.24 Y70.325
G1 Y0.0
G3 X18.415 Y-3.175 I3.175 J0.0
G1 X438.785
G3 X441.96 Y0.0 I0.0 J3.175
G1 Y70.325
G1 X441.0301 Y71.2549
G1 X441.96 Y70.325
G1 X457.2
G3 X460.375 Y73.5 I0.0 J3.175
G1 Y220.501
G3 X457.2 Y223.676 I-3.175 J0.0
G1 X441.96
G1 X441.0301 Y222.7461
G1 X441.96 Y223.676
G1 Y275.587
G3 X438.8223 Y278.7618 I-3.175 J0.0
G1 F300.0 Z-3.0
G3 F800.0 X438.785 Y278.762 I-0.0373 J-3.1748
G1 X346.075
G1 X345.1451 Y277.8321
G1 X346.075 Y278.762
G1 Y294.002
G3 X342.9 Y297.177 I-3.175 J0.0
G1 X114.3
G3 X111.125 Y294.002 I0.0 J-3.175
G1 Y278.762
G1 X112.0549 Y277.8321
G1 X111.125 Y278.762
G1 X18.415
G3 X15.24 Y275.587 I0.0 J-3.175
G1 Y223.676
G1 X16.1699 Y222.7461
G1 X15.24 Y223.676
G1 X0.0
G3 X-3.175 Y220.501 I0.0 J-3.175
G1 Y73.5
G3 X0.0 Y70.325 I3.175 J0.0
G1 X15.24
G1 X16.1699 Y71.2549
G1 X15.24 Y70.325
G1 Y0.0
G3 X18.415 Y-3.175 I3.175 J0.0
G1 X438.785
G3 X441.96 Y0.0 I0.0 J3.175
G1 Y70.325
G1 X441.0301 Y71.2549
G1 X441.96 Y70.325
G1 X457.2
G3 X460.375 Y73.5 I0.0 J3.175
G1 Y220.501
G3 X457.2 Y223.676 I-3.175 J0.0
G1 X441.96
G1 X441.0301 Y222.7461
G1 X441.96 Y223.676
G1 Y275.587
G3 X438.8223 Y278.7618 I-3.175 J0.0
G1 F300.0 Z-4.0
G3 F800.0 X438.785 Y278.762 I-0.0373 J-3.1748
G1 X346.075
G1 X345.1451 Y277.8321
G1 X346.075 Y278.762
G1 Y294.002
G3 X342.9 Y297.177 I-3.175 J0.0
G1 X114.3
G3 X111.125 Y294.002 I0.0 J-3.175
G1 Y278.762
G1 X112.0549 Y277.8321
G1 X111.125 Y278.762
G1 X18.415
G3 X15.24 Y275.587 I0.0 J-3.175
G1 Y223.676
G1 X16.1699 Y222.7461
G1 X15.24 Y223.676
G1 X0.0
G3 X-3.175 Y220.501 I0.0 J-3.175
G1 Y73.5
G3 X0.0 Y70.325 I3.175 J0.0
G1 X15.24
G1 X16.1699 Y71.2549
G1 X15.24 Y70.325
G1 Y0.0
G3 X18.415 Y-3.175 I3.175 J0.0
G1 X438.785
G3 X441.96 Y0.0 I0.0 J3.175
G1 Y70.325
G1 X441.0301 Y71.2549
G1 X441.96 Y70.325
G1 X457.2
G3 X460.375 Y73.5 I0.0 J3.175
G1 Y220.501
G3 X457.2 Y223.676 I-3.175 J0.0
G1 X441.96
G1 X441.0301 Y222.7461
G1 X441.96 Y223.676
G1 Y275.587
G3 X438.8223 Y278.7618 I-3.175 J0.0
G1 F300.0 Z-5.0
G3 F800.0 X438.785 Y278.762 I-0.0373 J-3.1748
G1 X346.075
G1 X345.1451 Y277.8321
G1 X346.075 Y278.762
G1 Y294.002
G3 X342.9 Y297.177 I-3.175 J0.0
G1 X114.3
G3 X111.125 Y294.002 I0.0 J-3.175
G1 Y278.762
G1 X112.0549 Y277.8321
G1 X111.125 Y278.762
G1 X18.415
G3 X15.24 Y275.587 I0.0 J-3.175
G1 Y223.676
G1 X16.1699 Y222.7461
G1 X15.24 Y223.676
G1 X0.0
G3 X-3.175 Y220.501 I0.0 J-3.175
G1 Y73.5
G3 X0.0 Y70.325 I3.175 J0.0
G1 X15.24
G1 X16.1699 Y71.2549
G1 X15.24 Y70.325
G1 Y0.0
G3 X18.415 Y-3.175 I3.175 J0.0
G1 X438.785
G3 X441.96 Y0.0 I0.0 J3.175
G1 Y70.325
G1 X441.0301 Y71.2549
G1 X441.96 Y70.325
G1 X457.2
G3 X460.375 Y73.5 I0.0 J3.175
G1 Y220.501
G3 X457.2 Y223.676 I-3.175 J0.0
G1 X441.96
G1 X441.0301 Y222.7461
G1 X441.96 Y223.676
G1 Y275.587
G3 X438.8223 Y278.7618 I-3.175 J0.0
G1 F300.0 Z-6.0
G3 F800.0 X438.785 Y278.762 I-0.0373 J-3.1748
G1 X346.075
G1 X345.1451 Y277.8321
G1 X346.075 Y278.762
G1 Y294.002
G3 X342.9 Y297.177 I-3.175 J0.0
G1 X114.3
G3 X111.125 Y294.002 I0.0 J-3.175
G1 Y278.762
G1 X112.0549 Y277.8321
G1 X111.125 Y278.762
G1 X18.415
G3 X15.24 Y275.587 I0.0 J-3.175
G1 Y223.676
G1 X16.1699 Y222.7461
G1 X15.24 Y223.676
G1 X0.0
G3 X-3.175 Y220.501 I0.0 J-3.175
G1 Y73.5
G3 X0.0 Y70.325 I3.175 J0.0
G1 X15.24
G1 X16.1699 Y71.2549
G1 X15.24 Y70.325
G1 Y0.0
G3 X18.415 Y-3.175 I3.175 J0.0
G1 X438.785
G3 X441.96 Y0.0 I0.0 J3.175
G1 Y70.325
G1 X441.0301 Y71.2549
G1 X441.96 Y70.325
G1 X457.2
G3 X460.375 Y73.5 I0.0 J3.175
G1 Y220.501
G3 X457.2 Y223.676 I-3.175 J0.0
G1 X441.96
G1 X441.0301 Y222.7461
G1 X441.96 Y223.676
G1 Y275.587
G3 X438.8223 Y278.7618 I-3.175 J0.0
G1 F300.0 Z-7.0
G3 F800.0 X438.785 Y278.762 I-0.0373 J-3.1748
G1 X346.075
G1 X345.1451 Y277.8321
G1 X346.075 Y278.762
G1 Y294.002
G3 X342.9 Y297.177 I-3.175 J0.0
G1 X114.3
G3 X111.125 Y294.002 I0.0 J-3.175
G1 Y278.762
G1 X112.0549 Y277.8321
G1 X111.125 Y278.762
G1 X18.415
G3 X15.24 Y275.587 I0.0 J-3.175
G1 Y223.676
G1 X16.1699 Y222.7461
G1 X15.24 Y223.676
G1 X0.0
G3 X-3.175 Y220.501 I0.0 J-3.175
G1 Y73.5
G3 X0.0 Y70.325 I3.175 J0.0
G1 X15.24
G1 X16.1699 Y71.2549
G1 X15.24 Y70.325
G1 Y0.0
G3 X18.415 Y-3.175 I3.175 J0.0
G1 X438.785
G3 X441.96 Y0.0 I0.0 J3.175
G1 Y70.325
G1 X441.0301 Y71.2549
G1 X441.96 Y70.325
G1 X457.2
G3 X460.375 Y73.5 I0.0 J3.175
G1 Y220.501
G3 X457.2 Y223.676 I-3.175 J0.0
G1 X441.96
G1 X441.0301 Y222.7461
G1 X441.96 Y223.676
G1 Y275.587
G3 X438.8223 Y278.7618 I-3.175 J0.0
G1 F300.0 Z-8.0
G3 F800.0 X438.785 Y278.762 I-0.0373 J-3.1748
G1 X346.075
G1 X345.1451 Y277.8321
G1 X346.075 Y278.762
G1 Y294.002
G3 X342.9 Y297.177 I-3.175 J0.0
G1 X114.3
G3 X111.125 Y294.002 I0.0 J-3.175
G1 Y278.762
G1 X112.0549 Y277.8321
G1 X111.125 Y278.762
G1 X18.415
G3 X15.24 Y275.587 I0.0 J-3.175
G1 Y223.676
G1 X16.1699 Y222.7461
G1 X15.24 Y223.676
G1 X0.0
G3 X-3.175 Y220.501 I0.0 J-3.175
G1 Y73.5
G3 X0.0 Y70.325 I3.175 J0.0
G1 X15.24
G1 X16.1699 Y71.2549
G1 X15.24 Y70.325
G1 Y0.0
G3 X18.415 Y-3.175 I3.175 J0.0
G1 X438.785
G3 X441.96 Y0.0 I0.0 J3.175
G1 Y70.325
G1 X441.0301 Y71.2549
G1 X441.96 Y70.325
G1 X457.2
G3 X460.375 Y73.5 I0.0 J3.175
G1 Y220.501
G3 X457.2 Y223.676 I-3.175 J0.0
G1 X441.96
G1 X441.0301 Y222.7461
G1 X441.96 Y223.676
G1 Y275.587
G3 X438.8223 Y278.7618 I-3.175 J0.0
G1 F300.0 Z-9.0
G3 F800.0 X438.785 Y278.762 I-0.0373 J-3.1748
G1 X346.075
G1 X345.1451 Y277.8321
G1 X346.075 Y278.762
G1 Y294.002
G3 X342.9 Y297.177 I-3.175 J0.0
G1 X114.3
G3 X111.125 Y294.002 I0.0 J-3.175
G1 Y278.762
G1 X112.0549 Y277.8321
G1 X111.125 Y278.762
G1 X18.415
G3 X15.24 Y275.587 I0.0 J-3.175
G1 Y223.676
G1 X16.1699 Y222.7461
G1 X15.24 Y223.676
G1 X0.0
G3 X-3.175 Y220.501 I0.0 J-3.175
G1 Y73.5
G3 X0.0 Y70.325 I3.175 J0.0
G1 X15.24
G1 X16.1699 Y71.2549
G1 X15.24 Y70.325
G1 Y0.0
G3 X18.415 Y-3.175 I3.175 J0.0
G1 X438.785
G3 X441.96 Y0.0 I0.0 J3.175
G1 Y70.325
G1 X441.0301 Y71.2549
G1 X441.96 Y70.325
G1 X457.2
G3 X460.375 Y73.5 I0.0 J3.175
G1 Y220.501
G3 X457.2 Y223.676 I-3.175 J0.0
G1 X441.96
G1 X441.0301 Y222.7461
G1 X441.96 Y223.676
G1 Y275.587
G3 X438.8223 Y278.7618 I-3.175 J0.0
G1 F300.0 Z-10.0
G3 F800.0 X438.785 Y278.762 I-0.0373 J-3.1748
G1 X346.075
G1 X345.1451 Y277.8321
G1 X346.075 Y278.762
G1 Y294.002
G3 X342.9 Y297.177 I-3.175 J0.0
G1 X114.3
G3 X111.125 Y294.002 I0.0 J-3.175
G1 Y278.762
G1 X112.0549 Y277.8321
G1 X111.125 Y278.762
G1 X18.415
G3 X15.24 Y275.587 I0.0 J-3.175
G1 Y223.676
G1 X16.1699 Y222.7461
G1 X15.24 Y223.676
G1 X0.0
G3 X-3.175 Y220.501 I0.0 J-3.175
G1 Y73.5
G3 X0.0 Y70.325 I3.175 J0.0
G1 X15.24
G1 X16.1699 Y71.2549
G1 X15.24 Y70.325
G1 Y0.0
G3 X18.415 Y-3.175 I3.175 J0.0
G1 X438.785
G3 X441.96 Y0.0 I0.0 J3.175
G1 Y70.325
G1 X441.0301 Y71.2549
G1 X441.96 Y70.325
G1 X457.2
G3 X460.375 Y73.5 I0.0 J3.175
G1 Y220.501
G3 X457.2 Y223.676 I-3.175 J0.0
G1 X441.96
G1 X441.0301 Y222.7461
G1 X441.96 Y223.676
G1 Y275.587
G3 X438.8223 Y278.7618 I-3.175 J0.0
G1 F300.0 Z-11.0
G3 F800.0 X438.785 Y278.762 I-0.0373 J-3.1748
G1 X346.075
G1 X345.1451 Y277.8321
G1 X346.075 Y278.762
G1 Y294.002
G3 X342.9 Y297.177 I-3.175 J0.0
G1 X114.3
G3 X111.125 Y294.002 I0.0 J-3.175
G1 Y278.762
G1 X112.0549 Y277.8321
G1 X111.125 Y278.762
G1 X18.415
G3 X15.24 Y275.587 I0.0 J-3.175
G1 Y223.676
G1 X16.1699 Y222.7461
G1 X15.24 Y223.676
G1 X0.0
G3 X-3.175 Y220.501 I0.0 J-3.175
G1 Y73.5
G3 X0.0 Y70.325 I3.175 J0.0
G1 X15.24
G1 X16.1699 Y71.2549
G1 X15.24 Y70.325
G1 Y0.0
G3 X18.415 Y-3.175 I3.175 J0.0
G1 X438.785
G3 X441.96 Y0.0 I0.0 J3.175
G1 Y70.325
G1 X441.0301 Y71.2549
G1 X441.96 Y70.325
G1 X457.2
G3 X460.375 Y73.5 I0.0 J3.175
G1 Y220.501
G3 X457.2 Y223.676 I-3.175 J0.0
G1 X441.96
G1 X441.0301 Y222.7461
G1 X441.96 Y223.676
G1 Y275.587
G3 X438.8223 Y278.7618 I-3.175 J0.0
G1 F300.0 Z-12.0
G3 F800.0 X438.785 Y278.762 I-0.0373 J-3.1748
G1 X346.075
G1 X345.1451 Y277.8321
G1 X346.075 Y278.762
G1 Y294.002
G3 X342.9 Y297.177 I-3.175 J0.0
G1 X114.3
G3 X111.125 Y294.002 I0.0 J-3.175
G1 Y278.762
G1 X112.0549 Y277.8321
G1 X111.125 Y278.762
G1 X18.415
G3 X15.24 Y275.587 I0.0 J-3.175
G1 Y223.676
G1 X16.1699 Y222.7461
G1 X15.24 Y223.676
G1 X0.0
G3 X-3.175 Y220.501 I0.0 J-3.175
G1 Y73.5
G3 X0.0 Y70.325 I3.175 J0.0
G1 X15.24
G1 X16.1699 Y71.2549
G1 X15.24 Y70.325
G1 Y0.0
G3 X18.415 Y-3.175 I3.175 J0.0
G1 X438.785
G3 X441.96 Y0.0 I0.0 J3.175
G1 Y70.325
G1 X441.0301 Y71.2549
G1 X441.96 Y70.325
G1 X457.2
G3 X460.375 Y73.5 I0.0 J3.175
G1 Y220.501
G3 X457.2 Y223.676 I-3.175 J0.0
G1 X441.96
G1 X441.0301 Y222.7461
G1 X441.96 Y223.676
G1 Y275.587
G3 X438.8223 Y278.7618 I-3.175 J0.0
G1 F300.0 Z-13.0
G3 F800.0 X438.785 Y278.762 I-0.0373 J-3.1748
G1 X346.075
G1 X345.1451 Y277.8321
G1 X346.075 Y278.762
G1 Y294.002
G3 X342.9 Y297.177 I-3.175 J0.0
G1 X114.3
G3 X111.125 Y294.002 I0.0 J-3.175
G1 Y278.762
G1 X112.0549 Y277.8321
G1 X111.125 Y278.762
G1 X18.415
G3 X15.24 Y275.587 I0.0 J-3.175
G1 Y223.676
G1 X16.1699 Y222.7461
G1 X15.24 Y223.676
G1 X0.0
G3 X-3.175 Y220.501 I0.0 J-3.175
G1 Y73.5
G3 X0.0 Y70.325 I3.175 J0.0
G1 X15.24
G1 X16.1699 Y71.2549
G1 X15.24 Y70.325
G1 Y0.0
G3 X18.415 Y-3.175 I3.175 J0.0
G1 X438.785
G3 X441.96 Y0.0 I0.0 J3.175
G1 Y70.325
G1 X441.0301 Y71.2549
G1 X441.96 Y70.325
G1 X457.2
G3 X460.375 Y73.5 I0.0 J3.175
G1 Y220.501
G3 X457.2 Y223.676 I-3.175 J0.0
G1 X441.96
G1 X441.0301 Y222.7461
G1 X441.96 Y223.676
G1 Y275.587
G3 X438.8223 Y278.7618 I-3.175 J0.0
G1 F300.0 Z-14.0
G3 F800.0 X438.785 Y278.762 I-0.0373 J-3.1748
G1 X346.075
G1 X345.1451 Y277.8321
G1 X346.075 Y278.762
G1 Y294.002
G3 X342.9 Y297.177 I-3.175 J0.0
G1 X114.3
G3 X111.125 Y294.002 I0.0 J-3.175
G1 Y278.762
G1 X112.0549 Y277.8321
G1 X111.125 Y278.762
G1 X18.415
G3 X15.24 Y275.587 I0.0 J-3.175
G1 Y223.676
G1 X16.1699 Y222.7461
G1 X15.24 Y223.676
G1 X0.0
G3 X-3.175 Y220.501 I0.0 J-3.175
G1 Y73.5
G3 X0.0 Y70.325 I3.175 J0.0
G1 X15.24
G1 X16.1699 Y71.2549
G1 X15.24 Y70.325
G1 Y0.0
G3 X18.415 Y-3.175 I3.175 J0.0
G1 X438.785
G3 X441.96 Y0.0 I0.0 J3.175
G1 Y70.325
G1 X441.0301 Y71.2549
G1 X441.96 Y70.325
G1 X457.2
G3 X460.375 Y73.5 I0.0 J3.175
G1 Y220.501
G3 X457.2 Y223.676 I-3.175 J0.0
G1 X441.96
G1 X441.0301 Y222.7461
G1 X441.96 Y223.676
G1 Y275.587
G3 X438.8223 Y278.7618 I-3.175 J0.0
G1 F300.0 Z-15.0
G3 F800.0 X438.785 Y278.762 I-0.0373 J-3.1748
G1 X346.075
G1 X345.1451 Y277.8321
G1 X346.075 Y278.762
G1 Y294.002
G3 X342.9 Y297.177 I-3.175 J0.0
G1 X114.3
G3 X111.125 Y294.002 I0.0 J-3.175
G1 Y278.762
G1 X112.0549 Y277.8321
G1 X111.125 Y278.762
G1 X18.415
G3 X15.24 Y275.587 I0.0 J-3.175
G1 Y223.676
G1 X16.1699 Y222.7461
G1 X15.24 Y223.676
G1 X0.0
G3 X-3.175 Y220.501 I0.0 J-3.175
G1 Y73.5
G3 X0.0 Y70.325 I3.175 J0.0
G1 X15.24
G1 X16.1699 Y71.2549
G1 X15.24 Y70.325
G1 Y0.0
G3 X18.415 Y-3.175 I3.175 J0.0
G1 X438.785
G3 X441.96 Y0.0 I0.0 J3.175
G1 Y70.325
G1 X441.0301 Y71.2549
G1 X441.96 Y70.325
G1 X457.2
G3 X460.375 Y73.5 I0.0 J3.175
G1 Y220.501
G3 X457.2 Y223.676 I-3.175 J0.0
G1 X441.96
G1 X441.0301 Y222.7461
G1 X441.96 Y223.676
G1 Y275.587
G3 X438.8223 Y278.7618 I-3.175 J0.0
G1 F300.0 Z-16.0
G3 F800.0 X438.785 Y278.762 I-0.0373 J-3.1748
G1 X346.075
G1 X345.1451 Y277.8321
G1 X346.075 Y278.762
G1 Y294.002
G3 X342.9 Y297.177 I-3.175 J0.0
G1 X114.3
G3 X111.125 Y294.002 I0.0 J-3.175
G1 Y278.762
G1 X112.0549 Y277.8321
G1 X111.125 Y278.762
G1 X18.415
G3 X15.24 Y275.587 I0.0 J-3.175
G1 Y223.676
G1 X16.1699 Y222.7461
G1 X15.24 Y223.676
G1 X0.0
G3 X-3.175 Y220.501 I0.0 J-3.175
G1 Y73.5
G3 X0.0 Y70.325 I3.175 J0.0
G1 X15.24
G1 X16.1699 Y71.2549
G1 X15.24 Y70.325
G1 Y0.0
G3 X18.415 Y-3.175 I3.175 J0.0
G1 X438.785
G3 X441.96 Y0.0 I0.0 J3.175
G1 Y70.325
G1 X441.0301 Y71.2549
G1 X441.96 Y70.325
G1 X457.2
G3 X460.375 Y73.5 I0.0 J3.175
G1 Y220.501
G3 X457.2 Y223.676 I-3.175 J0.0
G1 X441.96
G1 X441.0301 Y222.7461
G1 X441.96 Y223.676
G1 Y275.587
G3 X438.8223 Y278.7618 I-3.175 J0.0
G1 F300.0 Z-17.0
G3 F800.0 X438.785 Y278.762 I-0.0373 J-3.1748
G1 X346.075
G1 X345.1451 Y277.8321
G1 X346.075 Y278.762
G1 Y294.002
G3 X342.9 Y297.177 I-3.175 J0.0
G1 X252.175
G0 Z-16.0
G1 X235.825
G1 F300.0 Z-17.0
G1 F800.0 X114.3
G3 X111.125 Y294.002 I0.0 J-3.175
G1 Y278.762
G1 X112.0549 Y277.8321
G1 X111.125 Y278.762
G1 X18.415
G3 X15.24 Y275.587 I0.0 J-3.175
G1 Y223.676
G1 X16.1699 Y222.7461
G1 X15.24 Y223.676
G1 X0.0
G3 X-3.175 Y220.501 I0.0 J-3.175
G1 Y155.175
G0 Z-16.0
G1 Y138.825
G1 F300.0 Z-17.0
G1 F800.0 Y73.5
G3 X0.0 Y70.325 I3.175 J0.0
G1 X15.24
G1 X16.1699 Y71.2549
G1 X15.24 Y70.325
G1 Y0.0
G3 X18.415 Y-3.175 I3.175 J0.0
G1 X203.825
G0 Z-16.0
G1 X220.175
G1 F300.0 Z-17.0
G1 F800.0 X438.785
G3 X441.96 Y0.0 I0.0 J3.175
G1 Y70.325
G1 X441.0301 Y71.2549
G1 X441.96 Y70.325
G1 X457.2
G3 X460.375 Y73.5 I0.0 J3.175
G1 Y135.825
G0 Z-16.0
G1 Y152.175
G1 F300.0 Z-17.0
G1 F800.0 Y220.501
G3 X457.2 Y223.676 I-3.175 J0.0
G1 X441.96
G1 X441.0301 Y222.7461
G1 X441.96 Y223.676
G1 Y275.587
G3 X438.8223 Y278.7618 I-3.175 J0.0
G1 F300.0 Z-18.0
G3 F800.0 X438.785 Y278.762 I-0.0373 J-3.1748
G1 X346.075
G1 X345.1451 Y277.8321
G1 X346.075 Y278.762
G1 Y294.002
G3 X342.9 Y297.177 I-3.175 J0.0
G1 X252.175
G0 Z-16.0
G1 X235.825
G1 F300.0 Z-18.0
G1 F800.0 X114.3
G3 X111.125 Y294.002 I0.0 J-3.175
G1 Y278.762
G1 X112.0549 Y277.8321
G1 X111.125 Y278.762
G1 X18.415
G3 X15.24 Y275.587 I0.0 J-3.175
G1 Y223.676
G1 X16.1699 Y222.7461
G1 X15.24 Y223.676
G1 X0.0
G3 X-3.175 Y220.501 I0.0 J-3.175
G1 Y155.175
G0 Z-16.0
G1 Y138.825
G1 F300.0 Z-18.0
G1 F800.0 Y73.5
G3 X0.0 Y70.325 I3.175 J0.0
G1 X15.24
G1 X16.1699 Y71.2549
G1 X15.24 Y70.325
G1 Y0.0
G3 X18.415 Y-3.175 I3.175 J0.0
G1 X203.825
G0 Z-16.0
G1 X220.175
G1 F300.0 Z-18.0
G1 F800.0 X438.785
G3 X441.96 Y0.0 I0.0 J3.175
G1 Y70.325
G1 X441.0301 Y71.2549
G1 X441.96 Y70.325
G1 X457.2
G3 X460.375 Y73.5 I0.0 J3.175
G1 Y135.825
G0 Z-16.0
G1 Y152.175
G1 F300.0 Z-18.0
G1 F800.0 Y220.501
G3 X457.2 Y223.676 I-3.175 J0.0
G1 X441.96
G1 X441.0301 Y222.7461
G1 X441.96 Y223.676
G1 Y275.587
G3 X438.8223 Y278.7618 I-3.175 J0.0
G1 F300.0 Z-19.0
G3 F800.0 X438.785 Y278.762 I-0.0373 J-3.1748
G1 X346.075
G1 X345.1451 Y277.8321
G1 X346.075 Y278.762
G1 Y294.002
G3 X342.9 Y297.177 I-3.175 J0.0
G1 X252.175
G0 Z-16.0
G1 X235.825
G0 Z-17.0
G1 F300.0 Z-19.0
G1 F800.0 X114.3
G3 X111.125 Y294.002 I0.0 J-3.175
G1 Y278.762
G1 X112.0549 Y277.8321
G1 X111.125 Y278.762
G1 X18.415
G3 X15.24 Y275.587 I0.0 J-3.175
G1 Y223.676
G1 X16.1699 Y222.7461
G1 X15.24 Y223.676
G1 X0.0
G3 X-3.175 Y220.501 I0.0 J-3.175
G1 Y155.175
G0 Z-16.0
G1 Y138.825
G0 Z-17.0
G1 F300.0 Z-19.0
G1 F800.0 Y73.5
G3 X0.0 Y70.325 I3.175 J0.0
G1 X15.24
G1 X16.1699 Y71.2549
G1 X15.24 Y70.325
G1 Y0.0
G3 X18.415 Y-3.175 I3.175 J0.0
G1 X203.825
G0 Z-16.0
G1 X220.175
G0 Z-17.0
G1 F300.0 Z-19.0
G1 F800.0 X438.785
G3 X441.96 Y0.0 I0.0 J3.175
G1 Y70.325
G1 X441.0301 Y71.2549
G1 X441.96 Y70.325
G1 X457.2
G3 X460.375 Y73.5 I0.0 J3.175
G1 Y135.825
G0 Z-16.0
G1 Y152.175
G0 Z-17.0
G1 F300.0 Z-19.0
G1 F800.0 Y220.501
G3 X457.2 Y223.676 I-3.175 J0.0
G1 X441.96
G1 X441.0301 Y222.7461
G1 X441.96 Y223.676
G1 Y275.587
G3 X438.8223 Y278.7618 I-3.175 J0.0
G1 F300.0 Z-20.0
G3 F800.0 X438.785 Y278.762 I-0.0373 J-3.1748
G1 X346.075
G1 X345.1451 Y277.8321
G1 X346.075 Y278.762
G1 Y294.002
G3 X342.9 Y297.177 I-3.175 J0.0
G1 X252.175
G0 Z-16.0
G1 X235.825
G0 Z-18.0
G1 F300.0 Z-20.0
G1 F800.0 X114.3
G3 X111.125 Y294.002 I0.0 J-3.175
G1 Y278.762
G1 X112.0549 Y277.8321
G1 X111.125 Y278.762
G1 X18.415
G3 X15.24 Y275.587 I0.0 J-3.175
G1 Y223.676
G1 X16.1699 Y222.7461
G1 X15.24 Y223.676
G1 X0.0
G3 X-3.175 Y220.501 I0.0 J-3.175
G1 Y155.175
G0 Z-16.0
G1 Y138.825
G0 Z-18.0
G1 F300.0 Z-20.0
G1 F800.0 Y73.5
G3 X0.0 Y70.325 I3.175 J0.0
G1 X15.24
G1 X16.1699 Y71.2549
G1 X15.24 Y70.325
G1 Y0.0
G3 X18.415 Y-3.175 I3.175 J0.0
G1 X203.825
G0 Z-16.0
G1 X220.175
G0 Z-18.0
G1 F300.0 Z-20.0
G1 F800.0 X438.785
G3 X441.96 Y0.0 I0.0 J3.175
G1 Y70.325
G1 X441.0301 Y71.2549
G1 X441.96 Y70.325
G1 X457.2
G3 X460.375 Y73.5 I0.0 J3.175
G1 Y135.825
G0 Z-16.0
G1 Y152.175
G0 Z-18.0
G1 F300.0 Z-20.0
G1 F800.0 Y220.501
G3 X457.2 Y223.676 I-3.175 J0.0
G1 X441.96
G1 X441.0301 Y222.7461
G1 X441.96 Y223.676
G1 Y275.587
G3 X438.8223 Y278.7618 I-3.175 J0.0
G1 F300.0 Z-21.0
G3 F800.0 X438.785 Y278.762 I-0.0373 J-3.1748
G1 X346.075
G1 X345.1451 Y277.8321
G1 X346.075 Y278.762
G1 Y294.002
G3 X342.9 Y297.177 I-3.175 J0.0
G1 X252.175
G0 Z-16.0
G1 X235.825
G0 Z-19.0
G1 F300.0 Z-21.0
G1 F800.0 X114.3
G3 X111.125 Y294.002 I0.0 J-3.175
G1 Y278.762
G1 X112.0549 Y277.8321
G1 X111.125 Y278.762
G1 X18.415
G3 X15.24 Y275.587 I0.0 J-3.175
G1 Y223.676
G1 X16.1699 Y222.7461
G1 X15.24 Y223.676
G1 X0.0
G3 X-3.175 Y220.501 I0.0 J-3.175
G1 Y155.175
G0 Z-16.0
G1 Y138.825
G0 Z-19.0
G1 F300.0 Z-21.0
G1 F800.0 Y73.5
G3 X0.0 Y70.325 I3.175 J0.0
G1 X15.24
G1 X16.1699 Y71.2549
G1 X15.24 Y70.325
G1 Y0.0
G3 X18.415 Y-3.175 I3.175 J0.0
G1 X203.825
G0 Z-16.0
G1 X220.175
G0 Z-19.0
G1 F300.0 Z-21.0
G1 F800.0 X438.785
G3 X441.96 Y0.0 I0.0 J3.175
G1 Y70.325
G1 X441.0301 Y71.2549
G1 X441.96 Y70.325
G1 X457.2
G3 X460.375 Y73.5 I0.0 J3.175
G1 Y135.825
G0 Z-16.0
G1 Y152.175
G0 Z-19.0
G1 F300.0 Z-21.0
G1 F800.0 Y220.501
G3 X457.2 Y223.676 I-3.175 J0.0
G1 X441.96
G1 X441.0301 Y222.7461
G1 X441.96 Y223.676
G1 Y275.587
G3 X438.8223 Y278.7618 I-3.175 J0.0
G0 Z15.0
M5
M30
