( Made using CamBam - http://www.cambam.co.uk )
( ParametricShelf_sheet2 1/2/2016 5:57:11 PM )
( T6 : 6.35 )
G21 G90 G64 G40
G0 Z15.0
( T6 : 6.35 )
T6 M6
( Profile3 )
G17
M3 S1000
G0 X441.96 Y886.776
G0 Z1.0
G1 F300.0 Z-1.0
G1 F800.0 Y935.987
G3 X438.785 Y939.162 I-3.175 J0.0
G1 X346.075
G1 X345.1451 Y938.2321
G1 X346.075 Y939.162
G1 Y954.4
G3 X342.9 Y957.575 I-3.175 J0.0
G1 X114.3
G3 X111.125 Y954.4 I0.0 J-3.175
G1 Y939.162
G1 X112.0549 Y938.2321
G1 X111.125 Y939.162
G1 X18.415
G3 X15.24 Y935.987 I0.0 J-3.175
G1 Y886.776
G1 X16.1699 Y885.8461
G1 X15.24 Y886.776
G1 X0.0
G3 X-3.175 Y883.601 I0.0 J-3.175
G1 Y741.999
G3 X0.0 Y738.824 I3.175 J0.0
G1 X15.24
G1 X16.1699 Y739.7539
G1 X15.24 Y738.824
G1 Y671.198
G3 X18.415 Y668.023 I3.175 J0.0
G1 X438.785
G3 X441.96 Y671.198 I0.0 J3.175
G1 Y738.824
G1 X441.0301 Y739.7539
G1 X441.96 Y738.824
G1 X457.2
G3 X460.375 Y741.999 I0.0 J3.175
G1 Y883.601
G3 X457.2 Y886.776 I-3.175 J0.0
G1 X441.96
G1 X441.0301 Y885.8461
G1 X441.96 Y886.776
G1 F300.0 Z-2.0
G1 F800.0 Y935.987
G3 X438.785 Y939.162 I-3.175 J0.0
G1 X346.075
G1 X345.1451 Y938.2321
G1 X346.075 Y939.162
G1 Y954.4
G3 X342.9 Y957.575 I-3.175 J0.0
G1 X114.3
G3 X111.125 Y954.4 I0.0 J-3.175
G1 Y939.162
G1 X112.0549 Y938.2321
G1 X111.125 Y939.162
G1 X18.415
G3 X15.24 Y935.987 I0.0 J-3.175
G1 Y886.776
G1 X16.1699 Y885.8461
G1 X15.24 Y886.776
G1 X0.0
G3 X-3.175 Y883.601 I0.0 J-3.175
G1 Y741.999
G3 X0.0 Y738.824 I3.175 J0.0
G1 X15.24
G1 X16.1699 Y739.7539
G1 X15.24 Y738.824
G1 Y671.198
G3 X18.415 Y668.023 I3.175 J0.0
G1 X438.785
G3 X441.96 Y671.198 I0.0 J3.175
G1 Y738.824
G1 X441.0301 Y739.7539
G1 X441.96 Y738.824
G1 X457.2
G3 X460.375 Y741.999 I0.0 J3.175
G1 Y883.601
G3 X457.2 Y886.776 I-3.175 J0.0
G1 X441.96
G1 X441.0301 Y885.8461
G1 X441.96 Y886.776
G1 F300.0 Z-3.0
G1 F800.0 Y935.987
G3 X438.785 Y939.162 I-3.175 J0.0
G1 X346.075
G1 X345.1451 Y938.2321
G1 X346.075 Y939.162
G1 Y954.4
G3 X342.9 Y957.575 I-3.175 J0.0
G1 X114.3
G3 X111.125 Y954.4 I0.0 J-3.175
G1 Y939.162
G1 X112.0549 Y938.2321
G1 X111.125 Y939.162
G1 X18.415
G3 X15.24 Y935.987 I0.0 J-3.175
G1 Y886.776
G1 X16.1699 Y885.8461
G1 X15.24 Y886.776
G1 X0.0
G3 X-3.175 Y883.601 I0.0 J-3.175
G1 Y741.999
G3 X0.0 Y738.824 I3.175 J0.0
G1 X15.24
G1 X16.1699 Y739.7539
G1 X15.24 Y738.824
G1 Y671.198
G3 X18.415 Y668.023 I3.175 J0.0
G1 X438.785
G3 X441.96 Y671.198 I0.0 J3.175
G1 Y738.824
G1 X441.0301 Y739.7539
G1 X441.96 Y738.824
G1 X457.2
G3 X460.375 Y741.999 I0.0 J3.175
G1 Y883.601
G3 X457.2 Y886.776 I-3.175 J0.0
G1 X441.96
G1 X441.0301 Y885.8461
G1 X441.96 Y886.776
G1 F300.0 Z-4.0
G1 F800.0 Y935.987
G3 X438.785 Y939.162 I-3.175 J0.0
G1 X346.075
G1 X345.1451 Y938.2321
G1 X346.075 Y939.162
G1 Y954.4
G3 X342.9 Y957.575 I-3.175 J0.0
G1 X114.3
G3 X111.125 Y954.4 I0.0 J-3.175
G1 Y939.162
G1 X112.0549 Y938.2321
G1 X111.125 Y939.162
G1 X18.415
G3 X15.24 Y935.987 I0.0 J-3.175
G1 Y886.776
G1 X16.1699 Y885.8461
G1 X15.24 Y886.776
G1 X0.0
G3 X-3.175 Y883.601 I0.0 J-3.175
G1 Y741.999
G3 X0.0 Y738.824 I3.175 J0.0
G1 X15.24
G1 X16.1699 Y739.7539
G1 X15.24 Y738.824
G1 Y671.198
G3 X18.415 Y668.023 I3.175 J0.0
G1 X438.785
G3 X441.96 Y671.198 I0.0 J3.175
G1 Y738.824
G1 X441.0301 Y739.7539
G1 X441.96 Y738.824
G1 X457.2
G3 X460.375 Y741.999 I0.0 J3.175
G1 Y883.601
G3 X457.2 Y886.776 I-3.175 J0.0
G1 X441.96
G1 X441.0301 Y885.8461
G1 X441.96 Y886.776
G1 F300.0 Z-5.0
G1 F800.0 Y935.987
G3 X438.785 Y939.162 I-3.175 J0.0
G1 X346.075
G1 X345.1451 Y938.2321
G1 X346.075 Y939.162
G1 Y954.4
G3 X342.9 Y957.575 I-3.175 J0.0
G1 X114.3
G3 X111.125 Y954.4 I0.0 J-3.175
G1 Y939.162
G1 X112.0549 Y938.2321
G1 X111.125 Y939.162
G1 X18.415
G3 X15.24 Y935.987 I0.0 J-3.175
G1 Y886.776
G1 X16.1699 Y885.8461
G1 X15.24 Y886.776
G1 X0.0
G3 X-3.175 Y883.601 I0.0 J-3.175
G1 Y741.999
G3 X0.0 Y738.824 I3.175 J0.0
G1 X15.24
G1 X16.1699 Y739.7539
G1 X15.24 Y738.824
G1 Y671.198
G3 X18.415 Y668.023 I3.175 J0.0
G1 X438.785
G3 X441.96 Y671.198 I0.0 J3.175
G1 Y738.824
G1 X441.0301 Y739.7539
G1 X441.96 Y738.824
G1 X457.2
G3 X460.375 Y741.999 I0.0 J3.175
G1 Y883.601
G3 X457.2 Y886.776 I-3.175 J0.0
G1 X441.96
G1 X441.0301 Y885.8461
G1 X441.96 Y886.776
G1 F300.0 Z-6.0
G1 F800.0 Y935.987
G3 X438.785 Y939.162 I-3.175 J0.0
G1 X346.075
G1 X345.1451 Y938.2321
G1 X346.075 Y939.162
G1 Y954.4
G3 X342.9 Y957.575 I-3.175 J0.0
G1 X114.3
G3 X111.125 Y954.4 I0.0 J-3.175
G1 Y939.162
G1 X112.0549 Y938.2321
G1 X111.125 Y939.162
G1 X18.415
G3 X15.24 Y935.987 I0.0 J-3.175
G1 Y886.776
G1 X16.1699 Y885.8461
G1 X15.24 Y886.776
G1 X0.0
G3 X-3.175 Y883.601 I0.0 J-3.175
G1 Y741.999
G3 X0.0 Y738.824 I3.175 J0.0
G1 X15.24
G1 X16.1699 Y739.7539
G1 X15.24 Y738.824
G1 Y671.198
G3 X18.415 Y668.023 I3.175 J0.0
G1 X438.785
G3 X441.96 Y671.198 I0.0 J3.175
G1 Y738.824
G1 X441.0301 Y739.7539
G1 X441.96 Y738.824
G1 X457.2
G3 X460.375 Y741.999 I0.0 J3.175
G1 Y883.601
G3 X457.2 Y886.776 I-3.175 J0.0
G1 X441.96
G1 X441.0301 Y885.8461
G1 X441.96 Y886.776
G1 F300.0 Z-7.0
G1 F800.0 Y935.987
G3 X438.785 Y939.162 I-3.175 J0.0
G1 X346.075
G1 X345.1451 Y938.2321
G1 X346.075 Y939.162
G1 Y954.4
G3 X342.9 Y957.575 I-3.175 J0.0
G1 X114.3
G3 X111.125 Y954.4 I0.0 J-3.175
G1 Y939.162
G1 X112.0549 Y938.2321
G1 X111.125 Y939.162
G1 X18.415
G3 X15.24 Y935.987 I0.0 J-3.175
G1 Y886.776
G1 X16.1699 Y885.8461
G1 X15.24 Y886.776
G1 X0.0
G3 X-3.175 Y883.601 I0.0 J-3.175
G1 Y741.999
G3 X0.0 Y738.824 I3.175 J0.0
G1 X15.24
G1 X16.1699 Y739.7539
G1 X15.24 Y738.824
G1 Y671.198
G3 X18.415 Y668.023 I3.175 J0.0
G1 X438.785
G3 X441.96 Y671.198 I0.0 J3.175
G1 Y738.824
G1 X441.0301 Y739.7539
G1 X441.96 Y738.824
G1 X457.2
G3 X460.375 Y741.999 I0.0 J3.175
G1 Y883.601
G3 X457.2 Y886.776 I-3.175 J0.0
G1 X441.96
G1 X441.0301 Y885.8461
G1 X441.96 Y886.776
G1 F300.0 Z-8.0
G1 F800.0 Y935.987
G3 X438.785 Y939.162 I-3.175 J0.0
G1 X346.075
G1 X345.1451 Y938.2321
G1 X346.075 Y939.162
G1 Y954.4
G3 X342.9 Y957.575 I-3.175 J0.0
G1 X114.3
G3 X111.125 Y954.4 I0.0 J-3.175
G1 Y939.162
G1 X112.0549 Y938.2321
G1 X111.125 Y939.162
G1 X18.415
G3 X15.24 Y935.987 I0.0 J-3.175
G1 Y886.776
G1 X16.1699 Y885.8461
G1 X15.24 Y886.776
G1 X0.0
G3 X-3.175 Y883.601 I0.0 J-3.175
G1 Y741.999
G3 X0.0 Y738.824 I3.175 J0.0
G1 X15.24
G1 X16.1699 Y739.7539
G1 X15.24 Y738.824
G1 Y671.198
G3 X18.415 Y668.023 I3.175 J0.0
G1 X438.785
G3 X441.96 Y671.198 I0.0 J3.175
G1 Y738.824
G1 X441.0301 Y739.7539
G1 X441.96 Y738.824
G1 X457.2
G3 X460.375 Y741.999 I0.0 J3.175
G1 Y883.601
G3 X457.2 Y886.776 I-3.175 J0.0
G1 X441.96
G1 X441.0301 Y885.8461
G1 X441.96 Y886.776
G1 F300.0 Z-9.0
G1 F800.0 Y935.987
G3 X438.785 Y939.162 I-3.175 J0.0
G1 X346.075
G1 X345.1451 Y938.2321
G1 X346.075 Y939.162
G1 Y954.4
G3 X342.9 Y957.575 I-3.175 J0.0
G1 X114.3
G3 X111.125 Y954.4 I0.0 J-3.175
G1 Y939.162
G1 X112.0549 Y938.2321
G1 X111.125 Y939.162
G1 X18.415
G3 X15.24 Y935.987 I0.0 J-3.175
G1 Y886.776
G1 X16.1699 Y885.8461
G1 X15.24 Y886.776
G1 X0.0
G3 X-3.175 Y883.601 I0.0 J-3.175
G1 Y741.999
G3 X0.0 Y738.824 I3.175 J0.0
G1 X15.24
G1 X16.1699 Y739.7539
G1 X15.24 Y738.824
G1 Y671.198
G3 X18.415 Y668.023 I3.175 J0.0
G1 X438.785
G3 X441.96 Y671.198 I0.0 J3.175
G1 Y738.824
G1 X441.0301 Y739.7539
G1 X441.96 Y738.824
G1 X457.2
G3 X460.375 Y741.999 I0.0 J3.175
G1 Y883.601
G3 X457.2 Y886.776 I-3.175 J0.0
G1 X441.96
G1 X441.0301 Y885.8461
G1 X441.96 Y886.776
G1 F300.0 Z-10.0
G1 F800.0 Y935.987
G3 X438.785 Y939.162 I-3.175 J0.0
G1 X346.075
G1 X345.1451 Y938.2321
G1 X346.075 Y939.162
G1 Y954.4
G3 X342.9 Y957.575 I-3.175 J0.0
G1 X114.3
G3 X111.125 Y954.4 I0.0 J-3.175
G1 Y939.162
G1 X112.0549 Y938.2321
G1 X111.125 Y939.162
G1 X18.415
G3 X15.24 Y935.987 I0.0 J-3.175
G1 Y886.776
G1 X16.1699 Y885.8461
G1 X15.24 Y886.776
G1 X0.0
G3 X-3.175 Y883.601 I0.0 J-3.175
G1 Y741.999
G3 X0.0 Y738.824 I3.175 J0.0
G1 X15.24
G1 X16.1699 Y739.7539
G1 X15.24 Y738.824
G1 Y671.198
G3 X18.415 Y668.023 I3.175 J0.0
G1 X438.785
G3 X441.96 Y671.198 I0.0 J3.175
G1 Y738.824
G1 X441.0301 Y739.7539
G1 X441.96 Y738.824
G1 X457.2
G3 X460.375 Y741.999 I0.0 J3.175
G1 Y883.601
G3 X457.2 Y886.776 I-3.175 J0.0
G1 X441.96
G1 X441.0301 Y885.8461
G1 X441.96 Y886.776
G1 F300.0 Z-11.0
G1 F800.0 Y935.987
G3 X438.785 Y939.162 I-3.175 J0.0
G1 X346.075
G1 X345.1451 Y938.2321
G1 X346.075 Y939.162
G1 Y954.4
G3 X342.9 Y957.575 I-3.175 J0.0
G1 X114.3
G3 X111.125 Y954.4 I0.0 J-3.175
G1 Y939.162
G1 X112.0549 Y938.2321
G1 X111.125 Y939.162
G1 X18.415
G3 X15.24 Y935.987 I0.0 J-3.175
G1 Y886.776
G1 X16.1699 Y885.8461
G1 X15.24 Y886.776
G1 X0.0
G3 X-3.175 Y883.601 I0.0 J-3.175
G1 Y741.999
G3 X0.0 Y738.824 I3.175 J0.0
G1 X15.24
G1 X16.1699 Y739.7539
G1 X15.24 Y738.824
G1 Y671.198
G3 X18.415 Y668.023 I3.175 J0.0
G1 X438.785
G3 X441.96 Y671.198 I0.0 J3.175
G1 Y738.824
G1 X441.0301 Y739.7539
G1 X441.96 Y738.824
G1 X457.2
G3 X460.375 Y741.999 I0.0 J3.175
G1 Y883.601
G3 X457.2 Y886.776 I-3.175 J0.0
G1 X441.96
G1 X441.0301 Y885.8461
G1 X441.96 Y886.776
G1 F300.0 Z-12.0
G1 F800.0 Y935.987
G3 X438.785 Y939.162 I-3.175 J0.0
G1 X346.075
G1 X345.1451 Y938.2321
G1 X346.075 Y939.162
G1 Y954.4
G3 X342.9 Y957.575 I-3.175 J0.0
G1 X114.3
G3 X111.125 Y954.4 I0.0 J-3.175
G1 Y939.162
G1 X112.0549 Y938.2321
G1 X111.125 Y939.162
G1 X18.415
G3 X15.24 Y935.987 I0.0 J-3.175
G1 Y886.776
G1 X16.1699 Y885.8461
G1 X15.24 Y886.776
G1 X0.0
G3 X-3.175 Y883.601 I0.0 J-3.175
G1 Y741.999
G3 X0.0 Y738.824 I3.175 J0.0
G1 X15.24
G1 X16.1699 Y739.7539
G1 X15.24 Y738.824
G1 Y671.198
G3 X18.415 Y668.023 I3.175 J0.0
G1 X438.785
G3 X441.96 Y671.198 I0.0 J3.175
G1 Y738.824
G1 X441.0301 Y739.7539
G1 X441.96 Y738.824
G1 X457.2
G3 X460.375 Y741.999 I0.0 J3.175
G1 Y883.601
G3 X457.2 Y886.776 I-3.175 J0.0
G1 X441.96
G1 X441.0301 Y885.8461
G1 X441.96 Y886.776
G1 F300.0 Z-13.0
G1 F800.0 Y935.987
G3 X438.785 Y939.162 I-3.175 J0.0
G1 X346.075
G1 X345.1451 Y938.2321
G1 X346.075 Y939.162
G1 Y954.4
G3 X342.9 Y957.575 I-3.175 J0.0
G1 X114.3
G3 X111.125 Y954.4 I0.0 J-3.175
G1 Y939.162
G1 X112.0549 Y938.2321
G1 X111.125 Y939.162
G1 X18.415
G3 X15.24 Y935.987 I0.0 J-3.175
G1 Y886.776
G1 X16.1699 Y885.8461
G1 X15.24 Y886.776
G1 X0.0
G3 X-3.175 Y883.601 I0.0 J-3.175
G1 Y741.999
G3 X0.0 Y738.824 I3.175 J0.0
G1 X15.24
G1 X16.1699 Y739.7539
G1 X15.24 Y738.824
G1 Y671.198
G3 X18.415 Y668.023 I3.175 J0.0
G1 X438.785
G3 X441.96 Y671.198 I0.0 J3.175
G1 Y738.824
G1 X441.0301 Y739.7539
G1 X441.96 Y738.824
G1 X457.2
G3 X460.375 Y741.999 I0.0 J3.175
G1 Y883.601
G3 X457.2 Y886.776 I-3.175 J0.0
G1 X441.96
G1 X441.0301 Y885.8461
G1 X441.96 Y886.776
G1 F300.0 Z-14.0
G1 F800.0 Y935.987
G3 X438.785 Y939.162 I-3.175 J0.0
G1 X346.075
G1 X345.1451 Y938.2321
G1 X346.075 Y939.162
G1 Y954.4
G3 X342.9 Y957.575 I-3.175 J0.0
G1 X114.3
G3 X111.125 Y954.4 I0.0 J-3.175
G1 Y939.162
G1 X112.0549 Y938.2321
G1 X111.125 Y939.162
G1 X18.415
G3 X15.24 Y935.987 I0.0 J-3.175
G1 Y886.776
G1 X16.1699 Y885.8461
G1 X15.24 Y886.776
G1 X0.0
G3 X-3.175 Y883.601 I0.0 J-3.175
G1 Y741.999
G3 X0.0 Y738.824 I3.175 J0.0
G1 X15.24
G1 X16.1699 Y739.7539
G1 X15.24 Y738.824
G1 Y671.198
G3 X18.415 Y668.023 I3.175 J0.0
G1 X438.785
G3 X441.96 Y671.198 I0.0 J3.175
G1 Y738.824
G1 X441.0301 Y739.7539
G1 X441.96 Y738.824
G1 X457.2
G3 X460.375 Y741.999 I0.0 J3.175
G1 Y883.601
G3 X457.2 Y886.776 I-3.175 J0.0
G1 X441.96
G1 X441.0301 Y885.8461
G1 X441.96 Y886.776
G1 F300.0 Z-15.0
G1 F800.0 Y935.987
G3 X438.785 Y939.162 I-3.175 J0.0
G1 X346.075
G1 X345.1451 Y938.2321
G1 X346.075 Y939.162
G1 Y954.4
G3 X342.9 Y957.575 I-3.175 J0.0
G1 X114.3
G3 X111.125 Y954.4 I0.0 J-3.175
G1 Y939.162
G1 X112.0549 Y938.2321
G1 X111.125 Y939.162
G1 X18.415
G3 X15.24 Y935.987 I0.0 J-3.175
G1 Y886.776
G1 X16.1699 Y885.8461
G1 X15.24 Y886.776
G1 X0.0
G3 X-3.175 Y883.601 I0.0 J-3.175
G1 Y741.999
G3 X0.0 Y738.824 I3.175 J0.0
G1 X15.24
G1 X16.1699 Y739.7539
G1 X15.24 Y738.824
G1 Y671.198
G3 X18.415 Y668.023 I3.175 J0.0
G1 X438.785
G3 X441.96 Y671.198 I0.0 J3.175
G1 Y738.824
G1 X441.0301 Y739.7539
G1 X441.96 Y738.824
G1 X457.2
G3 X460.375 Y741.999 I0.0 J3.175
G1 Y883.601
G3 X457.2 Y886.776 I-3.175 J0.0
G1 X441.96
G1 X441.0301 Y885.8461
G1 X441.96 Y886.776
G1 F300.0 Z-16.0
G1 F800.0 Y935.987
G3 X438.785 Y939.162 I-3.175 J0.0
G1 X346.075
G1 X345.1451 Y938.2321
G1 X346.075 Y939.162
G1 Y954.4
G3 X342.9 Y957.575 I-3.175 J0.0
G1 X114.3
G3 X111.125 Y954.4 I0.0 J-3.175
G1 Y939.162
G1 X112.0549 Y938.2321
G1 X111.125 Y939.162
G1 X18.415
G3 X15.24 Y935.987 I0.0 J-3.175
G1 Y886.776
G1 X16.1699 Y885.8461
G1 X15.24 Y886.776
G1 X0.0
G3 X-3.175 Y883.601 I0.0 J-3.175
G1 Y741.999
G3 X0.0 Y738.824 I3.175 J0.0
G1 X15.24
G1 X16.1699 Y739.7539
G1 X15.24 Y738.824
G1 Y671.198
G3 X18.415 Y668.023 I3.175 J0.0
G1 X438.785
G3 X441.96 Y671.198 I0.0 J3.175
G1 Y738.824
G1 X441.0301 Y739.7539
G1 X441.96 Y738.824
G1 X457.2
G3 X460.375 Y741.999 I0.0 J3.175
G1 Y883.601
G3 X457.2 Y886.776 I-3.175 J0.0
G1 X441.96
G1 X441.0301 Y885.8461
G1 X441.96 Y886.776
G1 F300.0 Z-17.0
G1 F800.0 Y935.987
G3 X438.785 Y939.162 I-3.175 J0.0
G1 X346.075
G1 X345.1451 Y938.2321
G1 X346.075 Y939.162
G1 Y954.4
G3 X342.9 Y957.575 I-3.175 J0.0
G1 X114.3
G3 X111.125 Y954.4 I0.0 J-3.175
G1 Y939.162
G1 X112.0549 Y938.2321
G1 X111.125 Y939.162
G1 X18.415
G3 X15.24 Y935.987 I0.0 J-3.175
G1 Y886.776
G1 X16.1699 Y885.8461
G1 X15.24 Y886.776
G1 X0.0
G3 X-3.175 Y883.601 I0.0 J-3.175
G1 Y741.999
G3 X0.0 Y738.824 I3.175 J0.0
G1 X15.24
G1 X16.1699 Y739.7539
G1 X15.24 Y738.824
G1 Y671.198
G3 X18.415 Y668.023 I3.175 J0.0
G1 X438.785
G3 X441.96 Y671.198 I0.0 J3.175
G1 Y738.824
G1 X441.0301 Y739.7539
G1 X441.96 Y738.824
G1 X457.2
G3 X460.375 Y741.999 I0.0 J3.175
G1 Y883.601
G3 X457.2 Y886.776 I-3.175 J0.0
G1 X441.96
G1 X441.0301 Y885.8461
G1 X441.96 Y886.776
G1 F300.0 Z-18.0
G1 F800.0 Y935.987
G3 X438.785 Y939.162 I-3.175 J0.0
G1 X346.075
G1 X345.1451 Y938.2321
G1 X346.075 Y939.162
G1 Y954.4
G3 X342.9 Y957.575 I-3.175 J0.0
G1 X114.3
G3 X111.125 Y954.4 I0.0 J-3.175
G1 Y939.162
G1 X112.0549 Y938.2321
G1 X111.125 Y939.162
G1 X18.415
G3 X15.24 Y935.987 I0.0 J-3.175
G1 Y886.776
G1 X16.1699 Y885.8461
G1 X15.24 Y886.776
G1 X0.0
G3 X-3.175 Y883.601 I0.0 J-3.175
G1 Y741.999
G3 X0.0 Y738.824 I3.175 J0.0
G1 X15.24
G1 X16.1699 Y739.7539
G1 X15.24 Y738.824
G1 Y671.198
G3 X18.415 Y668.023 I3.175 J0.0
G1 X438.785
G3 X441.96 Y671.198 I0.0 J3.175
G1 Y738.824
G1 X441.0301 Y739.7539
G1 X441.96 Y738.824
G1 X457.2
G3 X460.375 Y741.999 I0.0 J3.175
G1 Y883.601
G3 X457.2 Y886.776 I-3.175 J0.0
G1 X441.96
G1 X441.0301 Y885.8461
G1 X441.96 Y886.776
G1 F300.0 Z-19.0
G1 F800.0 Y935.987
G3 X438.785 Y939.162 I-3.175 J0.0
G1 X346.075
G1 X345.1451 Y938.2321
G1 X346.075 Y939.162
G1 Y954.4
G3 X342.9 Y957.575 I-3.175 J0.0
G1 X114.3
G3 X111.125 Y954.4 I0.0 J-3.175
G1 Y939.162
G1 X112.0549 Y938.2321
G1 X111.125 Y939.162
G1 X18.415
G3 X15.24 Y935.987 I0.0 J-3.175
G1 Y886.776
G1 X16.1699 Y885.8461
G1 X15.24 Y886.776
G1 X0.0
G3 X-3.175 Y883.601 I0.0 J-3.175
G1 Y741.999
G3 X0.0 Y738.824 I3.175 J0.0
G1 X15.24
G1 X16.1699 Y739.7539
G1 X15.24 Y738.824
G1 Y671.198
G3 X18.415 Y668.023 I3.175 J0.0
G1 X438.785
G3 X441.96 Y671.198 I0.0 J3.175
G1 Y738.824
G1 X441.0301 Y739.7539
G1 X441.96 Y738.824
G1 X457.2
G3 X460.375 Y741.999 I0.0 J3.175
G1 Y883.601
G3 X457.2 Y886.776 I-3.175 J0.0
G1 X441.96
G1 X441.0301 Y885.8461
G1 X441.96 Y886.776
G1 F300.0 Z-20.0
G1 F800.0 Y935.987
G3 X438.785 Y939.162 I-3.175 J0.0
G1 X346.075
G1 X345.1451 Y938.2321
G1 X346.075 Y939.162
G1 Y954.4
G3 X342.9 Y957.575 I-3.175 J0.0
G1 X114.3
G3 X111.125 Y954.4 I0.0 J-3.175
G1 Y939.162
G1 X112.0549 Y938.2321
G1 X111.125 Y939.162
G1 X18.415
G3 X15.24 Y935.987 I0.0 J-3.175
G1 Y886.776
G1 X16.1699 Y885.8461
G1 X15.24 Y886.776
G1 X0.0
G3 X-3.175 Y883.601 I0.0 J-3.175
G1 Y741.999
G3 X0.0 Y738.824 I3.175 J0.0
G1 X15.24
G1 X16.1699 Y739.7539
G1 X15.24 Y738.824
G1 Y671.198
G3 X18.415 Y668.023 I3.175 J0.0
G1 X438.785
G3 X441.96 Y671.198 I0.0 J3.175
G1 Y738.824
G1 X441.0301 Y739.7539
G1 X441.96 Y738.824
G1 X457.2
G3 X460.375 Y741.999 I0.0 J3.175
G1 Y883.601
G3 X457.2 Y886.776 I-3.175 J0.0
G1 X441.96
G1 X441.0301 Y885.8461
G1 X441.96 Y886.776
G0 Z15.0
G0 X438.882 Y987.4265
G0 Z1.0
G1 F300.0 Z-1.0
G3 F800.0 X441.96 Y990.6 I-0.097 J3.1735
G1 Y1055.525
G1 X441.0301 Y1056.4549
G1 X441.96 Y1055.525
G1 X457.2
G3 X460.375 Y1058.7 I0.0 J3.175
G1 Y1194.9
G3 X457.2 Y1198.075 I-3.175 J0.0
G1 X441.96
G1 X441.0301 Y1197.1451
G1 X441.96 Y1198.075
G1 Y1244.59
G3 X438.785 Y1247.765 I-3.175 J0.0
G1 X346.075
G1 X345.1451 Y1246.8351
G1 X346.075 Y1247.765
G1 Y1263.01
G3 X342.9 Y1266.185 I-3.175 J0.0
G1 X114.3
G3 X111.125 Y1263.01 I0.0 J-3.175
G1 Y1247.765
G1 X112.0549 Y1246.8351
G1 X111.125 Y1247.765
G1 X18.415
G3 X15.24 Y1244.59 I0.0 J-3.175
G1 Y1198.075
G1 X16.1699 Y1197.1451
G1 X15.24 Y1198.075
G1 X0.0
G3 X-3.175 Y1194.9 I0.0 J-3.175
G1 Y1058.7
G3 X0.0 Y1055.525 I3.175 J0.0
G1 X15.24
G1 X16.1699 Y1056.4549
G1 X15.24 Y1055.525
G1 Y990.6
G3 X18.415 Y987.425 I3.175 J0.0
G1 X438.785
G3 X438.882 Y987.4265 I0.0 J3.175
G1 F300.0 Z-2.0
G3 F800.0 X441.96 Y990.6 I-0.097 J3.1735
G1 Y1055.525
G1 X441.0301 Y1056.4549
G1 X441.96 Y1055.525
G1 X457.2
G3 X460.375 Y1058.7 I0.0 J3.175
G1 Y1194.9
G3 X457.2 Y1198.075 I-3.175 J0.0
G1 X441.96
G1 X441.0301 Y1197.1451
G1 X441.96 Y1198.075
G1 Y1244.59
G3 X438.785 Y1247.765 I-3.175 J0.0
G1 X346.075
G1 X345.1451 Y1246.8351
G1 X346.075 Y1247.765
G1 Y1263.01
G3 X342.9 Y1266.185 I-3.175 J0.0
G1 X114.3
G3 X111.125 Y1263.01 I0.0 J-3.175
G1 Y1247.765
G1 X112.0549 Y1246.8351
G1 X111.125 Y1247.765
G1 X18.415
G3 X15.24 Y1244.59 I0.0 J-3.175
G1 Y1198.075
G1 X16.1699 Y1197.1451
G1 X15.24 Y1198.075
G1 X0.0
G3 X-3.175 Y1194.9 I0.0 J-3.175
G1 Y1058.7
G3 X0.0 Y1055.525 I3.175 J0.0
G1 X15.24
G1 X16.1699 Y1056.4549
G1 X15.24 Y1055.525
G1 Y990.6
G3 X18.415 Y987.425 I3.175 J0.0
G1 X438.785
G3 X438.882 Y987.4265 I0.0 J3.175
G1 F300.0 Z-3.0
G3 F800.0 X441.96 Y990.6 I-0.097 J3.1735
G1 Y1055.525
G1 X441.0301 Y1056.4549
G1 X441.96 Y1055.525
G1 X457.2
G3 X460.375 Y1058.7 I0.0 J3.175
G1 Y1194.9
G3 X457.2 Y1198.075 I-3.175 J0.0
G1 X441.96
G1 X441.0301 Y1197.1451
G1 X441.96 Y1198.075
G1 Y1244.59
G3 X438.785 Y1247.765 I-3.175 J0.0
G1 X346.075
G1 X345.1451 Y1246.8351
G1 X346.075 Y1247.765
G1 Y1263.01
G3 X342.9 Y1266.185 I-3.175 J0.0
G1 X114.3
G3 X111.125 Y1263.01 I0.0 J-3.175
G1 Y1247.765
G1 X112.0549 Y1246.8351
G1 X111.125 Y1247.765
G1 X18.415
G3 X15.24 Y1244.59 I0.0 J-3.175
G1 Y1198.075
G1 X16.1699 Y1197.1451
G1 X15.24 Y1198.075
G1 X0.0
G3 X-3.175 Y1194.9 I0.0 J-3.175
G1 Y1058.7
G3 X0.0 Y1055.525 I3.175 J0.0
G1 X15.24
G1 X16.1699 Y1056.4549
G1 X15.24 Y1055.525
G1 Y990.6
G3 X18.415 Y987.425 I3.175 J0.0
G1 X438.785
G3 X438.882 Y987.4265 I0.0 J3.175
G1 F300.0 Z-4.0
G3 F800.0 X441.96 Y990.6 I-0.097 J3.1735
G1 Y1055.525
G1 X441.0301 Y1056.4549
G1 X441.96 Y1055.525
G1 X457.2
G3 X460.375 Y1058.7 I0.0 J3.175
G1 Y1194.9
G3 X457.2 Y1198.075 I-3.175 J0.0
G1 X441.96
G1 X441.0301 Y1197.1451
G1 X441.96 Y1198.075
G1 Y1244.59
G3 X438.785 Y1247.765 I-3.175 J0.0
G1 X346.075
G1 X345.1451 Y1246.8351
G1 X346.075 Y1247.765
G1 Y1263.01
G3 X342.9 Y1266.185 I-3.175 J0.0
G1 X114.3
G3 X111.125 Y1263.01 I0.0 J-3.175
G1 Y1247.765
G1 X112.0549 Y1246.8351
G1 X111.125 Y1247.765
G1 X18.415
G3 X15.24 Y1244.59 I0.0 J-3.175
G1 Y1198.075
G1 X16.1699 Y1197.1451
G1 X15.24 Y1198.075
G1 X0.0
G3 X-3.175 Y1194.9 I0.0 J-3.175
G1 Y1058.7
G3 X0.0 Y1055.525 I3.175 J0.0
G1 X15.24
G1 X16.1699 Y1056.4549
G1 X15.24 Y1055.525
G1 Y990.6
G3 X18.415 Y987.425 I3.175 J0.0
G1 X438.785
G3 X438.882 Y987.4265 I0.0 J3.175
G1 F300.0 Z-5.0
G3 F800.0 X441.96 Y990.6 I-0.097 J3.1735
G1 Y1055.525
G1 X441.0301 Y1056.4549
G1 X441.96 Y1055.525
G1 X457.2
G3 X460.375 Y1058.7 I0.0 J3.175
G1 Y1194.9
G3 X457.2 Y1198.075 I-3.175 J0.0
G1 X441.96
G1 X441.0301 Y1197.1451
G1 X441.96 Y1198.075
G1 Y1244.59
G3 X438.785 Y1247.765 I-3.175 J0.0
G1 X346.075
G1 X345.1451 Y1246.8351
G1 X346.075 Y1247.765
G1 Y1263.01
G3 X342.9 Y1266.185 I-3.175 J0.0
G1 X114.3
G3 X111.125 Y1263.01 I0.0 J-3.175
G1 Y1247.765
G1 X112.0549 Y1246.8351
G1 X111.125 Y1247.765
G1 X18.415
G3 X15.24 Y1244.59 I0.0 J-3.175
G1 Y1198.075
G1 X16.1699 Y1197.1451
G1 X15.24 Y1198.075
G1 X0.0
G3 X-3.175 Y1194.9 I0.0 J-3.175
G1 Y1058.7
G3 X0.0 Y1055.525 I3.175 J0.0
G1 X15.24
G1 X16.1699 Y1056.4549
G1 X15.24 Y1055.525
G1 Y990.6
G3 X18.415 Y987.425 I3.175 J0.0
G1 X438.785
G3 X438.882 Y987.4265 I0.0 J3.175
G1 F300.0 Z-6.0
G3 F800.0 X441.96 Y990.6 I-0.097 J3.1735
G1 Y1055.525
G1 X441.0301 Y1056.4549
G1 X441.96 Y1055.525
G1 X457.2
G3 X460.375 Y1058.7 I0.0 J3.175
G1 Y1194.9
G3 X457.2 Y1198.075 I-3.175 J0.0
G1 X441.96
G1 X441.0301 Y1197.1451
G1 X441.96 Y1198.075
G1 Y1244.59
G3 X438.785 Y1247.765 I-3.175 J0.0
G1 X346.075
G1 X345.1451 Y1246.8351
G1 X346.075 Y1247.765
G1 Y1263.01
G3 X342.9 Y1266.185 I-3.175 J0.0
G1 X114.3
G3 X111.125 Y1263.01 I0.0 J-3.175
G1 Y1247.765
G1 X112.0549 Y1246.8351
G1 X111.125 Y1247.765
G1 X18.415
G3 X15.24 Y1244.59 I0.0 J-3.175
G1 Y1198.075
G1 X16.1699 Y1197.1451
G1 X15.24 Y1198.075
G1 X0.0
G3 X-3.175 Y1194.9 I0.0 J-3.175
G1 Y1058.7
G3 X0.0 Y1055.525 I3.175 J0.0
G1 X15.24
G1 X16.1699 Y1056.4549
G1 X15.24 Y1055.525
G1 Y990.6
G3 X18.415 Y987.425 I3.175 J0.0
G1 X438.785
G3 X438.882 Y987.4265 I0.0 J3.175
G1 F300.0 Z-7.0
G3 F800.0 X441.96 Y990.6 I-0.097 J3.1735
G1 Y1055.525
G1 X441.0301 Y1056.4549
G1 X441.96 Y1055.525
G1 X457.2
G3 X460.375 Y1058.7 I0.0 J3.175
G1 Y1194.9
G3 X457.2 Y1198.075 I-3.175 J0.0
G1 X441.96
G1 X441.0301 Y1197.1451
G1 X441.96 Y1198.075
G1 Y1244.59
G3 X438.785 Y1247.765 I-3.175 J0.0
G1 X346.075
G1 X345.1451 Y1246.8351
G1 X346.075 Y1247.765
G1 Y1263.01
G3 X342.9 Y1266.185 I-3.175 J0.0
G1 X114.3
G3 X111.125 Y1263.01 I0.0 J-3.175
G1 Y1247.765
G1 X112.0549 Y1246.8351
G1 X111.125 Y1247.765
G1 X18.415
G3 X15.24 Y1244.59 I0.0 J-3.175
G1 Y1198.075
G1 X16.1699 Y1197.1451
G1 X15.24 Y1198.075
G1 X0.0
G3 X-3.175 Y1194.9 I0.0 J-3.175
G1 Y1058.7
G3 X0.0 Y1055.525 I3.175 J0.0
G1 X15.24
G1 X16.1699 Y1056.4549
G1 X15.24 Y1055.525
G1 Y990.6
G3 X18.415 Y987.425 I3.175 J0.0
G1 X438.785
G3 X438.882 Y987.4265 I0.0 J3.175
G1 F300.0 Z-8.0
G3 F800.0 X441.96 Y990.6 I-0.097 J3.1735
G1 Y1055.525
G1 X441.0301 Y1056.4549
G1 X441.96 Y1055.525
G1 X457.2
G3 X460.375 Y1058.7 I0.0 J3.175
G1 Y1194.9
G3 X457.2 Y1198.075 I-3.175 J0.0
G1 X441.96
G1 X441.0301 Y1197.1451
G1 X441.96 Y1198.075
G1 Y1244.59
G3 X438.785 Y1247.765 I-3.175 J0.0
G1 X346.075
G1 X345.1451 Y1246.8351
G1 X346.075 Y1247.765
G1 Y1263.01
G3 X342.9 Y1266.185 I-3.175 J0.0
G1 X114.3
G3 X111.125 Y1263.01 I0.0 J-3.175
G1 Y1247.765
G1 X112.0549 Y1246.8351
G1 X111.125 Y1247.765
G1 X18.415
G3 X15.24 Y1244.59 I0.0 J-3.175
G1 Y1198.075
G1 X16.1699 Y1197.1451
G1 X15.24 Y1198.075
G1 X0.0
G3 X-3.175 Y1194.9 I0.0 J-3.175
G1 Y1058.7
G3 X0.0 Y1055.525 I3.175 J0.0
G1 X15.24
G1 X16.1699 Y1056.4549
G1 X15.24 Y1055.525
G1 Y990.6
G3 X18.415 Y987.425 I3.175 J0.0
G1 X438.785
G3 X438.882 Y987.4265 I0.0 J3.175
G1 F300.0 Z-9.0
G3 F800.0 X441.96 Y990.6 I-0.097 J3.1735
G1 Y1055.525
G1 X441.0301 Y1056.4549
G1 X441.96 Y1055.525
G1 X457.2
G3 X460.375 Y1058.7 I0.0 J3.175
G1 Y1194.9
G3 X457.2 Y1198.075 I-3.175 J0.0
G1 X441.96
G1 X441.0301 Y1197.1451
G1 X441.96 Y1198.075
G1 Y1244.59
G3 X438.785 Y1247.765 I-3.175 J0.0
G1 X346.075
G1 X345.1451 Y1246.8351
G1 X346.075 Y1247.765
G1 Y1263.01
G3 X342.9 Y1266.185 I-3.175 J0.0
G1 X114.3
G3 X111.125 Y1263.01 I0.0 J-3.175
G1 Y1247.765
G1 X112.0549 Y1246.8351
G1 X111.125 Y1247.765
G1 X18.415
G3 X15.24 Y1244.59 I0.0 J-3.175
G1 Y1198.075
G1 X16.1699 Y1197.1451
G1 X15.24 Y1198.075
G1 X0.0
G3 X-3.175 Y1194.9 I0.0 J-3.175
G1 Y1058.7
G3 X0.0 Y1055.525 I3.175 J0.0
G1 X15.24
G1 X16.1699 Y1056.4549
G1 X15.24 Y1055.525
G1 Y990.6
G3 X18.415 Y987.425 I3.175 J0.0
G1 X438.785
G3 X438.882 Y987.4265 I0.0 J3.175
G1 F300.0 Z-10.0
G3 F800.0 X441.96 Y990.6 I-0.097 J3.1735
G1 Y1055.525
G1 X441.0301 Y1056.4549
G1 X441.96 Y1055.525
G1 X457.2
G3 X460.375 Y1058.7 I0.0 J3.175
G1 Y1194.9
G3 X457.2 Y1198.075 I-3.175 J0.0
G1 X441.96
G1 X441.0301 Y1197.1451
G1 X441.96 Y1198.075
G1 Y1244.59
G3 X438.785 Y1247.765 I-3.175 J0.0
G1 X346.075
G1 X345.1451 Y1246.8351
G1 X346.075 Y1247.765
G1 Y1263.01
G3 X342.9 Y1266.185 I-3.175 J0.0
G1 X114.3
G3 X111.125 Y1263.01 I0.0 J-3.175
G1 Y1247.765
G1 X112.0549 Y1246.8351
G1 X111.125 Y1247.765
G1 X18.415
G3 X15.24 Y1244.59 I0.0 J-3.175
G1 Y1198.075
G1 X16.1699 Y1197.1451
G1 X15.24 Y1198.075
G1 X0.0
G3 X-3.175 Y1194.9 I0.0 J-3.175
G1 Y1058.7
G3 X0.0 Y1055.525 I3.175 J0.0
G1 X15.24
G1 X16.1699 Y1056.4549
G1 X15.24 Y1055.525
G1 Y990.6
G3 X18.415 Y987.425 I3.175 J0.0
G1 X438.785
G3 X438.882 Y987.4265 I0.0 J3.175
G1 F300.0 Z-11.0
G3 F800.0 X441.96 Y990.6 I-0.097 J3.1735
G1 Y1055.525
G1 X441.0301 Y1056.4549
G1 X441.96 Y1055.525
G1 X457.2
G3 X460.375 Y1058.7 I0.0 J3.175
G1 Y1194.9
G3 X457.2 Y1198.075 I-3.175 J0.0
G1 X441.96
G1 X441.0301 Y1197.1451
G1 X441.96 Y1198.075
G1 Y1244.59
G3 X438.785 Y1247.765 I-3.175 J0.0
G1 X346.075
G1 X345.1451 Y1246.8351
G1 X346.075 Y1247.765
G1 Y1263.01
G3 X342.9 Y1266.185 I-3.175 J0.0
G1 X114.3
G3 X111.125 Y1263.01 I0.0 J-3.175
G1 Y1247.765
G1 X112.0549 Y1246.8351
G1 X111.125 Y1247.765
G1 X18.415
G3 X15.24 Y1244.59 I0.0 J-3.175
G1 Y1198.075
G1 X16.1699 Y1197.1451
G1 X15.24 Y1198.075
G1 X0.0
G3 X-3.175 Y1194.9 I0.0 J-3.175
G1 Y1058.7
G3 X0.0 Y1055.525 I3.175 J0.0
G1 X15.24
G1 X16.1699 Y1056.4549
G1 X15.24 Y1055.525
G1 Y990.6
G3 X18.415 Y987.425 I3.175 J0.0
G1 X438.785
G3 X438.882 Y987.4265 I0.0 J3.175
G1 F300.0 Z-12.0
G3 F800.0 X441.96 Y990.6 I-0.097 J3.1735
G1 Y1055.525
G1 X441.0301 Y1056.4549
G1 X441.96 Y1055.525
G1 X457.2
G3 X460.375 Y1058.7 I0.0 J3.175
G1 Y1194.9
G3 X457.2 Y1198.075 I-3.175 J0.0
G1 X441.96
G1 X441.0301 Y1197.1451
G1 X441.96 Y1198.075
G1 Y1244.59
G3 X438.785 Y1247.765 I-3.175 J0.0
G1 X346.075
G1 X345.1451 Y1246.8351
G1 X346.075 Y1247.765
G1 Y1263.01
G3 X342.9 Y1266.185 I-3.175 J0.0
G1 X114.3
G3 X111.125 Y1263.01 I0.0 J-3.175
G1 Y1247.765
G1 X112.0549 Y1246.8351
G1 X111.125 Y1247.765
G1 X18.415
G3 X15.24 Y1244.59 I0.0 J-3.175
G1 Y1198.075
G1 X16.1699 Y1197.1451
G1 X15.24 Y1198.075
G1 X0.0
G3 X-3.175 Y1194.9 I0.0 J-3.175
G1 Y1058.7
G3 X0.0 Y1055.525 I3.175 J0.0
G1 X15.24
G1 X16.1699 Y1056.4549
G1 X15.24 Y1055.525
G1 Y990.6
G3 X18.415 Y987.425 I3.175 J0.0
G1 X438.785
G3 X438.882 Y987.4265 I0.0 J3.175
G1 F300.0 Z-13.0
G3 F800.0 X441.96 Y990.6 I-0.097 J3.1735
G1 Y1055.525
G1 X441.0301 Y1056.4549
G1 X441.96 Y1055.525
G1 X457.2
G3 X460.375 Y1058.7 I0.0 J3.175
G1 Y1194.9
G3 X457.2 Y1198.075 I-3.175 J0.0
G1 X441.96
G1 X441.0301 Y1197.1451
G1 X441.96 Y1198.075
G1 Y1244.59
G3 X438.785 Y1247.765 I-3.175 J0.0
G1 X346.075
G1 X345.1451 Y1246.8351
G1 X346.075 Y1247.765
G1 Y1263.01
G3 X342.9 Y1266.185 I-3.175 J0.0
G1 X114.3
G3 X111.125 Y1263.01 I0.0 J-3.175
G1 Y1247.765
G1 X112.0549 Y1246.8351
G1 X111.125 Y1247.765
G1 X18.415
G3 X15.24 Y1244.59 I0.0 J-3.175
G1 Y1198.075
G1 X16.1699 Y1197.1451
G1 X15.24 Y1198.075
G1 X0.0
G3 X-3.175 Y1194.9 I0.0 J-3.175
G1 Y1058.7
G3 X0.0 Y1055.525 I3.175 J0.0
G1 X15.24
G1 X16.1699 Y1056.4549
G1 X15.24 Y1055.525
G1 Y990.6
G3 X18.415 Y987.425 I3.175 J0.0
G1 X438.785
G3 X438.882 Y987.4265 I0.0 J3.175
G1 F300.0 Z-14.0
G3 F800.0 X441.96 Y990.6 I-0.097 J3.1735
G1 Y1055.525
G1 X441.0301 Y1056.4549
G1 X441.96 Y1055.525
G1 X457.2
G3 X460.375 Y1058.7 I0.0 J3.175
G1 Y1194.9
G3 X457.2 Y1198.075 I-3.175 J0.0
G1 X441.96
G1 X441.0301 Y1197.1451
G1 X441.96 Y1198.075
G1 Y1244.59
G3 X438.785 Y1247.765 I-3.175 J0.0
G1 X346.075
G1 X345.1451 Y1246.8351
G1 X346.075 Y1247.765
G1 Y1263.01
G3 X342.9 Y1266.185 I-3.175 J0.0
G1 X114.3
G3 X111.125 Y1263.01 I0.0 J-3.175
G1 Y1247.765
G1 X112.0549 Y1246.8351
G1 X111.125 Y1247.765
G1 X18.415
G3 X15.24 Y1244.59 I0.0 J-3.175
G1 Y1198.075
G1 X16.1699 Y1197.1451
G1 X15.24 Y1198.075
G1 X0.0
G3 X-3.175 Y1194.9 I0.0 J-3.175
G1 Y1058.7
G3 X0.0 Y1055.525 I3.175 J0.0
G1 X15.24
G1 X16.1699 Y1056.4549
G1 X15.24 Y1055.525
G1 Y990.6
G3 X18.415 Y987.425 I3.175 J0.0
G1 X438.785
G3 X438.882 Y987.4265 I0.0 J3.175
G1 F300.0 Z-15.0
G3 F800.0 X441.96 Y990.6 I-0.097 J3.1735
G1 Y1055.525
G1 X441.0301 Y1056.4549
G1 X441.96 Y1055.525
G1 X457.2
G3 X460.375 Y1058.7 I0.0 J3.175
G1 Y1194.9
G3 X457.2 Y1198.075 I-3.175 J0.0
G1 X441.96
G1 X441.0301 Y1197.1451
G1 X441.96 Y1198.075
G1 Y1244.59
G3 X438.785 Y1247.765 I-3.175 J0.0
G1 X346.075
G1 X345.1451 Y1246.8351
G1 X346.075 Y1247.765
G1 Y1263.01
G3 X342.9 Y1266.185 I-3.175 J0.0
G1 X114.3
G3 X111.125 Y1263.01 I0.0 J-3.175
G1 Y1247.765
G1 X112.0549 Y1246.8351
G1 X111.125 Y1247.765
G1 X18.415
G3 X15.24 Y1244.59 I0.0 J-3.175
G1 Y1198.075
G1 X16.1699 Y1197.1451
G1 X15.24 Y1198.075
G1 X0.0
G3 X-3.175 Y1194.9 I0.0 J-3.175
G1 Y1058.7
G3 X0.0 Y1055.525 I3.175 J0.0
G1 X15.24
G1 X16.1699 Y1056.4549
G1 X15.24 Y1055.525
G1 Y990.6
G3 X18.415 Y987.425 I3.175 J0.0
G1 X438.785
G3 X438.882 Y987.4265 I0.0 J3.175
G1 F300.0 Z-16.0
G3 F800.0 X441.96 Y990.6 I-0.097 J3.1735
G1 Y1055.525
G1 X441.0301 Y1056.4549
G1 X441.96 Y1055.525
G1 X457.2
G3 X460.375 Y1058.7 I0.0 J3.175
G1 Y1194.9
G3 X457.2 Y1198.075 I-3.175 J0.0
G1 X441.96
G1 X441.0301 Y1197.1451
G1 X441.96 Y1198.075
G1 Y1244.59
G3 X438.785 Y1247.765 I-3.175 J0.0
G1 X346.075
G1 X345.1451 Y1246.8351
G1 X346.075 Y1247.765
G1 Y1263.01
G3 X342.9 Y1266.185 I-3.175 J0.0
G1 X114.3
G3 X111.125 Y1263.01 I0.0 J-3.175
G1 Y1247.765
G1 X112.0549 Y1246.8351
G1 X111.125 Y1247.765
G1 X18.415
G3 X15.24 Y1244.59 I0.0 J-3.175
G1 Y1198.075
G1 X16.1699 Y1197.1451
G1 X15.24 Y1198.075
G1 X0.0
G3 X-3.175 Y1194.9 I0.0 J-3.175
G1 Y1058.7
G3 X0.0 Y1055.525 I3.175 J0.0
G1 X15.24
G1 X16.1699 Y1056.4549
G1 X15.24 Y1055.525
G1 Y990.6
G3 X18.415 Y987.425 I3.175 J0.0
G1 X438.785
G3 X438.882 Y987.4265 I0.0 J3.175
G1 F300.0 Z-17.0
G3 F800.0 X441.96 Y990.6 I-0.097 J3.1735
G1 Y1055.525
G1 X441.0301 Y1056.4549
G1 X441.96 Y1055.525
G1 X457.2
G3 X460.375 Y1058.7 I0.0 J3.175
G1 Y1194.9
G3 X457.2 Y1198.075 I-3.175 J0.0
G1 X441.96
G1 X441.0301 Y1197.1451
G1 X441.96 Y1198.075
G1 Y1244.59
G3 X438.785 Y1247.765 I-3.175 J0.0
G1 X346.075
G1 X345.1451 Y1246.8351
G1 X346.075 Y1247.765
G1 Y1263.01
G3 X342.9 Y1266.185 I-3.175 J0.0
G1 X114.3
G3 X111.125 Y1263.01 I0.0 J-3.175
G1 Y1247.765
G1 X112.0549 Y1246.8351
G1 X111.125 Y1247.765
G1 X18.415
G3 X15.24 Y1244.59 I0.0 J-3.175
G1 Y1198.075
G1 X16.1699 Y1197.1451
G1 X15.24 Y1198.075
G1 X0.0
G3 X-3.175 Y1194.9 I0.0 J-3.175
G1 Y1058.7
G3 X0.0 Y1055.525 I3.175 J0.0
G1 X15.24
G1 X16.1699 Y1056.4549
G1 X15.24 Y1055.525
G1 Y990.6
G3 X18.415 Y987.425 I3.175 J0.0
G1 X438.785
G3 X438.882 Y987.4265 I0.0 J3.175
G1 F300.0 Z-18.0
G3 F800.0 X441.96 Y990.6 I-0.097 J3.1735
G1 Y1055.525
G1 X441.0301 Y1056.4549
G1 X441.96 Y1055.525
G1 X457.2
G3 X460.375 Y1058.7 I0.0 J3.175
G1 Y1194.9
G3 X457.2 Y1198.075 I-3.175 J0.0
G1 X441.96
G1 X441.0301 Y1197.1451
G1 X441.96 Y1198.075
G1 Y1244.59
G3 X438.785 Y1247.765 I-3.175 J0.0
G1 X346.075
G1 X345.1451 Y1246.8351
G1 X346.075 Y1247.765
G1 Y1263.01
G3 X342.9 Y1266.185 I-3.175 J0.0
G1 X114.3
G3 X111.125 Y1263.01 I0.0 J-3.175
G1 Y1247.765
G1 X112.0549 Y1246.8351
G1 X111.125 Y1247.765
G1 X18.415
G3 X15.24 Y1244.59 I0.0 J-3.175
G1 Y1198.075
G1 X16.1699 Y1197.1451
G1 X15.24 Y1198.075
G1 X0.0
G3 X-3.175 Y1194.9 I0.0 J-3.175
G1 Y1058.7
G3 X0.0 Y1055.525 I3.175 J0.0
G1 X15.24
G1 X16.1699 Y1056.4549
G1 X15.24 Y1055.525
G1 Y990.6
G3 X18.415 Y987.425 I3.175 J0.0
G1 X438.785
G3 X438.882 Y987.4265 I0.0 J3.175
G1 F300.0 Z-19.0
G3 F800.0 X441.96 Y990.6 I-0.097 J3.1735
G1 Y1055.525
G1 X441.0301 Y1056.4549
G1 X441.96 Y1055.525
G1 X457.2
G3 X460.375 Y1058.7 I0.0 J3.175
G1 Y1194.9
G3 X457.2 Y1198.075 I-3.175 J0.0
G1 X441.96
G1 X441.0301 Y1197.1451
G1 X441.96 Y1198.075
G1 Y1244.59
G3 X438.785 Y1247.765 I-3.175 J0.0
G1 X346.075
G1 X345.1451 Y1246.8351
G1 X346.075 Y1247.765
G1 Y1263.01
G3 X342.9 Y1266.185 I-3.175 J0.0
G1 X114.3
G3 X111.125 Y1263.01 I0.0 J-3.175
G1 Y1247.765
G1 X112.0549 Y1246.8351
G1 X111.125 Y1247.765
G1 X18.415
G3 X15.24 Y1244.59 I0.0 J-3.175
G1 Y1198.075
G1 X16.1699 Y1197.1451
G1 X15.24 Y1198.075
G1 X0.0
G3 X-3.175 Y1194.9 I0.0 J-3.175
G1 Y1058.7
G3 X0.0 Y1055.525 I3.175 J0.0
G1 X15.24
G1 X16.1699 Y1056.4549
G1 X15.24 Y1055.525
G1 Y990.6
G3 X18.415 Y987.425 I3.175 J0.0
G1 X438.785
G3 X438.882 Y987.4265 I0.0 J3.175
G1 F300.0 Z-20.0
G3 F800.0 X441.96 Y990.6 I-0.097 J3.1735
G1 Y1055.525
G1 X441.0301 Y1056.4549
G1 X441.96 Y1055.525
G1 X457.2
G3 X460.375 Y1058.7 I0.0 J3.175
G1 Y1194.9
G3 X457.2 Y1198.075 I-3.175 J0.0
G1 X441.96
G1 X441.0301 Y1197.1451
G1 X441.96 Y1198.075
G1 Y1244.59
G3 X438.785 Y1247.765 I-3.175 J0.0
G1 X346.075
G1 X345.1451 Y1246.8351
G1 X346.075 Y1247.765
G1 Y1263.01
G3 X342.9 Y1266.185 I-3.175 J0.0
G1 X114.3
G3 X111.125 Y1263.01 I0.0 J-3.175
G1 Y1247.765
G1 X112.0549 Y1246.8351
G1 X111.125 Y1247.765
G1 X18.415
G3 X15.24 Y1244.59 I0.0 J-3.175
G1 Y1198.075
G1 X16.1699 Y1197.1451
G1 X15.24 Y1198.075
G1 X0.0
G3 X-3.175 Y1194.9 I0.0 J-3.175
G1 Y1058.7
G3 X0.0 Y1055.525 I3.175 J0.0
G1 X15.24
G1 X16.1699 Y1056.4549
G1 X15.24 Y1055.525
G1 Y990.6
G3 X18.415 Y987.425 I3.175 J0.0
G1 X438.785
G3 X438.882 Y987.4265 I0.0 J3.175
G0 Z15.0
G0 X438.786 Y1296.025
G0 Z1.0
G1 F300.0 Z-1.0
G3 F800.0 X441.96 Y1299.2 I-0.001 J3.175
G1 Y1361.435
G1 X441.0301 Y1362.3649
G1 X441.96 Y1361.435
G1 X457.2
G3 X460.375 Y1364.61 I0.0 J3.175
G1 Y1495.41
G3 X457.2 Y1498.585 I-3.175 J0.0
G1 X441.96
G1 X441.0301 Y1497.6551
G1 X441.96 Y1498.585
G1 Y1542.4
G3 X438.785 Y1545.575 I-3.175 J0.0
G1 X346.075
G1 X345.1451 Y1544.6451
G1 X346.075 Y1545.575
G1 Y1560.81
G3 X342.9 Y1563.985 I-3.175 J0.0
G1 X114.3
G3 X111.125 Y1560.81 I0.0 J-3.175
G1 Y1545.575
G1 X112.0549 Y1544.6451
G1 X111.125 Y1545.575
G1 X18.415
G3 X15.24 Y1542.4 I0.0 J-3.175
G1 Y1498.585
G1 X16.1699 Y1497.6551
G1 X15.24 Y1498.585
G1 X0.0
G3 X-3.175 Y1495.41 I0.0 J-3.175
G1 Y1364.61
G3 X0.0 Y1361.435 I3.175 J0.0
G1 X15.24
G1 X16.1699 Y1362.3649
G1 X15.24 Y1361.435
G1 Y1299.2
G3 X18.415 Y1296.025 I3.175 J0.0
G1 X438.785
G3 X438.786 I0.0 J3.175
G1 F300.0 Z-2.0
G3 F800.0 X441.96 Y1299.2 I-0.001 J3.175
G1 Y1361.435
G1 X441.0301 Y1362.3649
G1 X441.96 Y1361.435
G1 X457.2
G3 X460.375 Y1364.61 I0.0 J3.175
G1 Y1495.41
G3 X457.2 Y1498.585 I-3.175 J0.0
G1 X441.96
G1 X441.0301 Y1497.6551
G1 X441.96 Y1498.585
G1 Y1542.4
G3 X438.785 Y1545.575 I-3.175 J0.0
G1 X346.075
G1 X345.1451 Y1544.6451
G1 X346.075 Y1545.575
G1 Y1560.81
G3 X342.9 Y1563.985 I-3.175 J0.0
G1 X114.3
G3 X111.125 Y1560.81 I0.0 J-3.175
G1 Y1545.575
G1 X112.0549 Y1544.6451
G1 X111.125 Y1545.575
G1 X18.415
G3 X15.24 Y1542.4 I0.0 J-3.175
G1 Y1498.585
G1 X16.1699 Y1497.6551
G1 X15.24 Y1498.585
G1 X0.0
G3 X-3.175 Y1495.41 I0.0 J-3.175
G1 Y1364.61
G3 X0.0 Y1361.435 I3.175 J0.0
G1 X15.24
G1 X16.1699 Y1362.3649
G1 X15.24 Y1361.435
G1 Y1299.2
G3 X18.415 Y1296.025 I3.175 J0.0
G1 X438.785
G3 X438.786 I0.0 J3.175
G1 F300.0 Z-3.0
G3 F800.0 X441.96 Y1299.2 I-0.001 J3.175
G1 Y1361.435
G1 X441.0301 Y1362.3649
G1 X441.96 Y1361.435
G1 X457.2
G3 X460.375 Y1364.61 I0.0 J3.175
G1 Y1495.41
G3 X457.2 Y1498.585 I-3.175 J0.0
G1 X441.96
G1 X441.0301 Y1497.6551
G1 X441.96 Y1498.585
G1 Y1542.4
G3 X438.785 Y1545.575 I-3.175 J0.0
G1 X346.075
G1 X345.1451 Y1544.6451
G1 X346.075 Y1545.575
G1 Y1560.81
G3 X342.9 Y1563.985 I-3.175 J0.0
G1 X114.3
G3 X111.125 Y1560.81 I0.0 J-3.175
G1 Y1545.575
G1 X112.0549 Y1544.6451
G1 X111.125 Y1545.575
G1 X18.415
G3 X15.24 Y1542.4 I0.0 J-3.175
G1 Y1498.585
G1 X16.1699 Y1497.6551
G1 X15.24 Y1498.585
G1 X0.0
G3 X-3.175 Y1495.41 I0.0 J-3.175
G1 Y1364.61
G3 X0.0 Y1361.435 I3.175 J0.0
G1 X15.24
G1 X16.1699 Y1362.3649
G1 X15.24 Y1361.435
G1 Y1299.2
G3 X18.415 Y1296.025 I3.175 J0.0
G1 X438.785
G3 X438.786 I0.0 J3.175
G1 F300.0 Z-4.0
G3 F800.0 X441.96 Y1299.2 I-0.001 J3.175
G1 Y1361.435
G1 X441.0301 Y1362.3649
G1 X441.96 Y1361.435
G1 X457.2
G3 X460.375 Y1364.61 I0.0 J3.175
G1 Y1495.41
G3 X457.2 Y1498.585 I-3.175 J0.0
G1 X441.96
G1 X441.0301 Y1497.6551
G1 X441.96 Y1498.585
G1 Y1542.4
G3 X438.785 Y1545.575 I-3.175 J0.0
G1 X346.075
G1 X345.1451 Y1544.6451
G1 X346.075 Y1545.575
G1 Y1560.81
G3 X342.9 Y1563.985 I-3.175 J0.0
G1 X114.3
G3 X111.125 Y1560.81 I0.0 J-3.175
G1 Y1545.575
G1 X112.0549 Y1544.6451
G1 X111.125 Y1545.575
G1 X18.415
G3 X15.24 Y1542.4 I0.0 J-3.175
G1 Y1498.585
G1 X16.1699 Y1497.6551
G1 X15.24 Y1498.585
G1 X0.0
G3 X-3.175 Y1495.41 I0.0 J-3.175
G1 Y1364.61
G3 X0.0 Y1361.435 I3.175 J0.0
G1 X15.24
G1 X16.1699 Y1362.3649
G1 X15.24 Y1361.435
G1 Y1299.2
G3 X18.415 Y1296.025 I3.175 J0.0
G1 X438.785
G3 X438.786 I0.0 J3.175
G1 F300.0 Z-5.0
G3 F800.0 X441.96 Y1299.2 I-0.001 J3.175
G1 Y1361.435
G1 X441.0301 Y1362.3649
G1 X441.96 Y1361.435
G1 X457.2
G3 X460.375 Y1364.61 I0.0 J3.175
G1 Y1495.41
G3 X457.2 Y1498.585 I-3.175 J0.0
G1 X441.96
G1 X441.0301 Y1497.6551
G1 X441.96 Y1498.585
G1 Y1542.4
G3 X438.785 Y1545.575 I-3.175 J0.0
G1 X346.075
G1 X345.1451 Y1544.6451
G1 X346.075 Y1545.575
G1 Y1560.81
G3 X342.9 Y1563.985 I-3.175 J0.0
G1 X114.3
G3 X111.125 Y1560.81 I0.0 J-3.175
G1 Y1545.575
G1 X112.0549 Y1544.6451
G1 X111.125 Y1545.575
G1 X18.415
G3 X15.24 Y1542.4 I0.0 J-3.175
G1 Y1498.585
G1 X16.1699 Y1497.6551
G1 X15.24 Y1498.585
G1 X0.0
G3 X-3.175 Y1495.41 I0.0 J-3.175
G1 Y1364.61
G3 X0.0 Y1361.435 I3.175 J0.0
G1 X15.24
G1 X16.1699 Y1362.3649
G1 X15.24 Y1361.435
G1 Y1299.2
G3 X18.415 Y1296.025 I3.175 J0.0
G1 X438.785
G3 X438.786 I0.0 J3.175
G1 F300.0 Z-6.0
G3 F800.0 X441.96 Y1299.2 I-0.001 J3.175
G1 Y1361.435
G1 X441.0301 Y1362.3649
G1 X441.96 Y1361.435
G1 X457.2
G3 X460.375 Y1364.61 I0.0 J3.175
G1 Y1495.41
G3 X457.2 Y1498.585 I-3.175 J0.0
G1 X441.96
G1 X441.0301 Y1497.6551
G1 X441.96 Y1498.585
G1 Y1542.4
G3 X438.785 Y1545.575 I-3.175 J0.0
G1 X346.075
G1 X345.1451 Y1544.6451
G1 X346.075 Y1545.575
G1 Y1560.81
G3 X342.9 Y1563.985 I-3.175 J0.0
G1 X114.3
G3 X111.125 Y1560.81 I0.0 J-3.175
G1 Y1545.575
G1 X112.0549 Y1544.6451
G1 X111.125 Y1545.575
G1 X18.415
G3 X15.24 Y1542.4 I0.0 J-3.175
G1 Y1498.585
G1 X16.1699 Y1497.6551
G1 X15.24 Y1498.585
G1 X0.0
G3 X-3.175 Y1495.41 I0.0 J-3.175
G1 Y1364.61
G3 X0.0 Y1361.435 I3.175 J0.0
G1 X15.24
G1 X16.1699 Y1362.3649
G1 X15.24 Y1361.435
G1 Y1299.2
G3 X18.415 Y1296.025 I3.175 J0.0
G1 X438.785
G3 X438.786 I0.0 J3.175
G1 F300.0 Z-7.0
G3 F800.0 X441.96 Y1299.2 I-0.001 J3.175
G1 Y1361.435
G1 X441.0301 Y1362.3649
G1 X441.96 Y1361.435
G1 X457.2
G3 X460.375 Y1364.61 I0.0 J3.175
G1 Y1495.41
G3 X457.2 Y1498.585 I-3.175 J0.0
G1 X441.96
G1 X441.0301 Y1497.6551
G1 X441.96 Y1498.585
G1 Y1542.4
G3 X438.785 Y1545.575 I-3.175 J0.0
G1 X346.075
G1 X345.1451 Y1544.6451
G1 X346.075 Y1545.575
G1 Y1560.81
G3 X342.9 Y1563.985 I-3.175 J0.0
G1 X114.3
G3 X111.125 Y1560.81 I0.0 J-3.175
G1 Y1545.575
G1 X112.0549 Y1544.6451
G1 X111.125 Y1545.575
G1 X18.415
G3 X15.24 Y1542.4 I0.0 J-3.175
G1 Y1498.585
G1 X16.1699 Y1497.6551
G1 X15.24 Y1498.585
G1 X0.0
G3 X-3.175 Y1495.41 I0.0 J-3.175
G1 Y1364.61
G3 X0.0 Y1361.435 I3.175 J0.0
G1 X15.24
G1 X16.1699 Y1362.3649
G1 X15.24 Y1361.435
G1 Y1299.2
G3 X18.415 Y1296.025 I3.175 J0.0
G1 X438.785
G3 X438.786 I0.0 J3.175
G1 F300.0 Z-8.0
G3 F800.0 X441.96 Y1299.2 I-0.001 J3.175
G1 Y1361.435
G1 X441.0301 Y1362.3649
G1 X441.96 Y1361.435
G1 X457.2
G3 X460.375 Y1364.61 I0.0 J3.175
G1 Y1495.41
G3 X457.2 Y1498.585 I-3.175 J0.0
G1 X441.96
G1 X441.0301 Y1497.6551
G1 X441.96 Y1498.585
G1 Y1542.4
G3 X438.785 Y1545.575 I-3.175 J0.0
G1 X346.075
G1 X345.1451 Y1544.6451
G1 X346.075 Y1545.575
G1 Y1560.81
G3 X342.9 Y1563.985 I-3.175 J0.0
G1 X114.3
G3 X111.125 Y1560.81 I0.0 J-3.175
G1 Y1545.575
G1 X112.0549 Y1544.6451
G1 X111.125 Y1545.575
G1 X18.415
G3 X15.24 Y1542.4 I0.0 J-3.175
G1 Y1498.585
G1 X16.1699 Y1497.6551
G1 X15.24 Y1498.585
G1 X0.0
G3 X-3.175 Y1495.41 I0.0 J-3.175
G1 Y1364.61
G3 X0.0 Y1361.435 I3.175 J0.0
G1 X15.24
G1 X16.1699 Y1362.3649
G1 X15.24 Y1361.435
G1 Y1299.2
G3 X18.415 Y1296.025 I3.175 J0.0
G1 X438.785
G3 X438.786 I0.0 J3.175
G1 F300.0 Z-9.0
G3 F800.0 X441.96 Y1299.2 I-0.001 J3.175
G1 Y1361.435
G1 X441.0301 Y1362.3649
G1 X441.96 Y1361.435
G1 X457.2
G3 X460.375 Y1364.61 I0.0 J3.175
G1 Y1495.41
G3 X457.2 Y1498.585 I-3.175 J0.0
G1 X441.96
G1 X441.0301 Y1497.6551
G1 X441.96 Y1498.585
G1 Y1542.4
G3 X438.785 Y1545.575 I-3.175 J0.0
G1 X346.075
G1 X345.1451 Y1544.6451
G1 X346.075 Y1545.575
G1 Y1560.81
G3 X342.9 Y1563.985 I-3.175 J0.0
G1 X114.3
G3 X111.125 Y1560.81 I0.0 J-3.175
G1 Y1545.575
G1 X112.0549 Y1544.6451
G1 X111.125 Y1545.575
G1 X18.415
G3 X15.24 Y1542.4 I0.0 J-3.175
G1 Y1498.585
G1 X16.1699 Y1497.6551
G1 X15.24 Y1498.585
G1 X0.0
G3 X-3.175 Y1495.41 I0.0 J-3.175
G1 Y1364.61
G3 X0.0 Y1361.435 I3.175 J0.0
G1 X15.24
G1 X16.1699 Y1362.3649
G1 X15.24 Y1361.435
G1 Y1299.2
G3 X18.415 Y1296.025 I3.175 J0.0
G1 X438.785
G3 X438.786 I0.0 J3.175
G1 F300.0 Z-10.0
G3 F800.0 X441.96 Y1299.2 I-0.001 J3.175
G1 Y1361.435
G1 X441.0301 Y1362.3649
G1 X441.96 Y1361.435
G1 X457.2
G3 X460.375 Y1364.61 I0.0 J3.175
G1 Y1495.41
G3 X457.2 Y1498.585 I-3.175 J0.0
G1 X441.96
G1 X441.0301 Y1497.6551
G1 X441.96 Y1498.585
G1 Y1542.4
G3 X438.785 Y1545.575 I-3.175 J0.0
G1 X346.075
G1 X345.1451 Y1544.6451
G1 X346.075 Y1545.575
G1 Y1560.81
G3 X342.9 Y1563.985 I-3.175 J0.0
G1 X114.3
G3 X111.125 Y1560.81 I0.0 J-3.175
G1 Y1545.575
G1 X112.0549 Y1544.6451
G1 X111.125 Y1545.575
G1 X18.415
G3 X15.24 Y1542.4 I0.0 J-3.175
G1 Y1498.585
G1 X16.1699 Y1497.6551
G1 X15.24 Y1498.585
G1 X0.0
G3 X-3.175 Y1495.41 I0.0 J-3.175
G1 Y1364.61
G3 X0.0 Y1361.435 I3.175 J0.0
G1 X15.24
G1 X16.1699 Y1362.3649
G1 X15.24 Y1361.435
G1 Y1299.2
G3 X18.415 Y1296.025 I3.175 J0.0
G1 X438.785
G3 X438.786 I0.0 J3.175
G1 F300.0 Z-11.0
G3 F800.0 X441.96 Y1299.2 I-0.001 J3.175
G1 Y1361.435
G1 X441.0301 Y1362.3649
G1 X441.96 Y1361.435
G1 X457.2
G3 X460.375 Y1364.61 I0.0 J3.175
G1 Y1495.41
G3 X457.2 Y1498.585 I-3.175 J0.0
G1 X441.96
G1 X441.0301 Y1497.6551
G1 X441.96 Y1498.585
G1 Y1542.4
G3 X438.785 Y1545.575 I-3.175 J0.0
G1 X346.075
G1 X345.1451 Y1544.6451
G1 X346.075 Y1545.575
G1 Y1560.81
G3 X342.9 Y1563.985 I-3.175 J0.0
G1 X114.3
G3 X111.125 Y1560.81 I0.0 J-3.175
G1 Y1545.575
G1 X112.0549 Y1544.6451
G1 X111.125 Y1545.575
G1 X18.415
G3 X15.24 Y1542.4 I0.0 J-3.175
G1 Y1498.585
G1 X16.1699 Y1497.6551
G1 X15.24 Y1498.585
G1 X0.0
G3 X-3.175 Y1495.41 I0.0 J-3.175
G1 Y1364.61
G3 X0.0 Y1361.435 I3.175 J0.0
G1 X15.24
G1 X16.1699 Y1362.3649
G1 X15.24 Y1361.435
G1 Y1299.2
G3 X18.415 Y1296.025 I3.175 J0.0
G1 X438.785
G3 X438.786 I0.0 J3.175
G1 F300.0 Z-12.0
G3 F800.0 X441.96 Y1299.2 I-0.001 J3.175
G1 Y1361.435
G1 X441.0301 Y1362.3649
G1 X441.96 Y1361.435
G1 X457.2
G3 X460.375 Y1364.61 I0.0 J3.175
G1 Y1495.41
G3 X457.2 Y1498.585 I-3.175 J0.0
G1 X441.96
G1 X441.0301 Y1497.6551
G1 X441.96 Y1498.585
G1 Y1542.4
G3 X438.785 Y1545.575 I-3.175 J0.0
G1 X346.075
G1 X345.1451 Y1544.6451
G1 X346.075 Y1545.575
G1 Y1560.81
G3 X342.9 Y1563.985 I-3.175 J0.0
G1 X114.3
G3 X111.125 Y1560.81 I0.0 J-3.175
G1 Y1545.575
G1 X112.0549 Y1544.6451
G1 X111.125 Y1545.575
G1 X18.415
G3 X15.24 Y1542.4 I0.0 J-3.175
G1 Y1498.585
G1 X16.1699 Y1497.6551
G1 X15.24 Y1498.585
G1 X0.0
G3 X-3.175 Y1495.41 I0.0 J-3.175
G1 Y1364.61
G3 X0.0 Y1361.435 I3.175 J0.0
G1 X15.24
G1 X16.1699 Y1362.3649
G1 X15.24 Y1361.435
G1 Y1299.2
G3 X18.415 Y1296.025 I3.175 J0.0
G1 X438.785
G3 X438.786 I0.0 J3.175
G1 F300.0 Z-13.0
G3 F800.0 X441.96 Y1299.2 I-0.001 J3.175
G1 Y1361.435
G1 X441.0301 Y1362.3649
G1 X441.96 Y1361.435
G1 X457.2
G3 X460.375 Y1364.61 I0.0 J3.175
G1 Y1495.41
G3 X457.2 Y1498.585 I-3.175 J0.0
G1 X441.96
G1 X441.0301 Y1497.6551
G1 X441.96 Y1498.585
G1 Y1542.4
G3 X438.785 Y1545.575 I-3.175 J0.0
G1 X346.075
G1 X345.1451 Y1544.6451
G1 X346.075 Y1545.575
G1 Y1560.81
G3 X342.9 Y1563.985 I-3.175 J0.0
G1 X114.3
G3 X111.125 Y1560.81 I0.0 J-3.175
G1 Y1545.575
G1 X112.0549 Y1544.6451
G1 X111.125 Y1545.575
G1 X18.415
G3 X15.24 Y1542.4 I0.0 J-3.175
G1 Y1498.585
G1 X16.1699 Y1497.6551
G1 X15.24 Y1498.585
G1 X0.0
G3 X-3.175 Y1495.41 I0.0 J-3.175
G1 Y1364.61
G3 X0.0 Y1361.435 I3.175 J0.0
G1 X15.24
G1 X16.1699 Y1362.3649
G1 X15.24 Y1361.435
G1 Y1299.2
G3 X18.415 Y1296.025 I3.175 J0.0
G1 X438.785
G3 X438.786 I0.0 J3.175
G1 F300.0 Z-14.0
G3 F800.0 X441.96 Y1299.2 I-0.001 J3.175
G1 Y1361.435
G1 X441.0301 Y1362.3649
G1 X441.96 Y1361.435
G1 X457.2
G3 X460.375 Y1364.61 I0.0 J3.175
G1 Y1495.41
G3 X457.2 Y1498.585 I-3.175 J0.0
G1 X441.96
G1 X441.0301 Y1497.6551
G1 X441.96 Y1498.585
G1 Y1542.4
G3 X438.785 Y1545.575 I-3.175 J0.0
G1 X346.075
G1 X345.1451 Y1544.6451
G1 X346.075 Y1545.575
G1 Y1560.81
G3 X342.9 Y1563.985 I-3.175 J0.0
G1 X114.3
G3 X111.125 Y1560.81 I0.0 J-3.175
G1 Y1545.575
G1 X112.0549 Y1544.6451
G1 X111.125 Y1545.575
G1 X18.415
G3 X15.24 Y1542.4 I0.0 J-3.175
G1 Y1498.585
G1 X16.1699 Y1497.6551
G1 X15.24 Y1498.585
G1 X0.0
G3 X-3.175 Y1495.41 I0.0 J-3.175
G1 Y1364.61
G3 X0.0 Y1361.435 I3.175 J0.0
G1 X15.24
G1 X16.1699 Y1362.3649
G1 X15.24 Y1361.435
G1 Y1299.2
G3 X18.415 Y1296.025 I3.175 J0.0
G1 X438.785
G3 X438.786 I0.0 J3.175
G1 F300.0 Z-15.0
G3 F800.0 X441.96 Y1299.2 I-0.001 J3.175
G1 Y1361.435
G1 X441.0301 Y1362.3649
G1 X441.96 Y1361.435
G1 X457.2
G3 X460.375 Y1364.61 I0.0 J3.175
G1 Y1495.41
G3 X457.2 Y1498.585 I-3.175 J0.0
G1 X441.96
G1 X441.0301 Y1497.6551
G1 X441.96 Y1498.585
G1 Y1542.4
G3 X438.785 Y1545.575 I-3.175 J0.0
G1 X346.075
G1 X345.1451 Y1544.6451
G1 X346.075 Y1545.575
G1 Y1560.81
G3 X342.9 Y1563.985 I-3.175 J0.0
G1 X114.3
G3 X111.125 Y1560.81 I0.0 J-3.175
G1 Y1545.575
G1 X112.0549 Y1544.6451
G1 X111.125 Y1545.575
G1 X18.415
G3 X15.24 Y1542.4 I0.0 J-3.175
G1 Y1498.585
G1 X16.1699 Y1497.6551
G1 X15.24 Y1498.585
G1 X0.0
G3 X-3.175 Y1495.41 I0.0 J-3.175
G1 Y1364.61
G3 X0.0 Y1361.435 I3.175 J0.0
G1 X15.24
G1 X16.1699 Y1362.3649
G1 X15.24 Y1361.435
G1 Y1299.2
G3 X18.415 Y1296.025 I3.175 J0.0
G1 X438.785
G3 X438.786 I0.0 J3.175
G1 F300.0 Z-16.0
G3 F800.0 X441.96 Y1299.2 I-0.001 J3.175
G1 Y1361.435
G1 X441.0301 Y1362.3649
G1 X441.96 Y1361.435
G1 X457.2
G3 X460.375 Y1364.61 I0.0 J3.175
G1 Y1495.41
G3 X457.2 Y1498.585 I-3.175 J0.0
G1 X441.96
G1 X441.0301 Y1497.6551
G1 X441.96 Y1498.585
G1 Y1542.4
G3 X438.785 Y1545.575 I-3.175 J0.0
G1 X346.075
G1 X345.1451 Y1544.6451
G1 X346.075 Y1545.575
G1 Y1560.81
G3 X342.9 Y1563.985 I-3.175 J0.0
G1 X114.3
G3 X111.125 Y1560.81 I0.0 J-3.175
G1 Y1545.575
G1 X112.0549 Y1544.6451
G1 X111.125 Y1545.575
G1 X18.415
G3 X15.24 Y1542.4 I0.0 J-3.175
G1 Y1498.585
G1 X16.1699 Y1497.6551
G1 X15.24 Y1498.585
G1 X0.0
G3 X-3.175 Y1495.41 I0.0 J-3.175
G1 Y1364.61
G3 X0.0 Y1361.435 I3.175 J0.0
G1 X15.24
G1 X16.1699 Y1362.3649
G1 X15.24 Y1361.435
G1 Y1299.2
G3 X18.415 Y1296.025 I3.175 J0.0
G1 X438.785
G3 X438.786 I0.0 J3.175
G1 F300.0 Z-17.0
G3 F800.0 X441.96 Y1299.2 I-0.001 J3.175
G1 Y1361.435
G1 X441.0301 Y1362.3649
G1 X441.96 Y1361.435
G1 X457.2
G3 X460.375 Y1364.61 I0.0 J3.175
G1 Y1495.41
G3 X457.2 Y1498.585 I-3.175 J0.0
G1 X441.96
G1 X441.0301 Y1497.6551
G1 X441.96 Y1498.585
G1 Y1542.4
G3 X438.785 Y1545.575 I-3.175 J0.0
G1 X346.075
G1 X345.1451 Y1544.6451
G1 X346.075 Y1545.575
G1 Y1560.81
G3 X342.9 Y1563.985 I-3.175 J0.0
G1 X114.3
G3 X111.125 Y1560.81 I0.0 J-3.175
G1 Y1545.575
G1 X112.0549 Y1544.6451
G1 X111.125 Y1545.575
G1 X18.415
G3 X15.24 Y1542.4 I0.0 J-3.175
G1 Y1498.585
G1 X16.1699 Y1497.6551
G1 X15.24 Y1498.585
G1 X0.0
G3 X-3.175 Y1495.41 I0.0 J-3.175
G1 Y1364.61
G3 X0.0 Y1361.435 I3.175 J0.0
G1 X15.24
G1 X16.1699 Y1362.3649
G1 X15.24 Y1361.435
G1 Y1299.2
G3 X18.415 Y1296.025 I3.175 J0.0
G1 X438.785
G3 X438.786 I0.0 J3.175
G1 F300.0 Z-18.0
G3 F800.0 X441.96 Y1299.2 I-0.001 J3.175
G1 Y1361.435
G1 X441.0301 Y1362.3649
G1 X441.96 Y1361.435
G1 X457.2
G3 X460.375 Y1364.61 I0.0 J3.175
G1 Y1495.41
G3 X457.2 Y1498.585 I-3.175 J0.0
G1 X441.96
G1 X441.0301 Y1497.6551
G1 X441.96 Y1498.585
G1 Y1542.4
G3 X438.785 Y1545.575 I-3.175 J0.0
G1 X346.075
G1 X345.1451 Y1544.6451
G1 X346.075 Y1545.575
G1 Y1560.81
G3 X342.9 Y1563.985 I-3.175 J0.0
G1 X114.3
G3 X111.125 Y1560.81 I0.0 J-3.175
G1 Y1545.575
G1 X112.0549 Y1544.6451
G1 X111.125 Y1545.575
G1 X18.415
G3 X15.24 Y1542.4 I0.0 J-3.175
G1 Y1498.585
G1 X16.1699 Y1497.6551
G1 X15.24 Y1498.585
G1 X0.0
G3 X-3.175 Y1495.41 I0.0 J-3.175
G1 Y1364.61
G3 X0.0 Y1361.435 I3.175 J0.0
G1 X15.24
G1 X16.1699 Y1362.3649
G1 X15.24 Y1361.435
G1 Y1299.2
G3 X18.415 Y1296.025 I3.175 J0.0
G1 X438.785
G3 X438.786 I0.0 J3.175
G1 F300.0 Z-19.0
G3 F800.0 X441.96 Y1299.2 I-0.001 J3.175
G1 Y1361.435
G1 X441.0301 Y1362.3649
G1 X441.96 Y1361.435
G1 X457.2
G3 X460.375 Y1364.61 I0.0 J3.175
G1 Y1495.41
G3 X457.2 Y1498.585 I-3.175 J0.0
G1 X441.96
G1 X441.0301 Y1497.6551
G1 X441.96 Y1498.585
G1 Y1542.4
G3 X438.785 Y1545.575 I-3.175 J0.0
G1 X346.075
G1 X345.1451 Y1544.6451
G1 X346.075 Y1545.575
G1 Y1560.81
G3 X342.9 Y1563.985 I-3.175 J0.0
G1 X114.3
G3 X111.125 Y1560.81 I0.0 J-3.175
G1 Y1545.575
G1 X112.0549 Y1544.6451
G1 X111.125 Y1545.575
G1 X18.415
G3 X15.24 Y1542.4 I0.0 J-3.175
G1 Y1498.585
G1 X16.1699 Y1497.6551
G1 X15.24 Y1498.585
G1 X0.0
G3 X-3.175 Y1495.41 I0.0 J-3.175
G1 Y1364.61
G3 X0.0 Y1361.435 I3.175 J0.0
G1 X15.24
G1 X16.1699 Y1362.3649
G1 X15.24 Y1361.435
G1 Y1299.2
G3 X18.415 Y1296.025 I3.175 J0.0
G1 X438.785
G3 X438.786 I0.0 J3.175
G1 F300.0 Z-20.0
G3 F800.0 X441.96 Y1299.2 I-0.001 J3.175
G1 Y1361.435
G1 X441.0301 Y1362.3649
G1 X441.96 Y1361.435
G1 X457.2
G3 X460.375 Y1364.61 I0.0 J3.175
G1 Y1495.41
G3 X457.2 Y1498.585 I-3.175 J0.0
G1 X441.96
G1 X441.0301 Y1497.6551
G1 X441.96 Y1498.585
G1 Y1542.4
G3 X438.785 Y1545.575 I-3.175 J0.0
G1 X346.075
G1 X345.1451 Y1544.6451
G1 X346.075 Y1545.575
G1 Y1560.81
G3 X342.9 Y1563.985 I-3.175 J0.0
G1 X114.3
G3 X111.125 Y1560.81 I0.0 J-3.175
G1 Y1545.575
G1 X112.0549 Y1544.6451
G1 X111.125 Y1545.575
G1 X18.415
G3 X15.24 Y1542.4 I0.0 J-3.175
G1 Y1498.585
G1 X16.1699 Y1497.6551
G1 X15.24 Y1498.585
G1 X0.0
G3 X-3.175 Y1495.41 I0.0 J-3.175
G1 Y1364.61
G3 X0.0 Y1361.435 I3.175 J0.0
G1 X15.24
G1 X16.1699 Y1362.3649
G1 X15.24 Y1361.435
G1 Y1299.2
G3 X18.415 Y1296.025 I3.175 J0.0
G1 X438.785
G3 X438.786 I0.0 J3.175
G0 Z15.0
G0 X438.785 Y1593.835
G0 Z1.0
G1 F300.0 Z-1.0
G3 F800.0 X441.96 Y1597.01 I0.0 J3.175
G1 Y1656.535
G1 X441.0301 Y1657.4649
G1 X441.96 Y1656.535
G1 X457.2
G3 X460.375 Y1659.71 I0.0 J3.175
G1 Y1785.12
G3 X457.2 Y1788.295 I-3.175 J0.0
G1 X441.96
G1 X441.0301 Y1787.3651
G1 X441.96 Y1788.295
G1 Y1829.41
G3 X438.785 Y1832.585 I-3.175 J0.0
G1 X346.075
G1 X345.1451 Y1831.6551
G1 X346.075 Y1832.585
G1 Y1847.82
G3 X342.9 Y1850.995 I-3.175 J0.0
G1 X114.3
G3 X111.125 Y1847.82 I0.0 J-3.175
G1 Y1832.585
G1 X112.0549 Y1831.6551
G1 X111.125 Y1832.585
G1 X18.415
G3 X15.24 Y1829.41 I0.0 J-3.175
G1 Y1788.295
G1 X16.1699 Y1787.3651
G1 X15.24 Y1788.295
G1 X0.0
G3 X-3.175 Y1785.12 I0.0 J-3.175
G1 Y1659.71
G3 X0.0 Y1656.535 I3.175 J0.0
G1 X15.24
G1 X16.1699 Y1657.4649
G1 X15.24 Y1656.535
G1 Y1597.01
G3 X18.415 Y1593.835 I3.175 J0.0
G1 X438.785
G1 F300.0 Z-2.0
G3 F800.0 X441.96 Y1597.01 I0.0 J3.175
G1 Y1656.535
G1 X441.0301 Y1657.4649
G1 X441.96 Y1656.535
G1 X457.2
G3 X460.375 Y1659.71 I0.0 J3.175
G1 Y1785.12
G3 X457.2 Y1788.295 I-3.175 J0.0
G1 X441.96
G1 X441.0301 Y1787.3651
G1 X441.96 Y1788.295
G1 Y1829.41
G3 X438.785 Y1832.585 I-3.175 J0.0
G1 X346.075
G1 X345.1451 Y1831.6551
G1 X346.075 Y1832.585
G1 Y1847.82
G3 X342.9 Y1850.995 I-3.175 J0.0
G1 X114.3
G3 X111.125 Y1847.82 I0.0 J-3.175
G1 Y1832.585
G1 X112.0549 Y1831.6551
G1 X111.125 Y1832.585
G1 X18.415
G3 X15.24 Y1829.41 I0.0 J-3.175
G1 Y1788.295
G1 X16.1699 Y1787.3651
G1 X15.24 Y1788.295
G1 X0.0
G3 X-3.175 Y1785.12 I0.0 J-3.175
G1 Y1659.71
G3 X0.0 Y1656.535 I3.175 J0.0
G1 X15.24
G1 X16.1699 Y1657.4649
G1 X15.24 Y1656.535
G1 Y1597.01
G3 X18.415 Y1593.835 I3.175 J0.0
G1 X438.785
G1 F300.0 Z-3.0
G3 F800.0 X441.96 Y1597.01 I0.0 J3.175
G1 Y1656.535
G1 X441.0301 Y1657.4649
G1 X441.96 Y1656.535
G1 X457.2
G3 X460.375 Y1659.71 I0.0 J3.175
G1 Y1785.12
G3 X457.2 Y1788.295 I-3.175 J0.0
G1 X441.96
G1 X441.0301 Y1787.3651
G1 X441.96 Y1788.295
G1 Y1829.41
G3 X438.785 Y1832.585 I-3.175 J0.0
G1 X346.075
G1 X345.1451 Y1831.6551
G1 X346.075 Y1832.585
G1 Y1847.82
G3 X342.9 Y1850.995 I-3.175 J0.0
G1 X114.3
G3 X111.125 Y1847.82 I0.0 J-3.175
G1 Y1832.585
G1 X112.0549 Y1831.6551
G1 X111.125 Y1832.585
G1 X18.415
G3 X15.24 Y1829.41 I0.0 J-3.175
G1 Y1788.295
G1 X16.1699 Y1787.3651
G1 X15.24 Y1788.295
G1 X0.0
G3 X-3.175 Y1785.12 I0.0 J-3.175
G1 Y1659.71
G3 X0.0 Y1656.535 I3.175 J0.0
G1 X15.24
G1 X16.1699 Y1657.4649
G1 X15.24 Y1656.535
G1 Y1597.01
G3 X18.415 Y1593.835 I3.175 J0.0
G1 X438.785
G1 F300.0 Z-4.0
G3 F800.0 X441.96 Y1597.01 I0.0 J3.175
G1 Y1656.535
G1 X441.0301 Y1657.4649
G1 X441.96 Y1656.535
G1 X457.2
G3 X460.375 Y1659.71 I0.0 J3.175
G1 Y1785.12
G3 X457.2 Y1788.295 I-3.175 J0.0
G1 X441.96
G1 X441.0301 Y1787.3651
G1 X441.96 Y1788.295
G1 Y1829.41
G3 X438.785 Y1832.585 I-3.175 J0.0
G1 X346.075
G1 X345.1451 Y1831.6551
G1 X346.075 Y1832.585
G1 Y1847.82
G3 X342.9 Y1850.995 I-3.175 J0.0
G1 X114.3
G3 X111.125 Y1847.82 I0.0 J-3.175
G1 Y1832.585
G1 X112.0549 Y1831.6551
G1 X111.125 Y1832.585
G1 X18.415
G3 X15.24 Y1829.41 I0.0 J-3.175
G1 Y1788.295
G1 X16.1699 Y1787.3651
G1 X15.24 Y1788.295
G1 X0.0
G3 X-3.175 Y1785.12 I0.0 J-3.175
G1 Y1659.71
G3 X0.0 Y1656.535 I3.175 J0.0
G1 X15.24
G1 X16.1699 Y1657.4649
G1 X15.24 Y1656.535
G1 Y1597.01
G3 X18.415 Y1593.835 I3.175 J0.0
G1 X438.785
G1 F300.0 Z-5.0
G3 F800.0 X441.96 Y1597.01 I0.0 J3.175
G1 Y1656.535
G1 X441.0301 Y1657.4649
G1 X441.96 Y1656.535
G1 X457.2
G3 X460.375 Y1659.71 I0.0 J3.175
G1 Y1785.12
G3 X457.2 Y1788.295 I-3.175 J0.0
G1 X441.96
G1 X441.0301 Y1787.3651
G1 X441.96 Y1788.295
G1 Y1829.41
G3 X438.785 Y1832.585 I-3.175 J0.0
G1 X346.075
G1 X345.1451 Y1831.6551
G1 X346.075 Y1832.585
G1 Y1847.82
G3 X342.9 Y1850.995 I-3.175 J0.0
G1 X114.3
G3 X111.125 Y1847.82 I0.0 J-3.175
G1 Y1832.585
G1 X112.0549 Y1831.6551
G1 X111.125 Y1832.585
G1 X18.415
G3 X15.24 Y1829.41 I0.0 J-3.175
G1 Y1788.295
G1 X16.1699 Y1787.3651
G1 X15.24 Y1788.295
G1 X0.0
G3 X-3.175 Y1785.12 I0.0 J-3.175
G1 Y1659.71
G3 X0.0 Y1656.535 I3.175 J0.0
G1 X15.24
G1 X16.1699 Y1657.4649
G1 X15.24 Y1656.535
G1 Y1597.01
G3 X18.415 Y1593.835 I3.175 J0.0
G1 X438.785
G1 F300.0 Z-6.0
G3 F800.0 X441.96 Y1597.01 I0.0 J3.175
G1 Y1656.535
G1 X441.0301 Y1657.4649
G1 X441.96 Y1656.535
G1 X457.2
G3 X460.375 Y1659.71 I0.0 J3.175
G1 Y1785.12
G3 X457.2 Y1788.295 I-3.175 J0.0
G1 X441.96
G1 X441.0301 Y1787.3651
G1 X441.96 Y1788.295
G1 Y1829.41
G3 X438.785 Y1832.585 I-3.175 J0.0
G1 X346.075
G1 X345.1451 Y1831.6551
G1 X346.075 Y1832.585
G1 Y1847.82
G3 X342.9 Y1850.995 I-3.175 J0.0
G1 X114.3
G3 X111.125 Y1847.82 I0.0 J-3.175
G1 Y1832.585
G1 X112.0549 Y1831.6551
G1 X111.125 Y1832.585
G1 X18.415
G3 X15.24 Y1829.41 I0.0 J-3.175
G1 Y1788.295
G1 X16.1699 Y1787.3651
G1 X15.24 Y1788.295
G1 X0.0
G3 X-3.175 Y1785.12 I0.0 J-3.175
G1 Y1659.71
G3 X0.0 Y1656.535 I3.175 J0.0
G1 X15.24
G1 X16.1699 Y1657.4649
G1 X15.24 Y1656.535
G1 Y1597.01
G3 X18.415 Y1593.835 I3.175 J0.0
G1 X438.785
G1 F300.0 Z-7.0
G3 F800.0 X441.96 Y1597.01 I0.0 J3.175
G1 Y1656.535
G1 X441.0301 Y1657.4649
G1 X441.96 Y1656.535
G1 X457.2
G3 X460.375 Y1659.71 I0.0 J3.175
G1 Y1785.12
G3 X457.2 Y1788.295 I-3.175 J0.0
G1 X441.96
G1 X441.0301 Y1787.3651
G1 X441.96 Y1788.295
G1 Y1829.41
G3 X438.785 Y1832.585 I-3.175 J0.0
G1 X346.075
G1 X345.1451 Y1831.6551
G1 X346.075 Y1832.585
G1 Y1847.82
G3 X342.9 Y1850.995 I-3.175 J0.0
G1 X114.3
G3 X111.125 Y1847.82 I0.0 J-3.175
G1 Y1832.585
G1 X112.0549 Y1831.6551
G1 X111.125 Y1832.585
G1 X18.415
G3 X15.24 Y1829.41 I0.0 J-3.175
G1 Y1788.295
G1 X16.1699 Y1787.3651
G1 X15.24 Y1788.295
G1 X0.0
G3 X-3.175 Y1785.12 I0.0 J-3.175
G1 Y1659.71
G3 X0.0 Y1656.535 I3.175 J0.0
G1 X15.24
G1 X16.1699 Y1657.4649
G1 X15.24 Y1656.535
G1 Y1597.01
G3 X18.415 Y1593.835 I3.175 J0.0
G1 X438.785
G1 F300.0 Z-8.0
G3 F800.0 X441.96 Y1597.01 I0.0 J3.175
G1 Y1656.535
G1 X441.0301 Y1657.4649
G1 X441.96 Y1656.535
G1 X457.2
G3 X460.375 Y1659.71 I0.0 J3.175
G1 Y1785.12
G3 X457.2 Y1788.295 I-3.175 J0.0
G1 X441.96
G1 X441.0301 Y1787.3651
G1 X441.96 Y1788.295
G1 Y1829.41
G3 X438.785 Y1832.585 I-3.175 J0.0
G1 X346.075
G1 X345.1451 Y1831.6551
G1 X346.075 Y1832.585
G1 Y1847.82
G3 X342.9 Y1850.995 I-3.175 J0.0
G1 X114.3
G3 X111.125 Y1847.82 I0.0 J-3.175
G1 Y1832.585
G1 X112.0549 Y1831.6551
G1 X111.125 Y1832.585
G1 X18.415
G3 X15.24 Y1829.41 I0.0 J-3.175
G1 Y1788.295
G1 X16.1699 Y1787.3651
G1 X15.24 Y1788.295
G1 X0.0
G3 X-3.175 Y1785.12 I0.0 J-3.175
G1 Y1659.71
G3 X0.0 Y1656.535 I3.175 J0.0
G1 X15.24
G1 X16.1699 Y1657.4649
G1 X15.24 Y1656.535
G1 Y1597.01
G3 X18.415 Y1593.835 I3.175 J0.0
G1 X438.785
G1 F300.0 Z-9.0
G3 F800.0 X441.96 Y1597.01 I0.0 J3.175
G1 Y1656.535
G1 X441.0301 Y1657.4649
G1 X441.96 Y1656.535
G1 X457.2
G3 X460.375 Y1659.71 I0.0 J3.175
G1 Y1785.12
G3 X457.2 Y1788.295 I-3.175 J0.0
G1 X441.96
G1 X441.0301 Y1787.3651
G1 X441.96 Y1788.295
G1 Y1829.41
G3 X438.785 Y1832.585 I-3.175 J0.0
G1 X346.075
G1 X345.1451 Y1831.6551
G1 X346.075 Y1832.585
G1 Y1847.82
G3 X342.9 Y1850.995 I-3.175 J0.0
G1 X114.3
G3 X111.125 Y1847.82 I0.0 J-3.175
G1 Y1832.585
G1 X112.0549 Y1831.6551
G1 X111.125 Y1832.585
G1 X18.415
G3 X15.24 Y1829.41 I0.0 J-3.175
G1 Y1788.295
G1 X16.1699 Y1787.3651
G1 X15.24 Y1788.295
G1 X0.0
G3 X-3.175 Y1785.12 I0.0 J-3.175
G1 Y1659.71
G3 X0.0 Y1656.535 I3.175 J0.0
G1 X15.24
G1 X16.1699 Y1657.4649
G1 X15.24 Y1656.535
G1 Y1597.01
G3 X18.415 Y1593.835 I3.175 J0.0
G1 X438.785
G1 F300.0 Z-10.0
G3 F800.0 X441.96 Y1597.01 I0.0 J3.175
G1 Y1656.535
G1 X441.0301 Y1657.4649
G1 X441.96 Y1656.535
G1 X457.2
G3 X460.375 Y1659.71 I0.0 J3.175
G1 Y1785.12
G3 X457.2 Y1788.295 I-3.175 J0.0
G1 X441.96
G1 X441.0301 Y1787.3651
G1 X441.96 Y1788.295
G1 Y1829.41
G3 X438.785 Y1832.585 I-3.175 J0.0
G1 X346.075
G1 X345.1451 Y1831.6551
G1 X346.075 Y1832.585
G1 Y1847.82
G3 X342.9 Y1850.995 I-3.175 J0.0
G1 X114.3
G3 X111.125 Y1847.82 I0.0 J-3.175
G1 Y1832.585
G1 X112.0549 Y1831.6551
G1 X111.125 Y1832.585
G1 X18.415
G3 X15.24 Y1829.41 I0.0 J-3.175
G1 Y1788.295
G1 X16.1699 Y1787.3651
G1 X15.24 Y1788.295
G1 X0.0
G3 X-3.175 Y1785.12 I0.0 J-3.175
G1 Y1659.71
G3 X0.0 Y1656.535 I3.175 J0.0
G1 X15.24
G1 X16.1699 Y1657.4649
G1 X15.24 Y1656.535
G1 Y1597.01
G3 X18.415 Y1593.835 I3.175 J0.0
G1 X438.785
G1 F300.0 Z-11.0
G3 F800.0 X441.96 Y1597.01 I0.0 J3.175
G1 Y1656.535
G1 X441.0301 Y1657.4649
G1 X441.96 Y1656.535
G1 X457.2
G3 X460.375 Y1659.71 I0.0 J3.175
G1 Y1785.12
G3 X457.2 Y1788.295 I-3.175 J0.0
G1 X441.96
G1 X441.0301 Y1787.3651
G1 X441.96 Y1788.295
G1 Y1829.41
G3 X438.785 Y1832.585 I-3.175 J0.0
G1 X346.075
G1 X345.1451 Y1831.6551
G1 X346.075 Y1832.585
G1 Y1847.82
G3 X342.9 Y1850.995 I-3.175 J0.0
G1 X114.3
G3 X111.125 Y1847.82 I0.0 J-3.175
G1 Y1832.585
G1 X112.0549 Y1831.6551
G1 X111.125 Y1832.585
G1 X18.415
G3 X15.24 Y1829.41 I0.0 J-3.175
G1 Y1788.295
G1 X16.1699 Y1787.3651
G1 X15.24 Y1788.295
G1 X0.0
G3 X-3.175 Y1785.12 I0.0 J-3.175
G1 Y1659.71
G3 X0.0 Y1656.535 I3.175 J0.0
G1 X15.24
G1 X16.1699 Y1657.4649
G1 X15.24 Y1656.535
G1 Y1597.01
G3 X18.415 Y1593.835 I3.175 J0.0
G1 X438.785
G1 F300.0 Z-12.0
G3 F800.0 X441.96 Y1597.01 I0.0 J3.175
G1 Y1656.535
G1 X441.0301 Y1657.4649
G1 X441.96 Y1656.535
G1 X457.2
G3 X460.375 Y1659.71 I0.0 J3.175
G1 Y1785.12
G3 X457.2 Y1788.295 I-3.175 J0.0
G1 X441.96
G1 X441.0301 Y1787.3651
G1 X441.96 Y1788.295
G1 Y1829.41
G3 X438.785 Y1832.585 I-3.175 J0.0
G1 X346.075
G1 X345.1451 Y1831.6551
G1 X346.075 Y1832.585
G1 Y1847.82
G3 X342.9 Y1850.995 I-3.175 J0.0
G1 X114.3
G3 X111.125 Y1847.82 I0.0 J-3.175
G1 Y1832.585
G1 X112.0549 Y1831.6551
G1 X111.125 Y1832.585
G1 X18.415
G3 X15.24 Y1829.41 I0.0 J-3.175
G1 Y1788.295
G1 X16.1699 Y1787.3651
G1 X15.24 Y1788.295
G1 X0.0
G3 X-3.175 Y1785.12 I0.0 J-3.175
G1 Y1659.71
G3 X0.0 Y1656.535 I3.175 J0.0
G1 X15.24
G1 X16.1699 Y1657.4649
G1 X15.24 Y1656.535
G1 Y1597.01
G3 X18.415 Y1593.835 I3.175 J0.0
G1 X438.785
G1 F300.0 Z-13.0
G3 F800.0 X441.96 Y1597.01 I0.0 J3.175
G1 Y1656.535
G1 X441.0301 Y1657.4649
G1 X441.96 Y1656.535
G1 X457.2
G3 X460.375 Y1659.71 I0.0 J3.175
G1 Y1785.12
G3 X457.2 Y1788.295 I-3.175 J0.0
G1 X441.96
G1 X441.0301 Y1787.3651
G1 X441.96 Y1788.295
G1 Y1829.41
G3 X438.785 Y1832.585 I-3.175 J0.0
G1 X346.075
G1 X345.1451 Y1831.6551
G1 X346.075 Y1832.585
G1 Y1847.82
G3 X342.9 Y1850.995 I-3.175 J0.0
G1 X114.3
G3 X111.125 Y1847.82 I0.0 J-3.175
G1 Y1832.585
G1 X112.0549 Y1831.6551
G1 X111.125 Y1832.585
G1 X18.415
G3 X15.24 Y1829.41 I0.0 J-3.175
G1 Y1788.295
G1 X16.1699 Y1787.3651
G1 X15.24 Y1788.295
G1 X0.0
G3 X-3.175 Y1785.12 I0.0 J-3.175
G1 Y1659.71
G3 X0.0 Y1656.535 I3.175 J0.0
G1 X15.24
G1 X16.1699 Y1657.4649
G1 X15.24 Y1656.535
G1 Y1597.01
G3 X18.415 Y1593.835 I3.175 J0.0
G1 X438.785
G1 F300.0 Z-14.0
G3 F800.0 X441.96 Y1597.01 I0.0 J3.175
G1 Y1656.535
G1 X441.0301 Y1657.4649
G1 X441.96 Y1656.535
G1 X457.2
G3 X460.375 Y1659.71 I0.0 J3.175
G1 Y1785.12
G3 X457.2 Y1788.295 I-3.175 J0.0
G1 X441.96
G1 X441.0301 Y1787.3651
G1 X441.96 Y1788.295
G1 Y1829.41
G3 X438.785 Y1832.585 I-3.175 J0.0
G1 X346.075
G1 X345.1451 Y1831.6551
G1 X346.075 Y1832.585
G1 Y1847.82
G3 X342.9 Y1850.995 I-3.175 J0.0
G1 X114.3
G3 X111.125 Y1847.82 I0.0 J-3.175
G1 Y1832.585
G1 X112.0549 Y1831.6551
G1 X111.125 Y1832.585
G1 X18.415
G3 X15.24 Y1829.41 I0.0 J-3.175
G1 Y1788.295
G1 X16.1699 Y1787.3651
G1 X15.24 Y1788.295
G1 X0.0
G3 X-3.175 Y1785.12 I0.0 J-3.175
G1 Y1659.71
G3 X0.0 Y1656.535 I3.175 J0.0
G1 X15.24
G1 X16.1699 Y1657.4649
G1 X15.24 Y1656.535
G1 Y1597.01
G3 X18.415 Y1593.835 I3.175 J0.0
G1 X438.785
G1 F300.0 Z-15.0
G3 F800.0 X441.96 Y1597.01 I0.0 J3.175
G1 Y1656.535
G1 X441.0301 Y1657.4649
G1 X441.96 Y1656.535
G1 X457.2
G3 X460.375 Y1659.71 I0.0 J3.175
G1 Y1785.12
G3 X457.2 Y1788.295 I-3.175 J0.0
G1 X441.96
G1 X441.0301 Y1787.3651
G1 X441.96 Y1788.295
G1 Y1829.41
G3 X438.785 Y1832.585 I-3.175 J0.0
G1 X346.075
G1 X345.1451 Y1831.6551
G1 X346.075 Y1832.585
G1 Y1847.82
G3 X342.9 Y1850.995 I-3.175 J0.0
G1 X114.3
G3 X111.125 Y1847.82 I0.0 J-3.175
G1 Y1832.585
G1 X112.0549 Y1831.6551
G1 X111.125 Y1832.585
G1 X18.415
G3 X15.24 Y1829.41 I0.0 J-3.175
G1 Y1788.295
G1 X16.1699 Y1787.3651
G1 X15.24 Y1788.295
G1 X0.0
G3 X-3.175 Y1785.12 I0.0 J-3.175
G1 Y1659.71
G3 X0.0 Y1656.535 I3.175 J0.0
G1 X15.24
G1 X16.1699 Y1657.4649
G1 X15.24 Y1656.535
G1 Y1597.01
G3 X18.415 Y1593.835 I3.175 J0.0
G1 X438.785
G1 F300.0 Z-16.0
G3 F800.0 X441.96 Y1597.01 I0.0 J3.175
G1 Y1656.535
G1 X441.0301 Y1657.4649
G1 X441.96 Y1656.535
G1 X457.2
G3 X460.375 Y1659.71 I0.0 J3.175
G1 Y1785.12
G3 X457.2 Y1788.295 I-3.175 J0.0
G1 X441.96
G1 X441.0301 Y1787.3651
G1 X441.96 Y1788.295
G1 Y1829.41
G3 X438.785 Y1832.585 I-3.175 J0.0
G1 X346.075
G1 X345.1451 Y1831.6551
G1 X346.075 Y1832.585
G1 Y1847.82
G3 X342.9 Y1850.995 I-3.175 J0.0
G1 X114.3
G3 X111.125 Y1847.82 I0.0 J-3.175
G1 Y1832.585
G1 X112.0549 Y1831.6551
G1 X111.125 Y1832.585
G1 X18.415
G3 X15.24 Y1829.41 I0.0 J-3.175
G1 Y1788.295
G1 X16.1699 Y1787.3651
G1 X15.24 Y1788.295
G1 X0.0
G3 X-3.175 Y1785.12 I0.0 J-3.175
G1 Y1659.71
G3 X0.0 Y1656.535 I3.175 J0.0
G1 X15.24
G1 X16.1699 Y1657.4649
G1 X15.24 Y1656.535
G1 Y1597.01
G3 X18.415 Y1593.835 I3.175 J0.0
G1 X438.785
G1 F300.0 Z-17.0
G3 F800.0 X441.96 Y1597.01 I0.0 J3.175
G1 Y1656.535
G1 X441.0301 Y1657.4649
G1 X441.96 Y1656.535
G1 X457.2
G3 X460.375 Y1659.71 I0.0 J3.175
G1 Y1785.12
G3 X457.2 Y1788.295 I-3.175 J0.0
G1 X441.96
G1 X441.0301 Y1787.3651
G1 X441.96 Y1788.295
G1 Y1829.41
G3 X438.785 Y1832.585 I-3.175 J0.0
G1 X346.075
G1 X345.1451 Y1831.6551
G1 X346.075 Y1832.585
G1 Y1847.82
G3 X342.9 Y1850.995 I-3.175 J0.0
G1 X114.3
G3 X111.125 Y1847.82 I0.0 J-3.175
G1 Y1832.585
G1 X112.0549 Y1831.6551
G1 X111.125 Y1832.585
G1 X18.415
G3 X15.24 Y1829.41 I0.0 J-3.175
G1 Y1788.295
G1 X16.1699 Y1787.3651
G1 X15.24 Y1788.295
G1 X0.0
G3 X-3.175 Y1785.12 I0.0 J-3.175
G1 Y1659.71
G3 X0.0 Y1656.535 I3.175 J0.0
G1 X15.24
G1 X16.1699 Y1657.4649
G1 X15.24 Y1656.535
G1 Y1597.01
G3 X18.415 Y1593.835 I3.175 J0.0
G1 X438.785
G1 F300.0 Z-18.0
G3 F800.0 X441.96 Y1597.01 I0.0 J3.175
G1 Y1656.535
G1 X441.0301 Y1657.4649
G1 X441.96 Y1656.535
G1 X457.2
G3 X460.375 Y1659.71 I0.0 J3.175
G1 Y1785.12
G3 X457.2 Y1788.295 I-3.175 J0.0
G1 X441.96
G1 X441.0301 Y1787.3651
G1 X441.96 Y1788.295
G1 Y1829.41
G3 X438.785 Y1832.585 I-3.175 J0.0
G1 X346.075
G1 X345.1451 Y1831.6551
G1 X346.075 Y1832.585
G1 Y1847.82
G3 X342.9 Y1850.995 I-3.175 J0.0
G1 X114.3
G3 X111.125 Y1847.82 I0.0 J-3.175
G1 Y1832.585
G1 X112.0549 Y1831.6551
G1 X111.125 Y1832.585
G1 X18.415
G3 X15.24 Y1829.41 I0.0 J-3.175
G1 Y1788.295
G1 X16.1699 Y1787.3651
G1 X15.24 Y1788.295
G1 X0.0
G3 X-3.175 Y1785.12 I0.0 J-3.175
G1 Y1659.71
G3 X0.0 Y1656.535 I3.175 J0.0
G1 X15.24
G1 X16.1699 Y1657.4649
G1 X15.24 Y1656.535
G1 Y1597.01
G3 X18.415 Y1593.835 I3.175 J0.0
G1 X438.785
G1 F300.0 Z-19.0
G3 F800.0 X441.96 Y1597.01 I0.0 J3.175
G1 Y1656.535
G1 X441.0301 Y1657.4649
G1 X441.96 Y1656.535
G1 X457.2
G3 X460.375 Y1659.71 I0.0 J3.175
G1 Y1785.12
G3 X457.2 Y1788.295 I-3.175 J0.0
G1 X441.96
G1 X441.0301 Y1787.3651
G1 X441.96 Y1788.295
G1 Y1829.41
G3 X438.785 Y1832.585 I-3.175 J0.0
G1 X346.075
G1 X345.1451 Y1831.6551
G1 X346.075 Y1832.585
G1 Y1847.82
G3 X342.9 Y1850.995 I-3.175 J0.0
G1 X114.3
G3 X111.125 Y1847.82 I0.0 J-3.175
G1 Y1832.585
G1 X112.0549 Y1831.6551
G1 X111.125 Y1832.585
G1 X18.415
G3 X15.24 Y1829.41 I0.0 J-3.175
G1 Y1788.295
G1 X16.1699 Y1787.3651
G1 X15.24 Y1788.295
G1 X0.0
G3 X-3.175 Y1785.12 I0.0 J-3.175
G1 Y1659.71
G3 X0.0 Y1656.535 I3.175 J0.0
G1 X15.24
G1 X16.1699 Y1657.4649
G1 X15.24 Y1656.535
G1 Y1597.01
G3 X18.415 Y1593.835 I3.175 J0.0
G1 X438.785
G1 F300.0 Z-20.0
G3 F800.0 X441.96 Y1597.01 I0.0 J3.175
G1 Y1656.535
G1 X441.0301 Y1657.4649
G1 X441.96 Y1656.535
G1 X457.2
G3 X460.375 Y1659.71 I0.0 J3.175
G1 Y1785.12
G3 X457.2 Y1788.295 I-3.175 J0.0
G1 X441.96
G1 X441.0301 Y1787.3651
G1 X441.96 Y1788.295
G1 Y1829.41
G3 X438.785 Y1832.585 I-3.175 J0.0
G1 X346.075
G1 X345.1451 Y1831.6551
G1 X346.075 Y1832.585
G1 Y1847.82
G3 X342.9 Y1850.995 I-3.175 J0.0
G1 X114.3
G3 X111.125 Y1847.82 I0.0 J-3.175
G1 Y1832.585
G1 X112.0549 Y1831.6551
G1 X111.125 Y1832.585
G1 X18.415
G3 X15.24 Y1829.41 I0.0 J-3.175
G1 Y1788.295
G1 X16.1699 Y1787.3651
G1 X15.24 Y1788.295
G1 X0.0
G3 X-3.175 Y1785.12 I0.0 J-3.175
G1 Y1659.71
G3 X0.0 Y1656.535 I3.175 J0.0
G1 X15.24
G1 X16.1699 Y1657.4649
G1 X15.24 Y1656.535
G1 Y1597.01
G3 X18.415 Y1593.835 I3.175 J0.0
G1 X438.785
G0 Z15.0
G0 Y1880.845
G0 Z1.0
G1 F300.0 Z-1.0
G3 F800.0 X441.96 Y1884.02 I0.0 J3.175
G1 Y1940.845
G1 X441.0301 Y1941.7749
G1 X441.96 Y1940.845
G1 X457.2
G3 X460.375 Y1944.02 I0.0 J3.175
G1 Y2064.03
G3 X457.2 Y2067.205 I-3.175 J0.0
G1 X441.96
G1 X441.0301 Y2066.2751
G1 X441.96 Y2067.205
G1 Y2105.62
G3 X438.785 Y2108.795 I-3.175 J0.0
G1 X346.075
G1 X345.1451 Y2107.8651
G1 X346.075 Y2108.795
G1 Y2124.03
G3 X342.9 Y2127.205 I-3.175 J0.0
G1 X114.3
G3 X111.125 Y2124.03 I0.0 J-3.175
G1 Y2108.795
G1 X112.0549 Y2107.8651
G1 X111.125 Y2108.795
G1 X18.415
G3 X15.24 Y2105.62 I0.0 J-3.175
G1 Y2067.205
G1 X16.1699 Y2066.2751
G1 X15.24 Y2067.205
G1 X0.0
G3 X-3.175 Y2064.03 I0.0 J-3.175
G1 Y1944.02
G3 X0.0 Y1940.845 I3.175 J0.0
G1 X15.24
G1 X16.1699 Y1941.7749
G1 X15.24 Y1940.845
G1 Y1884.02
G3 X18.415 Y1880.845 I3.175 J0.0
G1 X438.785
G1 F300.0 Z-2.0
G3 F800.0 X441.96 Y1884.02 I0.0 J3.175
G1 Y1940.845
G1 X441.0301 Y1941.7749
G1 X441.96 Y1940.845
G1 X457.2
G3 X460.375 Y1944.02 I0.0 J3.175
G1 Y2064.03
G3 X457.2 Y2067.205 I-3.175 J0.0
G1 X441.96
G1 X441.0301 Y2066.2751
G1 X441.96 Y2067.205
G1 Y2105.62
G3 X438.785 Y2108.795 I-3.175 J0.0
G1 X346.075
G1 X345.1451 Y2107.8651
G1 X346.075 Y2108.795
G1 Y2124.03
G3 X342.9 Y2127.205 I-3.175 J0.0
G1 X114.3
G3 X111.125 Y2124.03 I0.0 J-3.175
G1 Y2108.795
G1 X112.0549 Y2107.8651
G1 X111.125 Y2108.795
G1 X18.415
G3 X15.24 Y2105.62 I0.0 J-3.175
G1 Y2067.205
G1 X16.1699 Y2066.2751
G1 X15.24 Y2067.205
G1 X0.0
G3 X-3.175 Y2064.03 I0.0 J-3.175
G1 Y1944.02
G3 X0.0 Y1940.845 I3.175 J0.0
G1 X15.24
G1 X16.1699 Y1941.7749
G1 X15.24 Y1940.845
G1 Y1884.02
G3 X18.415 Y1880.845 I3.175 J0.0
G1 X438.785
G1 F300.0 Z-3.0
G3 F800.0 X441.96 Y1884.02 I0.0 J3.175
G1 Y1940.845
G1 X441.0301 Y1941.7749
G1 X441.96 Y1940.845
G1 X457.2
G3 X460.375 Y1944.02 I0.0 J3.175
G1 Y2064.03
G3 X457.2 Y2067.205 I-3.175 J0.0
G1 X441.96
G1 X441.0301 Y2066.2751
G1 X441.96 Y2067.205
G1 Y2105.62
G3 X438.785 Y2108.795 I-3.175 J0.0
G1 X346.075
G1 X345.1451 Y2107.8651
G1 X346.075 Y2108.795
G1 Y2124.03
G3 X342.9 Y2127.205 I-3.175 J0.0
G1 X114.3
G3 X111.125 Y2124.03 I0.0 J-3.175
G1 Y2108.795
G1 X112.0549 Y2107.8651
G1 X111.125 Y2108.795
G1 X18.415
G3 X15.24 Y2105.62 I0.0 J-3.175
G1 Y2067.205
G1 X16.1699 Y2066.2751
G1 X15.24 Y2067.205
G1 X0.0
G3 X-3.175 Y2064.03 I0.0 J-3.175
G1 Y1944.02
G3 X0.0 Y1940.845 I3.175 J0.0
G1 X15.24
G1 X16.1699 Y1941.7749
G1 X15.24 Y1940.845
G1 Y1884.02
G3 X18.415 Y1880.845 I3.175 J0.0
G1 X438.785
G1 F300.0 Z-4.0
G3 F800.0 X441.96 Y1884.02 I0.0 J3.175
G1 Y1940.845
G1 X441.0301 Y1941.7749
G1 X441.96 Y1940.845
G1 X457.2
G3 X460.375 Y1944.02 I0.0 J3.175
G1 Y2064.03
G3 X457.2 Y2067.205 I-3.175 J0.0
G1 X441.96
G1 X441.0301 Y2066.2751
G1 X441.96 Y2067.205
G1 Y2105.62
G3 X438.785 Y2108.795 I-3.175 J0.0
G1 X346.075
G1 X345.1451 Y2107.8651
G1 X346.075 Y2108.795
G1 Y2124.03
G3 X342.9 Y2127.205 I-3.175 J0.0
G1 X114.3
G3 X111.125 Y2124.03 I0.0 J-3.175
G1 Y2108.795
G1 X112.0549 Y2107.8651
G1 X111.125 Y2108.795
G1 X18.415
G3 X15.24 Y2105.62 I0.0 J-3.175
G1 Y2067.205
G1 X16.1699 Y2066.2751
G1 X15.24 Y2067.205
G1 X0.0
G3 X-3.175 Y2064.03 I0.0 J-3.175
G1 Y1944.02
G3 X0.0 Y1940.845 I3.175 J0.0
G1 X15.24
G1 X16.1699 Y1941.7749
G1 X15.24 Y1940.845
G1 Y1884.02
G3 X18.415 Y1880.845 I3.175 J0.0
G1 X438.785
G1 F300.0 Z-5.0
G3 F800.0 X441.96 Y1884.02 I0.0 J3.175
G1 Y1940.845
G1 X441.0301 Y1941.7749
G1 X441.96 Y1940.845
G1 X457.2
G3 X460.375 Y1944.02 I0.0 J3.175
G1 Y2064.03
G3 X457.2 Y2067.205 I-3.175 J0.0
G1 X441.96
G1 X441.0301 Y2066.2751
G1 X441.96 Y2067.205
G1 Y2105.62
G3 X438.785 Y2108.795 I-3.175 J0.0
G1 X346.075
G1 X345.1451 Y2107.8651
G1 X346.075 Y2108.795
G1 Y2124.03
G3 X342.9 Y2127.205 I-3.175 J0.0
G1 X114.3
G3 X111.125 Y2124.03 I0.0 J-3.175
G1 Y2108.795
G1 X112.0549 Y2107.8651
G1 X111.125 Y2108.795
G1 X18.415
G3 X15.24 Y2105.62 I0.0 J-3.175
G1 Y2067.205
G1 X16.1699 Y2066.2751
G1 X15.24 Y2067.205
G1 X0.0
G3 X-3.175 Y2064.03 I0.0 J-3.175
G1 Y1944.02
G3 X0.0 Y1940.845 I3.175 J0.0
G1 X15.24
G1 X16.1699 Y1941.7749
G1 X15.24 Y1940.845
G1 Y1884.02
G3 X18.415 Y1880.845 I3.175 J0.0
G1 X438.785
G1 F300.0 Z-6.0
G3 F800.0 X441.96 Y1884.02 I0.0 J3.175
G1 Y1940.845
G1 X441.0301 Y1941.7749
G1 X441.96 Y1940.845
G1 X457.2
G3 X460.375 Y1944.02 I0.0 J3.175
G1 Y2064.03
G3 X457.2 Y2067.205 I-3.175 J0.0
G1 X441.96
G1 X441.0301 Y2066.2751
G1 X441.96 Y2067.205
G1 Y2105.62
G3 X438.785 Y2108.795 I-3.175 J0.0
G1 X346.075
G1 X345.1451 Y2107.8651
G1 X346.075 Y2108.795
G1 Y2124.03
G3 X342.9 Y2127.205 I-3.175 J0.0
G1 X114.3
G3 X111.125 Y2124.03 I0.0 J-3.175
G1 Y2108.795
G1 X112.0549 Y2107.8651
G1 X111.125 Y2108.795
G1 X18.415
G3 X15.24 Y2105.62 I0.0 J-3.175
G1 Y2067.205
G1 X16.1699 Y2066.2751
G1 X15.24 Y2067.205
G1 X0.0
G3 X-3.175 Y2064.03 I0.0 J-3.175
G1 Y1944.02
G3 X0.0 Y1940.845 I3.175 J0.0
G1 X15.24
G1 X16.1699 Y1941.7749
G1 X15.24 Y1940.845
G1 Y1884.02
G3 X18.415 Y1880.845 I3.175 J0.0
G1 X438.785
G1 F300.0 Z-7.0
G3 F800.0 X441.96 Y1884.02 I0.0 J3.175
G1 Y1940.845
G1 X441.0301 Y1941.7749
G1 X441.96 Y1940.845
G1 X457.2
G3 X460.375 Y1944.02 I0.0 J3.175
G1 Y2064.03
G3 X457.2 Y2067.205 I-3.175 J0.0
G1 X441.96
G1 X441.0301 Y2066.2751
G1 X441.96 Y2067.205
G1 Y2105.62
G3 X438.785 Y2108.795 I-3.175 J0.0
G1 X346.075
G1 X345.1451 Y2107.8651
G1 X346.075 Y2108.795
G1 Y2124.03
G3 X342.9 Y2127.205 I-3.175 J0.0
G1 X114.3
G3 X111.125 Y2124.03 I0.0 J-3.175
G1 Y2108.795
G1 X112.0549 Y2107.8651
G1 X111.125 Y2108.795
G1 X18.415
G3 X15.24 Y2105.62 I0.0 J-3.175
G1 Y2067.205
G1 X16.1699 Y2066.2751
G1 X15.24 Y2067.205
G1 X0.0
G3 X-3.175 Y2064.03 I0.0 J-3.175
G1 Y1944.02
G3 X0.0 Y1940.845 I3.175 J0.0
G1 X15.24
G1 X16.1699 Y1941.7749
G1 X15.24 Y1940.845
G1 Y1884.02
G3 X18.415 Y1880.845 I3.175 J0.0
G1 X438.785
G1 F300.0 Z-8.0
G3 F800.0 X441.96 Y1884.02 I0.0 J3.175
G1 Y1940.845
G1 X441.0301 Y1941.7749
G1 X441.96 Y1940.845
G1 X457.2
G3 X460.375 Y1944.02 I0.0 J3.175
G1 Y2064.03
G3 X457.2 Y2067.205 I-3.175 J0.0
G1 X441.96
G1 X441.0301 Y2066.2751
G1 X441.96 Y2067.205
G1 Y2105.62
G3 X438.785 Y2108.795 I-3.175 J0.0
G1 X346.075
G1 X345.1451 Y2107.8651
G1 X346.075 Y2108.795
G1 Y2124.03
G3 X342.9 Y2127.205 I-3.175 J0.0
G1 X114.3
G3 X111.125 Y2124.03 I0.0 J-3.175
G1 Y2108.795
G1 X112.0549 Y2107.8651
G1 X111.125 Y2108.795
G1 X18.415
G3 X15.24 Y2105.62 I0.0 J-3.175
G1 Y2067.205
G1 X16.1699 Y2066.2751
G1 X15.24 Y2067.205
G1 X0.0
G3 X-3.175 Y2064.03 I0.0 J-3.175
G1 Y1944.02
G3 X0.0 Y1940.845 I3.175 J0.0
G1 X15.24
G1 X16.1699 Y1941.7749
G1 X15.24 Y1940.845
G1 Y1884.02
G3 X18.415 Y1880.845 I3.175 J0.0
G1 X438.785
G1 F300.0 Z-9.0
G3 F800.0 X441.96 Y1884.02 I0.0 J3.175
G1 Y1940.845
G1 X441.0301 Y1941.7749
G1 X441.96 Y1940.845
G1 X457.2
G3 X460.375 Y1944.02 I0.0 J3.175
G1 Y2064.03
G3 X457.2 Y2067.205 I-3.175 J0.0
G1 X441.96
G1 X441.0301 Y2066.2751
G1 X441.96 Y2067.205
G1 Y2105.62
G3 X438.785 Y2108.795 I-3.175 J0.0
G1 X346.075
G1 X345.1451 Y2107.8651
G1 X346.075 Y2108.795
G1 Y2124.03
G3 X342.9 Y2127.205 I-3.175 J0.0
G1 X114.3
G3 X111.125 Y2124.03 I0.0 J-3.175
G1 Y2108.795
G1 X112.0549 Y2107.8651
G1 X111.125 Y2108.795
G1 X18.415
G3 X15.24 Y2105.62 I0.0 J-3.175
G1 Y2067.205
G1 X16.1699 Y2066.2751
G1 X15.24 Y2067.205
G1 X0.0
G3 X-3.175 Y2064.03 I0.0 J-3.175
G1 Y1944.02
G3 X0.0 Y1940.845 I3.175 J0.0
G1 X15.24
G1 X16.1699 Y1941.7749
G1 X15.24 Y1940.845
G1 Y1884.02
G3 X18.415 Y1880.845 I3.175 J0.0
G1 X438.785
G1 F300.0 Z-10.0
G3 F800.0 X441.96 Y1884.02 I0.0 J3.175
G1 Y1940.845
G1 X441.0301 Y1941.7749
G1 X441.96 Y1940.845
G1 X457.2
G3 X460.375 Y1944.02 I0.0 J3.175
G1 Y2064.03
G3 X457.2 Y2067.205 I-3.175 J0.0
G1 X441.96
G1 X441.0301 Y2066.2751
G1 X441.96 Y2067.205
G1 Y2105.62
G3 X438.785 Y2108.795 I-3.175 J0.0
G1 X346.075
G1 X345.1451 Y2107.8651
G1 X346.075 Y2108.795
G1 Y2124.03
G3 X342.9 Y2127.205 I-3.175 J0.0
G1 X114.3
G3 X111.125 Y2124.03 I0.0 J-3.175
G1 Y2108.795
G1 X112.0549 Y2107.8651
G1 X111.125 Y2108.795
G1 X18.415
G3 X15.24 Y2105.62 I0.0 J-3.175
G1 Y2067.205
G1 X16.1699 Y2066.2751
G1 X15.24 Y2067.205
G1 X0.0
G3 X-3.175 Y2064.03 I0.0 J-3.175
G1 Y1944.02
G3 X0.0 Y1940.845 I3.175 J0.0
G1 X15.24
G1 X16.1699 Y1941.7749
G1 X15.24 Y1940.845
G1 Y1884.02
G3 X18.415 Y1880.845 I3.175 J0.0
G1 X438.785
G1 F300.0 Z-11.0
G3 F800.0 X441.96 Y1884.02 I0.0 J3.175
G1 Y1940.845
G1 X441.0301 Y1941.7749
G1 X441.96 Y1940.845
G1 X457.2
G3 X460.375 Y1944.02 I0.0 J3.175
G1 Y2064.03
G3 X457.2 Y2067.205 I-3.175 J0.0
G1 X441.96
G1 X441.0301 Y2066.2751
G1 X441.96 Y2067.205
G1 Y2105.62
G3 X438.785 Y2108.795 I-3.175 J0.0
G1 X346.075
G1 X345.1451 Y2107.8651
G1 X346.075 Y2108.795
G1 Y2124.03
G3 X342.9 Y2127.205 I-3.175 J0.0
G1 X114.3
G3 X111.125 Y2124.03 I0.0 J-3.175
G1 Y2108.795
G1 X112.0549 Y2107.8651
G1 X111.125 Y2108.795
G1 X18.415
G3 X15.24 Y2105.62 I0.0 J-3.175
G1 Y2067.205
G1 X16.1699 Y2066.2751
G1 X15.24 Y2067.205
G1 X0.0
G3 X-3.175 Y2064.03 I0.0 J-3.175
G1 Y1944.02
G3 X0.0 Y1940.845 I3.175 J0.0
G1 X15.24
G1 X16.1699 Y1941.7749
G1 X15.24 Y1940.845
G1 Y1884.02
G3 X18.415 Y1880.845 I3.175 J0.0
G1 X438.785
G1 F300.0 Z-12.0
G3 F800.0 X441.96 Y1884.02 I0.0 J3.175
G1 Y1940.845
G1 X441.0301 Y1941.7749
G1 X441.96 Y1940.845
G1 X457.2
G3 X460.375 Y1944.02 I0.0 J3.175
G1 Y2064.03
G3 X457.2 Y2067.205 I-3.175 J0.0
G1 X441.96
G1 X441.0301 Y2066.2751
G1 X441.96 Y2067.205
G1 Y2105.62
G3 X438.785 Y2108.795 I-3.175 J0.0
G1 X346.075
G1 X345.1451 Y2107.8651
G1 X346.075 Y2108.795
G1 Y2124.03
G3 X342.9 Y2127.205 I-3.175 J0.0
G1 X114.3
G3 X111.125 Y2124.03 I0.0 J-3.175
G1 Y2108.795
G1 X112.0549 Y2107.8651
G1 X111.125 Y2108.795
G1 X18.415
G3 X15.24 Y2105.62 I0.0 J-3.175
G1 Y2067.205
G1 X16.1699 Y2066.2751
G1 X15.24 Y2067.205
G1 X0.0
G3 X-3.175 Y2064.03 I0.0 J-3.175
G1 Y1944.02
G3 X0.0 Y1940.845 I3.175 J0.0
G1 X15.24
G1 X16.1699 Y1941.7749
G1 X15.24 Y1940.845
G1 Y1884.02
G3 X18.415 Y1880.845 I3.175 J0.0
G1 X438.785
G1 F300.0 Z-13.0
G3 F800.0 X441.96 Y1884.02 I0.0 J3.175
G1 Y1940.845
G1 X441.0301 Y1941.7749
G1 X441.96 Y1940.845
G1 X457.2
G3 X460.375 Y1944.02 I0.0 J3.175
G1 Y2064.03
G3 X457.2 Y2067.205 I-3.175 J0.0
G1 X441.96
G1 X441.0301 Y2066.2751
G1 X441.96 Y2067.205
G1 Y2105.62
G3 X438.785 Y2108.795 I-3.175 J0.0
G1 X346.075
G1 X345.1451 Y2107.8651
G1 X346.075 Y2108.795
G1 Y2124.03
G3 X342.9 Y2127.205 I-3.175 J0.0
G1 X114.3
G3 X111.125 Y2124.03 I0.0 J-3.175
G1 Y2108.795
G1 X112.0549 Y2107.8651
G1 X111.125 Y2108.795
G1 X18.415
G3 X15.24 Y2105.62 I0.0 J-3.175
G1 Y2067.205
G1 X16.1699 Y2066.2751
G1 X15.24 Y2067.205
G1 X0.0
G3 X-3.175 Y2064.03 I0.0 J-3.175
G1 Y1944.02
G3 X0.0 Y1940.845 I3.175 J0.0
G1 X15.24
G1 X16.1699 Y1941.7749
G1 X15.24 Y1940.845
G1 Y1884.02
G3 X18.415 Y1880.845 I3.175 J0.0
G1 X438.785
G1 F300.0 Z-14.0
G3 F800.0 X441.96 Y1884.02 I0.0 J3.175
G1 Y1940.845
G1 X441.0301 Y1941.7749
G1 X441.96 Y1940.845
G1 X457.2
G3 X460.375 Y1944.02 I0.0 J3.175
G1 Y2064.03
G3 X457.2 Y2067.205 I-3.175 J0.0
G1 X441.96
G1 X441.0301 Y2066.2751
G1 X441.96 Y2067.205
G1 Y2105.62
G3 X438.785 Y2108.795 I-3.175 J0.0
G1 X346.075
G1 X345.1451 Y2107.8651
G1 X346.075 Y2108.795
G1 Y2124.03
G3 X342.9 Y2127.205 I-3.175 J0.0
G1 X114.3
G3 X111.125 Y2124.03 I0.0 J-3.175
G1 Y2108.795
G1 X112.0549 Y2107.8651
G1 X111.125 Y2108.795
G1 X18.415
G3 X15.24 Y2105.62 I0.0 J-3.175
G1 Y2067.205
G1 X16.1699 Y2066.2751
G1 X15.24 Y2067.205
G1 X0.0
G3 X-3.175 Y2064.03 I0.0 J-3.175
G1 Y1944.02
G3 X0.0 Y1940.845 I3.175 J0.0
G1 X15.24
G1 X16.1699 Y1941.7749
G1 X15.24 Y1940.845
G1 Y1884.02
G3 X18.415 Y1880.845 I3.175 J0.0
G1 X438.785
G1 F300.0 Z-15.0
G3 F800.0 X441.96 Y1884.02 I0.0 J3.175
G1 Y1940.845
G1 X441.0301 Y1941.7749
G1 X441.96 Y1940.845
G1 X457.2
G3 X460.375 Y1944.02 I0.0 J3.175
G1 Y2064.03
G3 X457.2 Y2067.205 I-3.175 J0.0
G1 X441.96
G1 X441.0301 Y2066.2751
G1 X441.96 Y2067.205
G1 Y2105.62
G3 X438.785 Y2108.795 I-3.175 J0.0
G1 X346.075
G1 X345.1451 Y2107.8651
G1 X346.075 Y2108.795
G1 Y2124.03
G3 X342.9 Y2127.205 I-3.175 J0.0
G1 X114.3
G3 X111.125 Y2124.03 I0.0 J-3.175
G1 Y2108.795
G1 X112.0549 Y2107.8651
G1 X111.125 Y2108.795
G1 X18.415
G3 X15.24 Y2105.62 I0.0 J-3.175
G1 Y2067.205
G1 X16.1699 Y2066.2751
G1 X15.24 Y2067.205
G1 X0.0
G3 X-3.175 Y2064.03 I0.0 J-3.175
G1 Y1944.02
G3 X0.0 Y1940.845 I3.175 J0.0
G1 X15.24
G1 X16.1699 Y1941.7749
G1 X15.24 Y1940.845
G1 Y1884.02
G3 X18.415 Y1880.845 I3.175 J0.0
G1 X438.785
G1 F300.0 Z-16.0
G3 F800.0 X441.96 Y1884.02 I0.0 J3.175
G1 Y1940.845
G1 X441.0301 Y1941.7749
G1 X441.96 Y1940.845
G1 X457.2
G3 X460.375 Y1944.02 I0.0 J3.175
G1 Y2064.03
G3 X457.2 Y2067.205 I-3.175 J0.0
G1 X441.96
G1 X441.0301 Y2066.2751
G1 X441.96 Y2067.205
G1 Y2105.62
G3 X438.785 Y2108.795 I-3.175 J0.0
G1 X346.075
G1 X345.1451 Y2107.8651
G1 X346.075 Y2108.795
G1 Y2124.03
G3 X342.9 Y2127.205 I-3.175 J0.0
G1 X114.3
G3 X111.125 Y2124.03 I0.0 J-3.175
G1 Y2108.795
G1 X112.0549 Y2107.8651
G1 X111.125 Y2108.795
G1 X18.415
G3 X15.24 Y2105.62 I0.0 J-3.175
G1 Y2067.205
G1 X16.1699 Y2066.2751
G1 X15.24 Y2067.205
G1 X0.0
G3 X-3.175 Y2064.03 I0.0 J-3.175
G1 Y1944.02
G3 X0.0 Y1940.845 I3.175 J0.0
G1 X15.24
G1 X16.1699 Y1941.7749
G1 X15.24 Y1940.845
G1 Y1884.02
G3 X18.415 Y1880.845 I3.175 J0.0
G1 X438.785
G1 F300.0 Z-17.0
G3 F800.0 X441.96 Y1884.02 I0.0 J3.175
G1 Y1940.845
G1 X441.0301 Y1941.7749
G1 X441.96 Y1940.845
G1 X457.2
G3 X460.375 Y1944.02 I0.0 J3.175
G1 Y2064.03
G3 X457.2 Y2067.205 I-3.175 J0.0
G1 X441.96
G1 X441.0301 Y2066.2751
G1 X441.96 Y2067.205
G1 Y2105.62
G3 X438.785 Y2108.795 I-3.175 J0.0
G1 X346.075
G1 X345.1451 Y2107.8651
G1 X346.075 Y2108.795
G1 Y2124.03
G3 X342.9 Y2127.205 I-3.175 J0.0
G1 X114.3
G3 X111.125 Y2124.03 I0.0 J-3.175
G1 Y2108.795
G1 X112.0549 Y2107.8651
G1 X111.125 Y2108.795
G1 X18.415
G3 X15.24 Y2105.62 I0.0 J-3.175
G1 Y2067.205
G1 X16.1699 Y2066.2751
G1 X15.24 Y2067.205
G1 X0.0
G3 X-3.175 Y2064.03 I0.0 J-3.175
G1 Y1944.02
G3 X0.0 Y1940.845 I3.175 J0.0
G1 X15.24
G1 X16.1699 Y1941.7749
G1 X15.24 Y1940.845
G1 Y1884.02
G3 X18.415 Y1880.845 I3.175 J0.0
G1 X438.785
G1 F300.0 Z-18.0
G3 F800.0 X441.96 Y1884.02 I0.0 J3.175
G1 Y1940.845
G1 X441.0301 Y1941.7749
G1 X441.96 Y1940.845
G1 X457.2
G3 X460.375 Y1944.02 I0.0 J3.175
G1 Y2064.03
G3 X457.2 Y2067.205 I-3.175 J0.0
G1 X441.96
G1 X441.0301 Y2066.2751
G1 X441.96 Y2067.205
G1 Y2105.62
G3 X438.785 Y2108.795 I-3.175 J0.0
G1 X346.075
G1 X345.1451 Y2107.8651
G1 X346.075 Y2108.795
G1 Y2124.03
G3 X342.9 Y2127.205 I-3.175 J0.0
G1 X114.3
G3 X111.125 Y2124.03 I0.0 J-3.175
G1 Y2108.795
G1 X112.0549 Y2107.8651
G1 X111.125 Y2108.795
G1 X18.415
G3 X15.24 Y2105.62 I0.0 J-3.175
G1 Y2067.205
G1 X16.1699 Y2066.2751
G1 X15.24 Y2067.205
G1 X0.0
G3 X-3.175 Y2064.03 I0.0 J-3.175
G1 Y1944.02
G3 X0.0 Y1940.845 I3.175 J0.0
G1 X15.24
G1 X16.1699 Y1941.7749
G1 X15.24 Y1940.845
G1 Y1884.02
G3 X18.415 Y1880.845 I3.175 J0.0
G1 X438.785
G1 F300.0 Z-19.0
G3 F800.0 X441.96 Y1884.02 I0.0 J3.175
G1 Y1940.845
G1 X441.0301 Y1941.7749
G1 X441.96 Y1940.845
G1 X457.2
G3 X460.375 Y1944.02 I0.0 J3.175
G1 Y2064.03
G3 X457.2 Y2067.205 I-3.175 J0.0
G1 X441.96
G1 X441.0301 Y2066.2751
G1 X441.96 Y2067.205
G1 Y2105.62
G3 X438.785 Y2108.795 I-3.175 J0.0
G1 X346.075
G1 X345.1451 Y2107.8651
G1 X346.075 Y2108.795
G1 Y2124.03
G3 X342.9 Y2127.205 I-3.175 J0.0
G1 X114.3
G3 X111.125 Y2124.03 I0.0 J-3.175
G1 Y2108.795
G1 X112.0549 Y2107.8651
G1 X111.125 Y2108.795
G1 X18.415
G3 X15.24 Y2105.62 I0.0 J-3.175
G1 Y2067.205
G1 X16.1699 Y2066.2751
G1 X15.24 Y2067.205
G1 X0.0
G3 X-3.175 Y2064.03 I0.0 J-3.175
G1 Y1944.02
G3 X0.0 Y1940.845 I3.175 J0.0
G1 X15.24
G1 X16.1699 Y1941.7749
G1 X15.24 Y1940.845
G1 Y1884.02
G3 X18.415 Y1880.845 I3.175 J0.0
G1 X438.785
G1 F300.0 Z-20.0
G3 F800.0 X441.96 Y1884.02 I0.0 J3.175
G1 Y1940.845
G1 X441.0301 Y1941.7749
G1 X441.96 Y1940.845
G1 X457.2
G3 X460.375 Y1944.02 I0.0 J3.175
G1 Y2064.03
G3 X457.2 Y2067.205 I-3.175 J0.0
G1 X441.96
G1 X441.0301 Y2066.2751
G1 X441.96 Y2067.205
G1 Y2105.62
G3 X438.785 Y2108.795 I-3.175 J0.0
G1 X346.075
G1 X345.1451 Y2107.8651
G1 X346.075 Y2108.795
G1 Y2124.03
G3 X342.9 Y2127.205 I-3.175 J0.0
G1 X114.3
G3 X111.125 Y2124.03 I0.0 J-3.175
G1 Y2108.795
G1 X112.0549 Y2107.8651
G1 X111.125 Y2108.795
G1 X18.415
G3 X15.24 Y2105.62 I0.0 J-3.175
G1 Y2067.205
G1 X16.1699 Y2066.2751
G1 X15.24 Y2067.205
G1 X0.0
G3 X-3.175 Y2064.03 I0.0 J-3.175
G1 Y1944.02
G3 X0.0 Y1940.845 I3.175 J0.0
G1 X15.24
G1 X16.1699 Y1941.7749
G1 X15.24 Y1940.845
G1 Y1884.02
G3 X18.415 Y1880.845 I3.175 J0.0
G1 X438.785
G0 Z15.0
G0 X343.1436 Y638.1656
G0 Z1.0
G1 F300.0 Z-1.0
G3 F800.0 X342.9 Y638.175 I-0.2436 J-3.1656
G1 X114.3
G3 X111.125 Y635.0 I0.0 J-3.175
G1 Y619.76
G1 X112.0549 Y618.8301
G1 X111.125 Y619.76
G1 X18.415
G3 X15.24 Y616.585 I0.0 J-3.175
G1 Y564.674
G1 X16.1699 Y563.7441
G1 X15.24 Y564.674
G1 X0.0
G3 X-3.175 Y561.499 I0.0 J-3.175
G1 Y414.498
G3 X0.0 Y411.323 I3.175 J0.0
G1 X15.24
G1 X16.1699 Y412.2529
G1 X15.24 Y411.323
G1 Y340.998
G3 X18.415 Y337.823 I3.175 J0.0
G1 X438.785
G3 X441.96 Y340.998 I0.0 J3.175
G1 Y411.323
G1 X441.0301 Y412.2529
G1 X441.96 Y411.323
G1 X457.2
G3 X460.375 Y414.498 I0.0 J3.175
G1 Y561.499
G3 X457.2 Y564.674 I-3.175 J0.0
G1 X441.96
G1 X441.0301 Y563.7441
G1 X441.96 Y564.674
G1 Y616.585
G3 X438.785 Y619.76 I-3.175 J0.0
G1 X346.075
G1 X345.1451 Y618.8301
G1 X346.075 Y619.76
G1 Y635.0
G3 X343.1436 Y638.1656 I-3.175 J0.0
G1 F300.0 Z-2.0
G3 F800.0 X342.9 Y638.175 I-0.2436 J-3.1656
G1 X114.3
G3 X111.125 Y635.0 I0.0 J-3.175
G1 Y619.76
G1 X112.0549 Y618.8301
G1 X111.125 Y619.76
G1 X18.415
G3 X15.24 Y616.585 I0.0 J-3.175
G1 Y564.674
G1 X16.1699 Y563.7441
G1 X15.24 Y564.674
G1 X0.0
G3 X-3.175 Y561.499 I0.0 J-3.175
G1 Y414.498
G3 X0.0 Y411.323 I3.175 J0.0
G1 X15.24
G1 X16.1699 Y412.2529
G1 X15.24 Y411.323
G1 Y340.998
G3 X18.415 Y337.823 I3.175 J0.0
G1 X438.785
G3 X441.96 Y340.998 I0.0 J3.175
G1 Y411.323
G1 X441.0301 Y412.2529
G1 X441.96 Y411.323
G1 X457.2
G3 X460.375 Y414.498 I0.0 J3.175
G1 Y561.499
G3 X457.2 Y564.674 I-3.175 J0.0
G1 X441.96
G1 X441.0301 Y563.7441
G1 X441.96 Y564.674
G1 Y616.585
G3 X438.785 Y619.76 I-3.175 J0.0
G1 X346.075
G1 X345.1451 Y618.8301
G1 X346.075 Y619.76
G1 Y635.0
G3 X343.1436 Y638.1656 I-3.175 J0.0
G1 F300.0 Z-3.0
G3 F800.0 X342.9 Y638.175 I-0.2436 J-3.1656
G1 X114.3
G3 X111.125 Y635.0 I0.0 J-3.175
G1 Y619.76
G1 X112.0549 Y618.8301
G1 X111.125 Y619.76
G1 X18.415
G3 X15.24 Y616.585 I0.0 J-3.175
G1 Y564.674
G1 X16.1699 Y563.7441
G1 X15.24 Y564.674
G1 X0.0
G3 X-3.175 Y561.499 I0.0 J-3.175
G1 Y414.498
G3 X0.0 Y411.323 I3.175 J0.0
G1 X15.24
G1 X16.1699 Y412.2529
G1 X15.24 Y411.323
G1 Y340.998
G3 X18.415 Y337.823 I3.175 J0.0
G1 X438.785
G3 X441.96 Y340.998 I0.0 J3.175
G1 Y411.323
G1 X441.0301 Y412.2529
G1 X441.96 Y411.323
G1 X457.2
G3 X460.375 Y414.498 I0.0 J3.175
G1 Y561.499
G3 X457.2 Y564.674 I-3.175 J0.0
G1 X441.96
G1 X441.0301 Y563.7441
G1 X441.96 Y564.674
G1 Y616.585
G3 X438.785 Y619.76 I-3.175 J0.0
G1 X346.075
G1 X345.1451 Y618.8301
G1 X346.075 Y619.76
G1 Y635.0
G3 X343.1436 Y638.1656 I-3.175 J0.0
G1 F300.0 Z-4.0
G3 F800.0 X342.9 Y638.175 I-0.2436 J-3.1656
G1 X114.3
G3 X111.125 Y635.0 I0.0 J-3.175
G1 Y619.76
G1 X112.0549 Y618.8301
G1 X111.125 Y619.76
G1 X18.415
G3 X15.24 Y616.585 I0.0 J-3.175
G1 Y564.674
G1 X16.1699 Y563.7441
G1 X15.24 Y564.674
G1 X0.0
G3 X-3.175 Y561.499 I0.0 J-3.175
G1 Y414.498
G3 X0.0 Y411.323 I3.175 J0.0
G1 X15.24
G1 X16.1699 Y412.2529
G1 X15.24 Y411.323
G1 Y340.998
G3 X18.415 Y337.823 I3.175 J0.0
G1 X438.785
G3 X441.96 Y340.998 I0.0 J3.175
G1 Y411.323
G1 X441.0301 Y412.2529
G1 X441.96 Y411.323
G1 X457.2
G3 X460.375 Y414.498 I0.0 J3.175
G1 Y561.499
G3 X457.2 Y564.674 I-3.175 J0.0
G1 X441.96
G1 X441.0301 Y563.7441
G1 X441.96 Y564.674
G1 Y616.585
G3 X438.785 Y619.76 I-3.175 J0.0
G1 X346.075
G1 X345.1451 Y618.8301
G1 X346.075 Y619.76
G1 Y635.0
G3 X343.1436 Y638.1656 I-3.175 J0.0
G1 F300.0 Z-5.0
G3 F800.0 X342.9 Y638.175 I-0.2436 J-3.1656
G1 X114.3
G3 X111.125 Y635.0 I0.0 J-3.175
G1 Y619.76
G1 X112.0549 Y618.8301
G1 X111.125 Y619.76
G1 X18.415
G3 X15.24 Y616.585 I0.0 J-3.175
G1 Y564.674
G1 X16.1699 Y563.7441
G1 X15.24 Y564.674
G1 X0.0
G3 X-3.175 Y561.499 I0.0 J-3.175
G1 Y414.498
G3 X0.0 Y411.323 I3.175 J0.0
G1 X15.24
G1 X16.1699 Y412.2529
G1 X15.24 Y411.323
G1 Y340.998
G3 X18.415 Y337.823 I3.175 J0.0
G1 X438.785
G3 X441.96 Y340.998 I0.0 J3.175
G1 Y411.323
G1 X441.0301 Y412.2529
G1 X441.96 Y411.323
G1 X457.2
G3 X460.375 Y414.498 I0.0 J3.175
G1 Y561.499
G3 X457.2 Y564.674 I-3.175 J0.0
G1 X441.96
G1 X441.0301 Y563.7441
G1 X441.96 Y564.674
G1 Y616.585
G3 X438.785 Y619.76 I-3.175 J0.0
G1 X346.075
G1 X345.1451 Y618.8301
G1 X346.075 Y619.76
G1 Y635.0
G3 X343.1436 Y638.1656 I-3.175 J0.0
G1 F300.0 Z-6.0
G3 F800.0 X342.9 Y638.175 I-0.2436 J-3.1656
G1 X114.3
G3 X111.125 Y635.0 I0.0 J-3.175
G1 Y619.76
G1 X112.0549 Y618.8301
G1 X111.125 Y619.76
G1 X18.415
G3 X15.24 Y616.585 I0.0 J-3.175
G1 Y564.674
G1 X16.1699 Y563.7441
G1 X15.24 Y564.674
G1 X0.0
G3 X-3.175 Y561.499 I0.0 J-3.175
G1 Y414.498
G3 X0.0 Y411.323 I3.175 J0.0
G1 X15.24
G1 X16.1699 Y412.2529
G1 X15.24 Y411.323
G1 Y340.998
G3 X18.415 Y337.823 I3.175 J0.0
G1 X438.785
G3 X441.96 Y340.998 I0.0 J3.175
G1 Y411.323
G1 X441.0301 Y412.2529
G1 X441.96 Y411.323
G1 X457.2
G3 X460.375 Y414.498 I0.0 J3.175
G1 Y561.499
G3 X457.2 Y564.674 I-3.175 J0.0
G1 X441.96
G1 X441.0301 Y563.7441
G1 X441.96 Y564.674
G1 Y616.585
G3 X438.785 Y619.76 I-3.175 J0.0
G1 X346.075
G1 X345.1451 Y618.8301
G1 X346.075 Y619.76
G1 Y635.0
G3 X343.1436 Y638.1656 I-3.175 J0.0
G1 F300.0 Z-7.0
G3 F800.0 X342.9 Y638.175 I-0.2436 J-3.1656
G1 X114.3
G3 X111.125 Y635.0 I0.0 J-3.175
G1 Y619.76
G1 X112.0549 Y618.8301
G1 X111.125 Y619.76
G1 X18.415
G3 X15.24 Y616.585 I0.0 J-3.175
G1 Y564.674
G1 X16.1699 Y563.7441
G1 X15.24 Y564.674
G1 X0.0
G3 X-3.175 Y561.499 I0.0 J-3.175
G1 Y414.498
G3 X0.0 Y411.323 I3.175 J0.0
G1 X15.24
G1 X16.1699 Y412.2529
G1 X15.24 Y411.323
G1 Y340.998
G3 X18.415 Y337.823 I3.175 J0.0
G1 X438.785
G3 X441.96 Y340.998 I0.0 J3.175
G1 Y411.323
G1 X441.0301 Y412.2529
G1 X441.96 Y411.323
G1 X457.2
G3 X460.375 Y414.498 I0.0 J3.175
G1 Y561.499
G3 X457.2 Y564.674 I-3.175 J0.0
G1 X441.96
G1 X441.0301 Y563.7441
G1 X441.96 Y564.674
G1 Y616.585
G3 X438.785 Y619.76 I-3.175 J0.0
G1 X346.075
G1 X345.1451 Y618.8301
G1 X346.075 Y619.76
G1 Y635.0
G3 X343.1436 Y638.1656 I-3.175 J0.0
G1 F300.0 Z-8.0
G3 F800.0 X342.9 Y638.175 I-0.2436 J-3.1656
G1 X114.3
G3 X111.125 Y635.0 I0.0 J-3.175
G1 Y619.76
G1 X112.0549 Y618.8301
G1 X111.125 Y619.76
G1 X18.415
G3 X15.24 Y616.585 I0.0 J-3.175
G1 Y564.674
G1 X16.1699 Y563.7441
G1 X15.24 Y564.674
G1 X0.0
G3 X-3.175 Y561.499 I0.0 J-3.175
G1 Y414.498
G3 X0.0 Y411.323 I3.175 J0.0
G1 X15.24
G1 X16.1699 Y412.2529
G1 X15.24 Y411.323
G1 Y340.998
G3 X18.415 Y337.823 I3.175 J0.0
G1 X438.785
G3 X441.96 Y340.998 I0.0 J3.175
G1 Y411.323
G1 X441.0301 Y412.2529
G1 X441.96 Y411.323
G1 X457.2
G3 X460.375 Y414.498 I0.0 J3.175
G1 Y561.499
G3 X457.2 Y564.674 I-3.175 J0.0
G1 X441.96
G1 X441.0301 Y563.7441
G1 X441.96 Y564.674
G1 Y616.585
G3 X438.785 Y619.76 I-3.175 J0.0
G1 X346.075
G1 X345.1451 Y618.8301
G1 X346.075 Y619.76
G1 Y635.0
G3 X343.1436 Y638.1656 I-3.175 J0.0
G1 F300.0 Z-9.0
G3 F800.0 X342.9 Y638.175 I-0.2436 J-3.1656
G1 X114.3
G3 X111.125 Y635.0 I0.0 J-3.175
G1 Y619.76
G1 X112.0549 Y618.8301
G1 X111.125 Y619.76
G1 X18.415
G3 X15.24 Y616.585 I0.0 J-3.175
G1 Y564.674
G1 X16.1699 Y563.7441
G1 X15.24 Y564.674
G1 X0.0
G3 X-3.175 Y561.499 I0.0 J-3.175
G1 Y414.498
G3 X0.0 Y411.323 I3.175 J0.0
G1 X15.24
G1 X16.1699 Y412.2529
G1 X15.24 Y411.323
G1 Y340.998
G3 X18.415 Y337.823 I3.175 J0.0
G1 X438.785
G3 X441.96 Y340.998 I0.0 J3.175
G1 Y411.323
G1 X441.0301 Y412.2529
G1 X441.96 Y411.323
G1 X457.2
G3 X460.375 Y414.498 I0.0 J3.175
G1 Y561.499
G3 X457.2 Y564.674 I-3.175 J0.0
G1 X441.96
G1 X441.0301 Y563.7441
G1 X441.96 Y564.674
G1 Y616.585
G3 X438.785 Y619.76 I-3.175 J0.0
G1 X346.075
G1 X345.1451 Y618.8301
G1 X346.075 Y619.76
G1 Y635.0
G3 X343.1436 Y638.1656 I-3.175 J0.0
G1 F300.0 Z-10.0
G3 F800.0 X342.9 Y638.175 I-0.2436 J-3.1656
G1 X114.3
G3 X111.125 Y635.0 I0.0 J-3.175
G1 Y619.76
G1 X112.0549 Y618.8301
G1 X111.125 Y619.76
G1 X18.415
G3 X15.24 Y616.585 I0.0 J-3.175
G1 Y564.674
G1 X16.1699 Y563.7441
G1 X15.24 Y564.674
G1 X0.0
G3 X-3.175 Y561.499 I0.0 J-3.175
G1 Y414.498
G3 X0.0 Y411.323 I3.175 J0.0
G1 X15.24
G1 X16.1699 Y412.2529
G1 X15.24 Y411.323
G1 Y340.998
G3 X18.415 Y337.823 I3.175 J0.0
G1 X438.785
G3 X441.96 Y340.998 I0.0 J3.175
G1 Y411.323
G1 X441.0301 Y412.2529
G1 X441.96 Y411.323
G1 X457.2
G3 X460.375 Y414.498 I0.0 J3.175
G1 Y561.499
G3 X457.2 Y564.674 I-3.175 J0.0
G1 X441.96
G1 X441.0301 Y563.7441
G1 X441.96 Y564.674
G1 Y616.585
G3 X438.785 Y619.76 I-3.175 J0.0
G1 X346.075
G1 X345.1451 Y618.8301
G1 X346.075 Y619.76
G1 Y635.0
G3 X343.1436 Y638.1656 I-3.175 J0.0
G1 F300.0 Z-11.0
G3 F800.0 X342.9 Y638.175 I-0.2436 J-3.1656
G1 X114.3
G3 X111.125 Y635.0 I0.0 J-3.175
G1 Y619.76
G1 X112.0549 Y618.8301
G1 X111.125 Y619.76
G1 X18.415
G3 X15.24 Y616.585 I0.0 J-3.175
G1 Y564.674
G1 X16.1699 Y563.7441
G1 X15.24 Y564.674
G1 X0.0
G3 X-3.175 Y561.499 I0.0 J-3.175
G1 Y414.498
G3 X0.0 Y411.323 I3.175 J0.0
G1 X15.24
G1 X16.1699 Y412.2529
G1 X15.24 Y411.323
G1 Y340.998
G3 X18.415 Y337.823 I3.175 J0.0
G1 X438.785
G3 X441.96 Y340.998 I0.0 J3.175
G1 Y411.323
G1 X441.0301 Y412.2529
G1 X441.96 Y411.323
G1 X457.2
G3 X460.375 Y414.498 I0.0 J3.175
G1 Y561.499
G3 X457.2 Y564.674 I-3.175 J0.0
G1 X441.96
G1 X441.0301 Y563.7441
G1 X441.96 Y564.674
G1 Y616.585
G3 X438.785 Y619.76 I-3.175 J0.0
G1 X346.075
G1 X345.1451 Y618.8301
G1 X346.075 Y619.76
G1 Y635.0
G3 X343.1436 Y638.1656 I-3.175 J0.0
G1 F300.0 Z-12.0
G3 F800.0 X342.9 Y638.175 I-0.2436 J-3.1656
G1 X114.3
G3 X111.125 Y635.0 I0.0 J-3.175
G1 Y619.76
G1 X112.0549 Y618.8301
G1 X111.125 Y619.76
G1 X18.415
G3 X15.24 Y616.585 I0.0 J-3.175
G1 Y564.674
G1 X16.1699 Y563.7441
G1 X15.24 Y564.674
G1 X0.0
G3 X-3.175 Y561.499 I0.0 J-3.175
G1 Y414.498
G3 X0.0 Y411.323 I3.175 J0.0
G1 X15.24
G1 X16.1699 Y412.2529
G1 X15.24 Y411.323
G1 Y340.998
G3 X18.415 Y337.823 I3.175 J0.0
G1 X438.785
G3 X441.96 Y340.998 I0.0 J3.175
G1 Y411.323
G1 X441.0301 Y412.2529
G1 X441.96 Y411.323
G1 X457.2
G3 X460.375 Y414.498 I0.0 J3.175
G1 Y561.499
G3 X457.2 Y564.674 I-3.175 J0.0
G1 X441.96
G1 X441.0301 Y563.7441
G1 X441.96 Y564.674
G1 Y616.585
G3 X438.785 Y619.76 I-3.175 J0.0
G1 X346.075
G1 X345.1451 Y618.8301
G1 X346.075 Y619.76
G1 Y635.0
G3 X343.1436 Y638.1656 I-3.175 J0.0
G1 F300.0 Z-13.0
G3 F800.0 X342.9 Y638.175 I-0.2436 J-3.1656
G1 X114.3
G3 X111.125 Y635.0 I0.0 J-3.175
G1 Y619.76
G1 X112.0549 Y618.8301
G1 X111.125 Y619.76
G1 X18.415
G3 X15.24 Y616.585 I0.0 J-3.175
G1 Y564.674
G1 X16.1699 Y563.7441
G1 X15.24 Y564.674
G1 X0.0
G3 X-3.175 Y561.499 I0.0 J-3.175
G1 Y414.498
G3 X0.0 Y411.323 I3.175 J0.0
G1 X15.24
G1 X16.1699 Y412.2529
G1 X15.24 Y411.323
G1 Y340.998
G3 X18.415 Y337.823 I3.175 J0.0
G1 X438.785
G3 X441.96 Y340.998 I0.0 J3.175
G1 Y411.323
G1 X441.0301 Y412.2529
G1 X441.96 Y411.323
G1 X457.2
G3 X460.375 Y414.498 I0.0 J3.175
G1 Y561.499
G3 X457.2 Y564.674 I-3.175 J0.0
G1 X441.96
G1 X441.0301 Y563.7441
G1 X441.96 Y564.674
G1 Y616.585
G3 X438.785 Y619.76 I-3.175 J0.0
G1 X346.075
G1 X345.1451 Y618.8301
G1 X346.075 Y619.76
G1 Y635.0
G3 X343.1436 Y638.1656 I-3.175 J0.0
G1 F300.0 Z-14.0
G3 F800.0 X342.9 Y638.175 I-0.2436 J-3.1656
G1 X114.3
G3 X111.125 Y635.0 I0.0 J-3.175
G1 Y619.76
G1 X112.0549 Y618.8301
G1 X111.125 Y619.76
G1 X18.415
G3 X15.24 Y616.585 I0.0 J-3.175
G1 Y564.674
G1 X16.1699 Y563.7441
G1 X15.24 Y564.674
G1 X0.0
G3 X-3.175 Y561.499 I0.0 J-3.175
G1 Y414.498
G3 X0.0 Y411.323 I3.175 J0.0
G1 X15.24
G1 X16.1699 Y412.2529
G1 X15.24 Y411.323
G1 Y340.998
G3 X18.415 Y337.823 I3.175 J0.0
G1 X438.785
G3 X441.96 Y340.998 I0.0 J3.175
G1 Y411.323
G1 X441.0301 Y412.2529
G1 X441.96 Y411.323
G1 X457.2
G3 X460.375 Y414.498 I0.0 J3.175
G1 Y561.499
G3 X457.2 Y564.674 I-3.175 J0.0
G1 X441.96
G1 X441.0301 Y563.7441
G1 X441.96 Y564.674
G1 Y616.585
G3 X438.785 Y619.76 I-3.175 J0.0
G1 X346.075
G1 X345.1451 Y618.8301
G1 X346.075 Y619.76
G1 Y635.0
G3 X343.1436 Y638.1656 I-3.175 J0.0
G1 F300.0 Z-15.0
G3 F800.0 X342.9 Y638.175 I-0.2436 J-3.1656
G1 X114.3
G3 X111.125 Y635.0 I0.0 J-3.175
G1 Y619.76
G1 X112.0549 Y618.8301
G1 X111.125 Y619.76
G1 X18.415
G3 X15.24 Y616.585 I0.0 J-3.175
G1 Y564.674
G1 X16.1699 Y563.7441
G1 X15.24 Y564.674
G1 X0.0
G3 X-3.175 Y561.499 I0.0 J-3.175
G1 Y414.498
G3 X0.0 Y411.323 I3.175 J0.0
G1 X15.24
G1 X16.1699 Y412.2529
G1 X15.24 Y411.323
G1 Y340.998
G3 X18.415 Y337.823 I3.175 J0.0
G1 X438.785
G3 X441.96 Y340.998 I0.0 J3.175
G1 Y411.323
G1 X441.0301 Y412.2529
G1 X441.96 Y411.323
G1 X457.2
G3 X460.375 Y414.498 I0.0 J3.175
G1 Y561.499
G3 X457.2 Y564.674 I-3.175 J0.0
G1 X441.96
G1 X441.0301 Y563.7441
G1 X441.96 Y564.674
G1 Y616.585
G3 X438.785 Y619.76 I-3.175 J0.0
G1 X346.075
G1 X345.1451 Y618.8301
G1 X346.075 Y619.76
G1 Y635.0
G3 X343.1436 Y638.1656 I-3.175 J0.0
G1 F300.0 Z-16.0
G3 F800.0 X342.9 Y638.175 I-0.2436 J-3.1656
G1 X114.3
G3 X111.125 Y635.0 I0.0 J-3.175
G1 Y619.76
G1 X112.0549 Y618.8301
G1 X111.125 Y619.76
G1 X18.415
G3 X15.24 Y616.585 I0.0 J-3.175
G1 Y564.674
G1 X16.1699 Y563.7441
G1 X15.24 Y564.674
G1 X0.0
G3 X-3.175 Y561.499 I0.0 J-3.175
G1 Y414.498
G3 X0.0 Y411.323 I3.175 J0.0
G1 X15.24
G1 X16.1699 Y412.2529
G1 X15.24 Y411.323
G1 Y340.998
G3 X18.415 Y337.823 I3.175 J0.0
G1 X438.785
G3 X441.96 Y340.998 I0.0 J3.175
G1 Y411.323
G1 X441.0301 Y412.2529
G1 X441.96 Y411.323
G1 X457.2
G3 X460.375 Y414.498 I0.0 J3.175
G1 Y561.499
G3 X457.2 Y564.674 I-3.175 J0.0
G1 X441.96
G1 X441.0301 Y563.7441
G1 X441.96 Y564.674
G1 Y616.585
G3 X438.785 Y619.76 I-3.175 J0.0
G1 X346.075
G1 X345.1451 Y618.8301
G1 X346.075 Y619.76
G1 Y635.0
G3 X343.1436 Y638.1656 I-3.175 J0.0
G1 F300.0 Z-17.0
G3 F800.0 X342.9 Y638.175 I-0.2436 J-3.1656
G1 X114.3
G3 X111.125 Y635.0 I0.0 J-3.175
G1 Y619.76
G1 X112.0549 Y618.8301
G1 X111.125 Y619.76
G1 X18.415
G3 X15.24 Y616.585 I0.0 J-3.175
G1 Y564.674
G1 X16.1699 Y563.7441
G1 X15.24 Y564.674
G1 X0.0
G3 X-3.175 Y561.499 I0.0 J-3.175
G1 Y414.498
G3 X0.0 Y411.323 I3.175 J0.0
G1 X15.24
G1 X16.1699 Y412.2529
G1 X15.24 Y411.323
G1 Y340.998
G3 X18.415 Y337.823 I3.175 J0.0
G1 X438.785
G3 X441.96 Y340.998 I0.0 J3.175
G1 Y411.323
G1 X441.0301 Y412.2529
G1 X441.96 Y411.323
G1 X457.2
G3 X460.375 Y414.498 I0.0 J3.175
G1 Y561.499
G3 X457.2 Y564.674 I-3.175 J0.0
G1 X441.96
G1 X441.0301 Y563.7441
G1 X441.96 Y564.674
G1 Y616.585
G3 X438.785 Y619.76 I-3.175 J0.0
G1 X346.075
G1 X345.1451 Y618.8301
G1 X346.075 Y619.76
G1 Y635.0
G3 X343.1436 Y638.1656 I-3.175 J0.0
G1 F300.0 Z-18.0
G3 F800.0 X342.9 Y638.175 I-0.2436 J-3.1656
G1 X114.3
G3 X111.125 Y635.0 I0.0 J-3.175
G1 Y619.76
G1 X112.0549 Y618.8301
G1 X111.125 Y619.76
G1 X18.415
G3 X15.24 Y616.585 I0.0 J-3.175
G1 Y564.674
G1 X16.1699 Y563.7441
G1 X15.24 Y564.674
G1 X0.0
G3 X-3.175 Y561.499 I0.0 J-3.175
G1 Y414.498
G3 X0.0 Y411.323 I3.175 J0.0
G1 X15.24
G1 X16.1699 Y412.2529
G1 X15.24 Y411.323
G1 Y340.998
G3 X18.415 Y337.823 I3.175 J0.0
G1 X438.785
G3 X441.96 Y340.998 I0.0 J3.175
G1 Y411.323
G1 X441.0301 Y412.2529
G1 X441.96 Y411.323
G1 X457.2
G3 X460.375 Y414.498 I0.0 J3.175
G1 Y561.499
G3 X457.2 Y564.674 I-3.175 J0.0
G1 X441.96
G1 X441.0301 Y563.7441
G1 X441.96 Y564.674
G1 Y616.585
G3 X438.785 Y619.76 I-3.175 J0.0
G1 X346.075
G1 X345.1451 Y618.8301
G1 X346.075 Y619.76
G1 Y635.0
G3 X343.1436 Y638.1656 I-3.175 J0.0
G1 F300.0 Z-19.0
G3 F800.0 X342.9 Y638.175 I-0.2436 J-3.1656
G1 X114.3
G3 X111.125 Y635.0 I0.0 J-3.175
G1 Y619.76
G1 X112.0549 Y618.8301
G1 X111.125 Y619.76
G1 X18.415
G3 X15.24 Y616.585 I0.0 J-3.175
G1 Y564.674
G1 X16.1699 Y563.7441
G1 X15.24 Y564.674
G1 X0.0
G3 X-3.175 Y561.499 I0.0 J-3.175
G1 Y414.498
G3 X0.0 Y411.323 I3.175 J0.0
G1 X15.24
G1 X16.1699 Y412.2529
G1 X15.24 Y411.323
G1 Y340.998
G3 X18.415 Y337.823 I3.175 J0.0
G1 X438.785
G3 X441.96 Y340.998 I0.0 J3.175
G1 Y411.323
G1 X441.0301 Y412.2529
G1 X441.96 Y411.323
G1 X457.2
G3 X460.375 Y414.498 I0.0 J3.175
G1 Y561.499
G3 X457.2 Y564.674 I-3.175 J0.0
G1 X441.96
G1 X441.0301 Y563.7441
G1 X441.96 Y564.674
G1 Y616.585
G3 X438.785 Y619.76 I-3.175 J0.0
G1 X346.075
G1 X345.1451 Y618.8301
G1 X346.075 Y619.76
G1 Y635.0
G3 X343.1436 Y638.1656 I-3.175 J0.0
G1 F300.0 Z-20.0
G3 F800.0 X342.9 Y638.175 I-0.2436 J-3.1656
G1 X114.3
G3 X111.125 Y635.0 I0.0 J-3.175
G1 Y619.76
G1 X112.0549 Y618.8301
G1 X111.125 Y619.76
G1 X18.415
G3 X15.24 Y616.585 I0.0 J-3.175
G1 Y564.674
G1 X16.1699 Y563.7441
G1 X15.24 Y564.674
G1 X0.0
G3 X-3.175 Y561.499 I0.0 J-3.175
G1 Y414.498
G3 X0.0 Y411.323 I3.175 J0.0
G1 X15.24
G1 X16.1699 Y412.2529
G1 X15.24 Y411.323
G1 Y340.998
G3 X18.415 Y337.823 I3.175 J0.0
G1 X438.785
G3 X441.96 Y340.998 I0.0 J3.175
G1 Y411.323
G1 X441.0301 Y412.2529
G1 X441.96 Y411.323
G1 X457.2
G3 X460.375 Y414.498 I0.0 J3.175
G1 Y561.499
G3 X457.2 Y564.674 I-3.175 J0.0
G1 X441.96
G1 X441.0301 Y563.7441
G1 X441.96 Y564.674
G1 Y616.585
G3 X438.785 Y619.76 I-3.175 J0.0
G1 X346.075
G1 X345.1451 Y618.8301
G1 X346.075 Y619.76
G1 Y635.0
G3 X343.1436 Y638.1656 I-3.175 J0.0
G0 Z15.0
G0 X342.9023 Y307.975
G0 Z1.0
G1 F300.0 Z-1.0
G3 F800.0 X342.9 I-0.0023 J-3.175
G1 X114.3
G3 X111.125 Y304.8 I0.0 J-3.175
G1 Y289.56
G1 X112.0549 Y288.6301
G1 X111.125 Y289.56
G1 X18.415
G3 X15.24 Y286.385 I0.0 J-3.175
G1 Y231.775
G1 X16.1699 Y230.8451
G1 X15.24 Y231.775
G1 X0.0
G3 X-3.175 Y228.6 I0.0 J-3.175
G1 Y76.2
G3 X0.0 Y73.025 I3.175 J0.0
G1 X15.24
G1 X16.1699 Y73.9549
G1 X15.24 Y73.025
G1 Y0.0
G3 X18.415 Y-3.175 I3.175 J0.0
G1 X438.785
G3 X441.96 Y0.0 I0.0 J3.175
G1 Y73.025
G1 X441.0301 Y73.9549
G1 X441.96 Y73.025
G1 X457.2
G3 X460.375 Y76.2 I0.0 J3.175
G1 Y228.6
G3 X457.2 Y231.775 I-3.175 J0.0
G1 X441.96
G1 X441.0301 Y230.8451
G1 X441.96 Y231.775
G1 Y286.385
G3 X438.785 Y289.56 I-3.175 J0.0
G1 X346.075
G1 X345.1451 Y288.6301
G1 X346.075 Y289.56
G1 Y304.8
G3 X342.9023 Y307.975 I-3.175 J0.0
G1 F300.0 Z-2.0
G3 F800.0 X342.9 I-0.0023 J-3.175
G1 X114.3
G3 X111.125 Y304.8 I0.0 J-3.175
G1 Y289.56
G1 X112.0549 Y288.6301
G1 X111.125 Y289.56
G1 X18.415
G3 X15.24 Y286.385 I0.0 J-3.175
G1 Y231.775
G1 X16.1699 Y230.8451
G1 X15.24 Y231.775
G1 X0.0
G3 X-3.175 Y228.6 I0.0 J-3.175
G1 Y76.2
G3 X0.0 Y73.025 I3.175 J0.0
G1 X15.24
G1 X16.1699 Y73.9549
G1 X15.24 Y73.025
G1 Y0.0
G3 X18.415 Y-3.175 I3.175 J0.0
G1 X438.785
G3 X441.96 Y0.0 I0.0 J3.175
G1 Y73.025
G1 X441.0301 Y73.9549
G1 X441.96 Y73.025
G1 X457.2
G3 X460.375 Y76.2 I0.0 J3.175
G1 Y228.6
G3 X457.2 Y231.775 I-3.175 J0.0
G1 X441.96
G1 X441.0301 Y230.8451
G1 X441.96 Y231.775
G1 Y286.385
G3 X438.785 Y289.56 I-3.175 J0.0
G1 X346.075
G1 X345.1451 Y288.6301
G1 X346.075 Y289.56
G1 Y304.8
G3 X342.9023 Y307.975 I-3.175 J0.0
G1 F300.0 Z-3.0
G3 F800.0 X342.9 I-0.0023 J-3.175
G1 X114.3
G3 X111.125 Y304.8 I0.0 J-3.175
G1 Y289.56
G1 X112.0549 Y288.6301
G1 X111.125 Y289.56
G1 X18.415
G3 X15.24 Y286.385 I0.0 J-3.175
G1 Y231.775
G1 X16.1699 Y230.8451
G1 X15.24 Y231.775
G1 X0.0
G3 X-3.175 Y228.6 I0.0 J-3.175
G1 Y76.2
G3 X0.0 Y73.025 I3.175 J0.0
G1 X15.24
G1 X16.1699 Y73.9549
G1 X15.24 Y73.025
G1 Y0.0
G3 X18.415 Y-3.175 I3.175 J0.0
G1 X438.785
G3 X441.96 Y0.0 I0.0 J3.175
G1 Y73.025
G1 X441.0301 Y73.9549
G1 X441.96 Y73.025
G1 X457.2
G3 X460.375 Y76.2 I0.0 J3.175
G1 Y228.6
G3 X457.2 Y231.775 I-3.175 J0.0
G1 X441.96
G1 X441.0301 Y230.8451
G1 X441.96 Y231.775
G1 Y286.385
G3 X438.785 Y289.56 I-3.175 J0.0
G1 X346.075
G1 X345.1451 Y288.6301
G1 X346.075 Y289.56
G1 Y304.8
G3 X342.9023 Y307.975 I-3.175 J0.0
G1 F300.0 Z-4.0
G3 F800.0 X342.9 I-0.0023 J-3.175
G1 X114.3
G3 X111.125 Y304.8 I0.0 J-3.175
G1 Y289.56
